components/images/luts/Chrome 01.cube
# Created by: Lutify.me
# Copyright: (c) Copyright Lutify.me 2016, G.T. Colord LTD
# Website: https://lutify.me
# Contact: help@lutify.me
LUT_3D_SIZE 33
0.007751 0.000000 0.000000
0.020538 0.000797 0.000429
0.042511 0.002915 0.001713
0.074158 0.006627 0.003885
0.115479 0.012089 0.007189
0.164001 0.019024 0.011502
0.215942 0.026940 0.016519
0.268677 0.035531 0.022025
0.320923 0.044460 0.027868
0.372314 0.053665 0.033925
0.422424 0.062962 0.040135
0.471436 0.072197 0.046437
0.519836 0.081403 0.052707
0.567322 0.090362 0.058887
0.613647 0.099076 0.064975
0.658386 0.107606 0.071001
0.701263 0.115952 0.077027
0.742096 0.124329 0.083145
0.781036 0.132582 0.089355
0.818420 0.140713 0.095564
0.854370 0.148660 0.101683
0.888794 0.156332 0.107648
0.921295 0.163603 0.113369
0.951782 0.170568 0.118875
0.980347 0.177196 0.124136
1.000000 0.183486 0.129092
1.000000 0.189561 0.133834
1.000000 0.195453 0.138391
1.000000 0.200883 0.142551
1.000000 0.205670 0.146253
1.000000 0.210303 0.150016
1.000000 0.215489 0.154421
1.000000 0.221503 0.159376
0.008301 0.008591 0.000948
0.019775 0.008622 0.000520
0.040466 0.009695 0.001040
0.071442 0.012487 0.002937
0.112396 0.017305 0.005965
0.161072 0.023963 0.010095
0.213379 0.031788 0.015021
0.266449 0.040348 0.020435
0.318848 0.049277 0.026246
0.370178 0.058452 0.032334
0.420532 0.067656 0.038483
0.469727 0.076892 0.044723
0.517822 0.086036 0.050964
0.565094 0.094965 0.057143
0.611694 0.103648 0.063169
0.656830 0.112085 0.069073
0.700012 0.120432 0.075039
0.740967 0.128716 0.081126
0.780029 0.136940 0.087336
0.817444 0.145009 0.093516
0.853516 0.152895 0.099633
0.888000 0.160474 0.105568
0.920563 0.167715 0.111258
0.951141 0.174649 0.116794
0.979614 0.181246 0.122056
1.000000 0.187444 0.126981
1.000000 0.193458 0.131661
1.000000 0.199319 0.136189
1.000000 0.204626 0.140380
1.000000 0.209107 0.144203
1.000000 0.213004 0.148425
1.000000 0.216777 0.153626
1.000000 0.221503 0.159376
0.008606 0.023288 0.002784
0.020233 0.023411 0.002142
0.039764 0.023595 0.001224
0.068970 0.024883 0.001928
0.108582 0.028075 0.004344
0.156586 0.033567 0.008015
0.208679 0.040686 0.012665
0.261963 0.048909 0.017927
0.314850 0.057746 0.023555
0.366608 0.066858 0.029520
0.417053 0.076003 0.035669
0.466339 0.085176 0.041818
0.514740 0.094289 0.047935
0.561829 0.103157 0.054023
0.607971 0.111779 0.060080
0.653290 0.120186 0.065892
0.697174 0.128410 0.071705
0.738708 0.136663 0.077700
0.777954 0.144764 0.083818
0.815430 0.152772 0.089967
0.851562 0.160535 0.096085
0.886261 0.167990 0.101928
0.919006 0.175109 0.107556
0.949646 0.181982 0.113032
0.978241 0.188426 0.118294
1.000000 0.194593 0.123249
1.000000 0.200484 0.127960
1.000000 0.206253 0.132456
1.000000 0.211438 0.136586
1.000000 0.215734 0.140441
1.000000 0.219232 0.144723
1.000000 0.222454 0.150261
1.000000 0.226596 0.156317
0.008850 0.045196 0.005507
0.020264 0.045380 0.004803
0.039703 0.045625 0.003548
0.067993 0.045993 0.002387
0.105896 0.047405 0.003182
0.152130 0.050627 0.005904
0.203033 0.055935 0.009820
0.255615 0.062808 0.014592
0.308380 0.070909 0.019914
0.360474 0.079653 0.025635
0.411499 0.088674 0.031539
0.461060 0.097787 0.037595
0.509613 0.106778 0.043561
0.556976 0.115676 0.049557
0.602753 0.124267 0.055522
0.647705 0.132582 0.061304
0.692017 0.140744 0.066932
0.734467 0.148783 0.072653
0.774414 0.156791 0.078587
0.812103 0.164646 0.084675
0.848328 0.172287 0.090701
0.883087 0.179650 0.096544
0.916138 0.186616 0.102081
0.947083 0.193243 0.107434
0.975769 0.199594 0.112665
1.000000 0.205547 0.117590
1.000000 0.211254 0.122301
1.000000 0.216931 0.126859
1.000000 0.222024 0.130958
1.000000 0.226320 0.134659
1.000000 0.230063 0.138575
1.000000 0.233715 0.143622
1.000000 0.238624 0.149281
0.009155 0.074744 0.009086
0.020081 0.074929 0.008382
0.039246 0.075297 0.007067
0.067291 0.075726 0.005384
0.104645 0.076401 0.003946
0.149200 0.077721 0.004834
0.198242 0.080329 0.007526
0.249207 0.084747 0.011227
0.300781 0.090853 0.015816
0.352356 0.098278 0.021046
0.403320 0.106501 0.026553
0.453125 0.115154 0.032243
0.501923 0.123961 0.038024
0.549591 0.132736 0.043806
0.595886 0.141327 0.049587
0.640381 0.149642 0.055369
0.683838 0.157742 0.061089
0.726807 0.165659 0.066473
0.768005 0.173452 0.071979
0.806732 0.181062 0.077731
0.843323 0.188518 0.083604
0.878174 0.195759 0.089294
0.911346 0.202571 0.094738
0.942657 0.209045 0.100031
0.971832 0.215181 0.105139
0.998779 0.220919 0.109973
1.000000 0.226412 0.114592
1.000000 0.231935 0.119181
1.000000 0.237090 0.123341
1.000000 0.241508 0.126950
1.000000 0.245559 0.130437
1.000000 0.249731 0.134598
1.000000 0.255193 0.139340
0.009155 0.110429 0.013369
0.019623 0.110521 0.012604
0.038300 0.110920 0.011319
0.066010 0.111380 0.009484
0.103333 0.112055 0.007434
0.147736 0.113037 0.005874
0.195679 0.114110 0.006852
0.244873 0.115891 0.009178
0.294586 0.119081 0.012451
0.344452 0.123961 0.016672
0.394135 0.130189 0.021444
0.443329 0.137492 0.026614
0.491943 0.145500 0.031998
0.539764 0.153846 0.037443
0.586456 0.162284 0.042919
0.631622 0.170599 0.048394
0.675018 0.178668 0.053993
0.716980 0.186585 0.059591
0.758453 0.194194 0.064852
0.798309 0.201559 0.070114
0.835846 0.208769 0.075589
0.871429 0.215734 0.080881
0.904755 0.222454 0.086173
0.936340 0.228775 0.091343
0.966125 0.234758 0.096238
0.993652 0.240311 0.100918
1.000000 0.245650 0.105445
1.000000 0.250836 0.109912
1.000000 0.255807 0.113949
1.000000 0.260409 0.117559
1.000000 0.264735 0.121077
1.000000 0.269215 0.124870
1.000000 0.274523 0.128724
0.008606 0.149489 0.017988
0.018646 0.149642 0.017162
0.036865 0.150010 0.015785
0.064209 0.150501 0.013888
0.101074 0.151115 0.011625
0.145966 0.152097 0.009361
0.193939 0.153293 0.008168
0.242889 0.154214 0.009147
0.291290 0.155319 0.011074
0.339417 0.157313 0.013827
0.387146 0.160658 0.017498
0.434601 0.165414 0.021720
0.481934 0.171520 0.026431
0.528778 0.178577 0.031417
0.575165 0.186308 0.036434
0.620605 0.194255 0.041512
0.664764 0.202202 0.046651
0.707184 0.210058 0.052035
0.748047 0.217667 0.057388
0.787842 0.224908 0.062558
0.826294 0.231874 0.067514
0.862946 0.238593 0.072346
0.896790 0.245068 0.077272
0.928772 0.251265 0.082135
0.958954 0.257095 0.086816
0.987000 0.262587 0.091343
1.000000 0.267681 0.095687
1.000000 0.272682 0.100000
1.000000 0.277346 0.103824
1.000000 0.281826 0.107067
1.000000 0.286244 0.110584
1.000000 0.290908 0.114836
1.000000 0.296370 0.118630
0.007538 0.190237 0.022668
0.017181 0.190451 0.021811
0.034943 0.190850 0.020373
0.062012 0.191402 0.018355
0.098633 0.192046 0.015877
0.142853 0.192783 0.013430
0.192017 0.194041 0.011197
0.241119 0.195330 0.010676
0.290009 0.196281 0.011656
0.337433 0.196956 0.013246
0.383820 0.197968 0.015571
0.429565 0.200025 0.018599
0.475067 0.203307 0.022179
0.519928 0.207879 0.026370
0.564514 0.213709 0.030835
0.608887 0.220459 0.035485
0.652771 0.227731 0.040196
0.695679 0.235187 0.045029
0.737244 0.242705 0.050046
0.777130 0.249915 0.055124
0.815796 0.256788 0.059958
0.852844 0.263416 0.064516
0.887665 0.269676 0.068798
0.920197 0.275659 0.073264
0.950684 0.281396 0.077700
0.979126 0.286735 0.081891
1.000000 0.291706 0.086021
1.000000 0.296493 0.090089
1.000000 0.300973 0.093729
1.000000 0.305084 0.096757
1.000000 0.309502 0.099755
1.000000 0.314289 0.103763
1.000000 0.319904 0.108382
0.006226 0.231842 0.027470
0.015411 0.232058 0.026614
0.032654 0.232457 0.025176
0.059387 0.233070 0.023096
0.095917 0.233837 0.020373
0.140198 0.234697 0.017559
0.188782 0.235494 0.015234
0.239288 0.236906 0.013246
0.288330 0.238286 0.013308
0.336853 0.239330 0.014286
0.383118 0.239913 0.015510
0.428009 0.240342 0.017529
0.472046 0.241355 0.020007
0.515320 0.243318 0.023066
0.557831 0.246448 0.026614
0.599854 0.250744 0.030560
0.641937 0.256205 0.034782
0.683929 0.262495 0.039156
0.725342 0.269245 0.043714
0.765747 0.276211 0.048394
0.804749 0.283114 0.053105
0.841675 0.289620 0.057663
0.877319 0.295726 0.061395
0.910583 0.301525 0.065280
0.941376 0.307079 0.069349
0.970276 0.312295 0.073203
0.997375 0.317204 0.076905
1.000000 0.321929 0.080667
1.000000 0.326255 0.084063
1.000000 0.330214 0.086816
1.000000 0.334111 0.089630
1.000000 0.339112 0.093056
1.000000 0.344973 0.096666
0.005005 0.273664 0.032426
0.013702 0.273879 0.031661
0.030365 0.274370 0.030163
0.056427 0.275045 0.028052
0.092590 0.275812 0.025298
0.136963 0.276763 0.022148
0.185883 0.277684 0.019364
0.236145 0.278574 0.017345
0.286591 0.280047 0.015723
0.335114 0.281519 0.016060
0.382843 0.282685 0.016947
0.427948 0.283391 0.017804
0.471680 0.283636 0.019456
0.514038 0.284004 0.021659
0.555267 0.284955 0.024259
0.595520 0.286735 0.027257
0.635376 0.289589 0.030713
0.675262 0.293669 0.034476
0.715149 0.298733 0.038483
0.754669 0.304471 0.042735
0.793488 0.310699 0.047048
0.830719 0.316958 0.051331
0.866394 0.322973 0.054941
0.900055 0.328618 0.058458
0.931427 0.334018 0.062099
0.960815 0.339112 0.065586
0.988617 0.343929 0.068859
1.000000 0.348562 0.072133
1.000000 0.352919 0.075131
1.000000 0.356908 0.077608
1.000000 0.360651 0.080147
1.000000 0.364825 0.083482
1.000000 0.371176 0.086541
0.004120 0.315087 0.037595
0.012329 0.315271 0.036893
0.028229 0.315700 0.035485
0.053589 0.316529 0.033160
0.089050 0.317480 0.030285
0.133057 0.318462 0.027134
0.182190 0.319505 0.023983
0.233093 0.320426 0.021597
0.283600 0.321438 0.019884
0.333344 0.323003 0.018538
0.380920 0.324507 0.018997
0.427429 0.325765 0.019762
0.471649 0.326593 0.020312
0.514038 0.326839 0.021750
0.554901 0.326961 0.023585
0.594421 0.327329 0.025818
0.632996 0.328219 0.028450
0.671112 0.329937 0.031478
0.709106 0.332699 0.034782
0.746826 0.336411 0.038330
0.784180 0.340922 0.042093
0.820801 0.346108 0.045977
0.855682 0.351415 0.049526
0.889404 0.356754 0.052677
0.921509 0.362033 0.055736
0.951355 0.367003 0.058948
0.979584 0.371728 0.061915
1.000000 0.376238 0.064699
1.000000 0.380565 0.067116
1.000000 0.384738 0.069318
1.000000 0.388788 0.071674
1.000000 0.392869 0.074733
1.000000 0.397594 0.078159
0.003326 0.355742 0.042766
0.011139 0.355896 0.042032
0.026428 0.356202 0.040869
0.050903 0.357001 0.038667
0.085754 0.358197 0.035332
0.129272 0.359362 0.031906
0.178040 0.360406 0.028694
0.228973 0.361388 0.026063
0.280487 0.362370 0.024228
0.330536 0.363474 0.022668
0.379120 0.365162 0.021475
0.425323 0.366696 0.022056
0.470703 0.367985 0.022913
0.513550 0.368936 0.023433
0.554718 0.369274 0.024503
0.594269 0.369304 0.026033
0.632568 0.369427 0.027898
0.669952 0.369795 0.030163
0.706696 0.370716 0.032702
0.742950 0.372495 0.035516
0.778748 0.375103 0.038545
0.813721 0.378295 0.041818
0.847656 0.382192 0.045029
0.880768 0.386518 0.047660
0.912598 0.391028 0.050077
0.942505 0.395569 0.052983
0.970825 0.400018 0.055858
0.998047 0.404467 0.058367
1.000000 0.408702 0.060263
1.000000 0.412874 0.061915
1.000000 0.417323 0.064088
1.000000 0.422110 0.067238
1.000000 0.427234 0.070572
0.002899 0.395385 0.047966
0.010254 0.395569 0.047170
0.024872 0.395907 0.045977
0.048615 0.396551 0.043959
0.082672 0.397716 0.040899
0.125793 0.399251 0.036770
0.174347 0.400478 0.033099
0.225037 0.401399 0.030407
0.276123 0.402258 0.028602
0.326996 0.403332 0.026981
0.376251 0.404621 0.025635
0.423645 0.406247 0.024931
0.468628 0.407781 0.025574
0.512360 0.409162 0.026246
0.553802 0.410175 0.026798
0.593689 0.410634 0.027654
0.632233 0.410757 0.028908
0.669586 0.410788 0.030469
0.706116 0.411003 0.032334
0.741913 0.411647 0.034384
0.776764 0.412690 0.036556
0.809967 0.413703 0.038850
0.842468 0.415728 0.041420
0.874878 0.418674 0.043592
0.906006 0.421926 0.045396
0.935242 0.425485 0.047783
0.963318 0.429413 0.050261
0.990479 0.433494 0.052585
1.000000 0.437544 0.054298
1.000000 0.441472 0.055491
1.000000 0.445736 0.057113
1.000000 0.450799 0.060141
1.000000 0.455831 0.063536
0.002594 0.433586 0.053167
0.009644 0.433832 0.052371
0.023560 0.434291 0.050933
0.046478 0.434844 0.048944
0.079681 0.435856 0.046100
0.122101 0.437360 0.042184
0.170746 0.439109 0.037627
0.221649 0.440274 0.034293
0.272156 0.440919 0.032580
0.322510 0.441686 0.031325
0.372345 0.442914 0.029948
0.420319 0.444294 0.028908
0.466522 0.445798 0.028817
0.510437 0.447363 0.029337
0.552246 0.448774 0.029887
0.592194 0.449817 0.030346
0.630920 0.450400 0.031050
0.668518 0.450615 0.032059
0.705078 0.450707 0.033344
0.740845 0.450952 0.034812
0.776001 0.451597 0.036280
0.809509 0.452118 0.037749
0.840454 0.452118 0.039340
0.871002 0.452855 0.040777
0.901825 0.454942 0.042123
0.930847 0.457427 0.043683
0.957428 0.459543 0.045427
0.984070 0.462827 0.047262
1.000000 0.466570 0.048700
1.000000 0.470406 0.049557
1.000000 0.474118 0.050535
1.000000 0.478230 0.052891
1.000000 0.482679 0.056226
0.002258 0.470130 0.058214
0.009094 0.470345 0.057480
0.022491 0.470835 0.055950
0.044556 0.471541 0.053717
0.076935 0.472431 0.050964
0.118561 0.473750 0.047324
0.166718 0.475530 0.042949
0.218079 0.477279 0.038545
0.269196 0.478199 0.035975
0.318695 0.478629 0.034995
0.367767 0.479457 0.034017
0.416229 0.480777 0.032885
0.463013 0.482188 0.032273
0.507874 0.483631 0.032548
0.550171 0.485165 0.032854
0.590088 0.486514 0.033436
0.628693 0.487588 0.033986
0.666382 0.488294 0.034567
0.703156 0.488601 0.035302
0.738892 0.488754 0.036250
0.773987 0.489122 0.037229
0.807953 0.489614 0.038147
0.839508 0.489460 0.038881
0.868683 0.488663 0.039584
0.898438 0.489521 0.040410
0.930176 0.493142 0.041114
0.958008 0.495167 0.041970
0.980286 0.494032 0.042919
1.000000 0.495412 0.043775
1.000000 0.498665 0.044203
1.000000 0.502347 0.044662
1.000000 0.505722 0.045916
1.000000 0.508913 0.048150
0.002075 0.504741 0.063169
0.008606 0.504955 0.062466
0.021576 0.505446 0.060997
0.042908 0.506244 0.058643
0.074371 0.507226 0.055552
0.115295 0.508422 0.052096
0.162842 0.510018 0.047996
0.213837 0.511889 0.043592
0.265686 0.513393 0.039768
0.315826 0.514068 0.037993
0.364136 0.514497 0.037412
0.411743 0.515387 0.036708
0.458740 0.516830 0.035608
0.503937 0.518210 0.035241
0.547150 0.519652 0.035669
0.587708 0.521125 0.036097
0.626099 0.522383 0.036862
0.663574 0.523457 0.037412
0.700378 0.524255 0.037810
0.736145 0.524623 0.038208
0.770966 0.524746 0.038667
0.804901 0.525084 0.039156
0.837311 0.525299 0.039432
0.867401 0.524900 0.039676
0.895630 0.524285 0.039890
0.925568 0.526003 0.039860
0.957031 0.530116 0.040012
0.981964 0.529901 0.040166
1.000000 0.526219 0.040135
1.000000 0.526771 0.039982
1.000000 0.530054 0.039799
1.000000 0.533798 0.039982
1.000000 0.537050 0.040380
0.001892 0.537663 0.067972
0.008148 0.537847 0.067299
0.020599 0.538339 0.065892
0.041412 0.539167 0.063597
0.071991 0.540333 0.060295
0.112000 0.541622 0.056470
0.159058 0.542941 0.052707
0.209564 0.544690 0.048486
0.261078 0.546409 0.044387
0.312103 0.547605 0.041420
0.361084 0.548127 0.040532
0.408112 0.548618 0.040227
0.454315 0.549723 0.039217
0.499298 0.551226 0.037963
0.542633 0.552668 0.037810
0.584198 0.554110 0.038360
0.623230 0.555491 0.038973
0.660431 0.556687 0.039829
0.696991 0.557792 0.040227
0.732880 0.558590 0.040319
0.767609 0.558896 0.040288
0.800964 0.558896 0.040288
0.833191 0.558927 0.040196
0.864227 0.558989 0.040073
0.893158 0.558651 0.039829
0.920471 0.558068 0.039217
0.949402 0.559786 0.038758
0.980194 0.563683 0.038453
1.000000 0.563376 0.037719
1.000000 0.557332 0.036801
1.000000 0.557270 0.036036
1.000000 0.561106 0.035485
1.000000 0.565831 0.034323
0.001709 0.569145 0.072622
0.007721 0.569298 0.071949
0.019623 0.569728 0.070664
0.039948 0.570617 0.068462
0.069916 0.571875 0.065158
0.108917 0.573379 0.060967
0.155212 0.574790 0.056807
0.205475 0.576079 0.053074
0.256348 0.577797 0.048944
0.306976 0.579300 0.045457
0.356659 0.580221 0.043592
0.404205 0.580712 0.043164
0.449951 0.581388 0.042643
0.494476 0.582737 0.041175
0.537506 0.584333 0.040012
0.579102 0.585837 0.039982
0.619141 0.587371 0.040471
0.657013 0.588720 0.041022
0.693298 0.589825 0.041786
0.729065 0.590869 0.041970
0.763916 0.591636 0.041695
0.797211 0.591850 0.041236
0.828888 0.591636 0.040716
0.859619 0.591451 0.040196
0.889191 0.591328 0.039584
0.916748 0.590623 0.038514
0.942780 0.589703 0.037565
0.970306 0.590685 0.036832
1.000000 0.594551 0.035760
1.000000 0.593600 0.034231
1.000000 0.587278 0.032732
1.000000 0.587800 0.031754
1.000000 0.593016 0.030009
0.001526 0.599522 0.077119
0.007202 0.599706 0.076446
0.018707 0.600104 0.075222
0.038605 0.601116 0.073020
0.067902 0.602405 0.069777
0.106171 0.603909 0.065495
0.151520 0.605658 0.060784
0.201263 0.606947 0.056745
0.252045 0.608112 0.053258
0.301605 0.609646 0.049465
0.350555 0.610966 0.046742
0.398682 0.611856 0.045519
0.444733 0.612347 0.045213
0.488983 0.613267 0.044203
0.531769 0.614862 0.042521
0.573090 0.616551 0.041542
0.613312 0.618208 0.041420
0.652222 0.619742 0.041542
0.689301 0.621030 0.041879
0.724854 0.622042 0.042460
0.759766 0.623056 0.042338
0.793427 0.623822 0.041664
0.825195 0.624037 0.040777
0.855286 0.623638 0.039829
0.884277 0.623086 0.038819
0.912506 0.622595 0.037412
0.938416 0.621184 0.036128
0.962585 0.619189 0.035057
0.989716 0.619742 0.033711
1.000000 0.622687 0.031815
1.000000 0.620662 0.029643
1.000000 0.615046 0.027837
1.000000 0.617808 0.026033
0.001404 0.629038 0.081402
0.006683 0.629284 0.080728
0.017639 0.629683 0.079444
0.037170 0.630818 0.077272
0.065979 0.632260 0.073998
0.103394 0.633672 0.069777
0.147949 0.635390 0.064791
0.196899 0.637293 0.059743
0.247528 0.638274 0.056134
0.296692 0.639256 0.052922
0.344086 0.640759 0.049648
0.391418 0.642017 0.047599
0.437653 0.642662 0.046620
0.482117 0.643306 0.045977
0.524902 0.644625 0.044479
0.566101 0.646344 0.042888
0.606232 0.648093 0.042001
0.645538 0.649811 0.041695
0.683746 0.651407 0.041328
0.720215 0.652665 0.041328
0.755005 0.653647 0.041725
0.789124 0.654690 0.041053
0.821716 0.655549 0.039982
0.851898 0.655549 0.038850
0.880096 0.654721 0.037595
0.907837 0.653954 0.035882
0.934082 0.652603 0.034354
0.958160 0.650210 0.033130
0.982056 0.648000 0.031600
1.000000 0.647664 0.029459
1.000000 0.646375 0.026889
1.000000 0.638766 0.024228
1.000000 0.639195 0.021689
0.001404 0.657820 0.085562
0.006317 0.658096 0.084767
0.016602 0.658556 0.083421
0.035309 0.659660 0.081218
0.063354 0.661102 0.077945
0.099976 0.662606 0.073662
0.143738 0.664386 0.068523
0.191925 0.666626 0.062771
0.241943 0.668406 0.057663
0.291656 0.669019 0.054635
0.338623 0.669786 0.051974
0.383972 0.670983 0.049435
0.429291 0.672118 0.047538
0.473877 0.672946 0.046529
0.516754 0.674051 0.045305
0.557922 0.675554 0.043653
0.597992 0.677365 0.042123
0.637360 0.679175 0.041267
0.676056 0.680924 0.040625
0.713531 0.682520 0.039921
0.749420 0.683716 0.039401
0.783875 0.684729 0.039064
0.817352 0.685864 0.038024
0.848572 0.686539 0.037167
0.877258 0.686263 0.036219
0.904358 0.685251 0.034384
0.930115 0.683624 0.032671
0.954468 0.681415 0.031233
0.977814 0.678653 0.029550
1.000000 0.675770 0.027226
1.000000 0.671965 0.024503
1.000000 0.665613 0.021689
1.000000 0.663312 0.018446
0.001343 0.685465 0.089569
0.006073 0.685741 0.088773
0.015869 0.686325 0.087182
0.033508 0.687337 0.084889
0.060486 0.688656 0.081585
0.096283 0.690252 0.077211
0.139313 0.692277 0.071857
0.186829 0.694639 0.065862
0.236176 0.696971 0.059804
0.285461 0.698414 0.055032
0.333130 0.698751 0.052494
0.377777 0.699272 0.050596
0.421234 0.700377 0.048303
0.464539 0.701574 0.046406
0.507172 0.702709 0.044999
0.548370 0.704121 0.043438
0.588379 0.705900 0.041725
0.627625 0.707895 0.040380
0.666504 0.710011 0.039462
0.704742 0.711914 0.038575
0.741669 0.713357 0.037534
0.776978 0.714308 0.036770
0.810822 0.715136 0.036158
0.843323 0.715872 0.035302
0.873505 0.716149 0.034293
0.901398 0.715688 0.032702
0.927216 0.714277 0.031111
0.951630 0.712190 0.029704
0.975250 0.709705 0.027960
0.997742 0.706821 0.025513
1.000000 0.702770 0.022668
1.000000 0.697554 0.019853
1.000000 0.694486 0.017131
0.001190 0.711791 0.093423
0.005737 0.712068 0.092628
0.015228 0.712681 0.090945
0.031830 0.713602 0.088406
0.057678 0.714952 0.084950
0.092529 0.716670 0.080392
0.134796 0.718818 0.074855
0.181641 0.721303 0.068737
0.230438 0.723850 0.062282
0.279175 0.725998 0.056195
0.326904 0.727072 0.051974
0.372284 0.727133 0.050168
0.414856 0.727624 0.048548
0.456329 0.728760 0.046406
0.497772 0.730079 0.044479
0.538544 0.731521 0.042705
0.578278 0.733239 0.040899
0.617249 0.735295 0.039247
0.656006 0.737565 0.037993
0.694550 0.739774 0.037076
0.732330 0.741585 0.036006
0.768646 0.742782 0.034782
0.803253 0.743426 0.034108
0.836426 0.743886 0.033619
0.868011 0.744162 0.032610
0.897552 0.744286 0.031356
0.925781 0.744654 0.030009
0.952087 0.744162 0.028663
0.975708 0.741923 0.026950
0.997101 0.738425 0.024564
1.000000 0.734435 0.021689
1.000000 0.730662 0.018936
1.000000 0.728177 0.016672
0.001129 0.736860 0.097125
0.005432 0.737166 0.096329
0.014648 0.737780 0.094616
0.030548 0.738793 0.091833
0.055359 0.740173 0.088040
0.089142 0.741953 0.083298
0.130432 0.744101 0.077731
0.176422 0.746617 0.071459
0.224579 0.749255 0.064913
0.272858 0.751772 0.058245
0.320251 0.753766 0.052187
0.365967 0.754564 0.048548
0.409180 0.754564 0.047170
0.449738 0.755055 0.045825
0.489655 0.756251 0.043897
0.529449 0.757786 0.041725
0.568573 0.759504 0.039707
0.607025 0.761376 0.037902
0.645264 0.763493 0.036464
0.683838 0.765764 0.035393
0.722168 0.767881 0.034445
0.759308 0.769414 0.033282
0.795013 0.770427 0.032243
0.829010 0.771010 0.031876
0.861206 0.771164 0.031539
0.892090 0.771286 0.030591
0.922791 0.772821 0.029276
0.953033 0.775214 0.027960
0.978912 0.774784 0.026339
0.999908 0.770980 0.024228
1.000000 0.766009 0.021720
1.000000 0.762235 0.019364
1.000000 0.761192 0.017498
0.001129 0.760578 0.100674
0.005157 0.760885 0.099817
0.014099 0.761499 0.098103
0.029541 0.762541 0.095259
0.053375 0.764045 0.091160
0.086060 0.765948 0.086112
0.126282 0.768188 0.080331
0.171356 0.770673 0.073968
0.218628 0.773343 0.067238
0.266327 0.776012 0.060325
0.313354 0.778405 0.053564
0.358887 0.780216 0.047905
0.402649 0.780798 0.044877
0.443756 0.780859 0.043653
0.482758 0.781596 0.042215
0.521301 0.783008 0.039982
0.559509 0.784726 0.037810
0.597229 0.786444 0.036250
0.634827 0.788285 0.035057
0.672974 0.790310 0.034047
0.711487 0.792489 0.033252
0.749298 0.794330 0.032243
0.785919 0.795772 0.031050
0.820984 0.796723 0.030315
0.854065 0.797061 0.030224
0.885345 0.796877 0.029948
0.916046 0.797306 0.028908
0.949036 0.801111 0.027624
0.979919 0.804425 0.026033
1.000000 0.803873 0.024198
1.000000 0.799054 0.022331
1.000000 0.793593 0.020710
1.000000 0.790893 0.019548
0.001129 0.783008 0.104130
0.004944 0.783283 0.103213
0.013550 0.783959 0.101438
0.028625 0.785002 0.098501
0.051788 0.786506 0.094280
0.083466 0.788561 0.088896
0.122589 0.790893 0.082839
0.166687 0.793409 0.076231
0.213104 0.796110 0.069318
0.260101 0.798718 0.062252
0.306641 0.801295 0.055278
0.351929 0.803627 0.048700
0.395660 0.805253 0.043561
0.437378 0.805897 0.040655
0.476776 0.806234 0.039370
0.514740 0.807217 0.037688
0.552094 0.808781 0.035608
0.588959 0.810438 0.034231
0.625702 0.812065 0.033497
0.662933 0.813813 0.032854
0.701080 0.815747 0.032182
0.739105 0.817649 0.031325
0.776428 0.819367 0.030254
0.812225 0.820564 0.029276
0.846252 0.821178 0.028878
0.878723 0.821485 0.028724
0.909210 0.821178 0.028480
0.939697 0.822068 0.027470
0.973175 0.826640 0.026033
1.000000 0.831763 0.024411
1.000000 0.831794 0.023066
1.000000 0.826517 0.022301
1.000000 0.817894 0.021995
0.001068 0.804393 0.107342
0.004730 0.804640 0.106424
0.013000 0.805283 0.104589
0.027649 0.806358 0.101591
0.050293 0.807953 0.097309
0.081207 0.809947 0.091741
0.119385 0.812371 0.085347
0.162689 0.814980 0.078495
0.208435 0.817619 0.071368
0.254791 0.820318 0.064149
0.300720 0.822896 0.057052
0.345734 0.825412 0.050199
0.389435 0.827652 0.043959
0.431427 0.829186 0.039156
0.471405 0.829861 0.036586
0.509583 0.830505 0.035057
0.546631 0.831794 0.033252
0.582947 0.833451 0.031722
0.618866 0.835047 0.031141
0.654999 0.836519 0.031050
0.692017 0.838114 0.030805
0.729614 0.839833 0.030102
0.766907 0.841521 0.029276
0.803223 0.842933 0.028633
0.837952 0.843884 0.027960
