components/images/luts/Chrome 01.cube
# Created by: Lutify.me
# Copyright: (c) Copyright Lutify.me 2016, G.T. Colord LTD
# Website: https://lutify.me
# Contact: help@lutify.me
LUT_3D_SIZE 5
0.007751 0.000000 0.000000
0.320923 0.044460 0.027868
0.701263 0.115952 0.077027
0.980347 0.177196 0.124136
1.000000 0.221503 0.159376
0.006226 0.231842 0.027470
0.288330 0.238286 0.013308
0.641937 0.256205 0.034782
0.941376 0.307079 0.069349
1.000000 0.344973 0.096666
0.001892 0.537663 0.067972
0.261078 0.546409 0.044387
0.623230 0.555491 0.038973
0.893158 0.558651 0.039829
1.000000 0.565831 0.034323
0.001129 0.760578 0.100674
0.218628 0.773343 0.067238
0.559509 0.784726 0.037810
0.854065 0.797061 0.030224
1.000000 0.790893 0.019548
0.000000 0.928017 0.119823
0.181366 0.938725 0.079352
0.523651 0.958761 0.030621
0.802094 0.973796 0.011013
1.000000 0.976589 0.016397
0.025604 0.048449 0.227379
0.328613 0.089902 0.250658
0.700287 0.153263 0.304374
0.986725 0.197017 0.358458
1.000000 0.228621 0.404069
0.025116 0.258445 0.266810
0.278516 0.265847 0.263655
0.624043 0.308168 0.293085
0.901737 0.364135 0.336106
1.000000 0.396091 0.369685
0.013611 0.557516 0.322179
0.271782 0.537292 0.300473
0.585584 0.543936 0.283647
0.854587 0.557173 0.291804
1.000000 0.608818 0.279198
0.000000 0.788930 0.335608
0.242832 0.768577 0.332255
0.552438 0.778779 0.294757
0.829504 0.784587 0.282162
1.000000 0.801019 0.237321
0.000000 0.959069 0.348700
0.185699 0.950753 0.340502
0.534271 0.963241 0.285347
0.798920 0.973950 0.250291
1.000000 0.978552 0.234262
0.035461 0.104998 0.534812
0.323761 0.144948 0.571398
0.695557 0.186492 0.630407
0.980225 0.212666 0.679565
1.000000 0.234298 0.718874
0.047607 0.310116 0.582656
0.305221 0.323333 0.551023
0.634502 0.353278 0.578783
0.903974 0.390848 0.623920
1.000000 0.409990 0.698501
0.040375 0.591237 0.664271
0.279266 0.563726 0.593432
0.555818 0.550616 0.555823
0.853975 0.593229 0.588039
1.000000 0.655334 0.648027
0.002014 0.823203 0.660538
0.236486 0.796151 0.619727
0.551239 0.789507 0.593508
0.815632 0.792676 0.575742
1.000000 0.817342 0.606669
0.000000 1.000000 0.672163
0.161285 0.990089 0.662007
0.535370 0.974809 0.644815
0.802094 0.980454 0.606057
1.000000 0.984689 0.588253
0.036957 0.138903 0.756684
0.309296 0.165352 0.791985
0.674744 0.198152 0.849924
0.958740 0.225400 0.897737
1.000000 0.242490 0.939340
0.050842 0.337977 0.812267
0.290364 0.352697 0.762487
0.624040 0.383908 0.810707
0.897942 0.410793 0.855315
1.000000 0.408640 0.920435
0.051147 0.613575 0.910278
0.285630 0.599501 0.841151
0.581398 0.603402 0.800455
0.854683 0.624857 0.828062
1.000000 0.666502 0.882808
0.004608 0.843607 0.912786
0.246792 0.816201 0.867250
0.551875 0.805486 0.834484
0.800542 0.802973 0.811450
1.000000 0.845294 0.849893
0.000000 1.000000 0.901713
0.152557 1.000000 0.891618
0.519073 0.998220 0.870786
0.801880 0.988954 0.850505
0.995575 0.989352 0.833802
0.026031 0.152403 0.907097
0.288727 0.171581 0.941664
0.657471 0.208308 1.000000
0.950592 0.240158 1.000000
1.000000 0.262127 1.000000
0.022583 0.343591 0.953931
0.254089 0.346353 0.932823
0.619720 0.382744 0.983787
0.924347 0.407413 1.000000
1.000000 0.426221 1.000000
0.024475 0.634040 1.000000
0.234650 0.637139 1.000000
0.570923 0.639041 0.958673
0.869507 0.662484 1.000000
1.000000 0.680433 1.000000
0.009888 0.852567 1.000000
0.221527 0.847566 1.000000
0.567352 0.846368 1.000000
0.823029 0.849253 0.988131
1.000000 0.865884 1.000000
0.000000 1.000000 1.000000
0.169373 1.000000 1.000000
0.520599 1.000000 1.000000
0.804169 0.998189 1.000000
0.989349 0.996625 1.000000
