components/images/luts/Chrome 01.cube
# Created by: Lutify.me
# Copyright: (c) Copyright Lutify.me 2016, G.T. Colord LTD
# Website: https://lutify.me
# Contact: help@lutify.me
LUT_3D_SIZE 9
0.007751 0.000000 0.000000
0.115479 0.012089 0.007189
0.320923 0.044460 0.027868
0.519836 0.081403 0.052707
0.701263 0.115952 0.077027
0.854370 0.148660 0.101683
0.980347 0.177196 0.124136
1.000000 0.200883 0.142551
1.000000 0.221503 0.159376
0.009155 0.074744 0.009086
0.104645 0.076401 0.003946
0.300781 0.090853 0.015816
0.501923 0.123961 0.038024
0.683838 0.157742 0.061089
0.843323 0.188518 0.083604
0.971832 0.215181 0.105139
1.000000 0.237090 0.123341
1.000000 0.255193 0.139340
0.006226 0.231842 0.027470
0.095917 0.233837 0.020373
0.288330 0.238286 0.013308
0.472046 0.241355 0.020007
0.641937 0.256205 0.034782
0.804749 0.283114 0.053105
0.941376 0.307079 0.069349
1.000000 0.326255 0.084063
1.000000 0.344973 0.096666
0.002899 0.395385 0.047966
0.082672 0.397716 0.040899
0.276123 0.402258 0.028602
0.468628 0.407781 0.025574
0.632233 0.410757 0.028908
0.776764 0.412690 0.036556
0.906006 0.421926 0.045396
1.000000 0.437544 0.054298
1.000000 0.455831 0.063536
0.001892 0.537663 0.067972
0.071991 0.540333 0.060295
0.261078 0.546409 0.044387
0.454315 0.549723 0.039217
0.623230 0.555491 0.038973
0.767609 0.558896 0.040288
0.893158 0.558651 0.039829
1.000000 0.563376 0.037719
1.000000 0.565831 0.034323
0.001404 0.657820 0.085562
0.063354 0.661102 0.077945
0.241943 0.668406 0.057663
0.429291 0.672118 0.047538
0.597992 0.677365 0.042123
0.749420 0.683716 0.039401
0.877258 0.686263 0.036219
0.977814 0.678653 0.029550
1.000000 0.663312 0.018446
0.001129 0.760578 0.100674
0.053375 0.764045 0.091160
0.218628 0.773343 0.067238
0.402649 0.780798 0.044877
0.559509 0.784726 0.037810
0.711487 0.792489 0.033252
0.854065 0.797061 0.030224
0.979919 0.804425 0.026033
1.000000 0.790893 0.019548
0.000580 0.845541 0.112756
0.046051 0.848731 0.102448
0.200195 0.858519 0.075008
0.378143 0.869044 0.046283
0.537598 0.876439 0.028083
0.680237 0.882084 0.025237
0.823517 0.885950 0.025329
0.953217 0.888926 0.024687
1.000000 0.890952 0.025513
0.000000 0.928017 0.119823
0.020325 0.929060 0.112023
0.181366 0.938725 0.079352
0.365570 0.948789 0.052371
0.523651 0.958761 0.030621
0.666626 0.966340 0.014592
0.802094 0.973796 0.011013
0.930634 0.977172 0.009330
1.000000 0.976589 0.016397
0.014923 0.014544 0.060967
0.119080 0.026356 0.067453
0.323792 0.056825 0.088193
0.521179 0.091896 0.113491
0.699219 0.125003 0.138667
0.855347 0.155472 0.163995
0.983063 0.182105 0.187060
1.000000 0.206069 0.208230
1.000000 0.229542 0.216305
0.013794 0.082507 0.071888
0.129639 0.112638 0.104895
0.291670 0.131273 0.120486
0.486993 0.159410 0.138439
0.666002 0.189401 0.159244
0.823537 0.220643 0.182890
0.947798 0.248027 0.205235
0.997816 0.268240 0.221896
1.000000 0.264428 0.198685
0.010193 0.237734 0.094494
0.137004 0.244051 0.122056
0.280935 0.244481 0.116040
0.453539 0.251848 0.124731
0.633063 0.276852 0.141090
0.794288 0.304238 0.157697
0.931044 0.330466 0.174274
0.995744 0.350608 0.183029
1.000000 0.356018 0.154023
0.005859 0.400571 0.116733
0.125193 0.394260 0.144295
0.276265 0.397826 0.134200
0.452932 0.402323 0.128922
0.616499 0.405456 0.131372
0.760871 0.414078 0.138211
0.895026 0.433371 0.148969
0.986664 0.453939 0.147548
1.000000 0.465006 0.115051
0.005005 0.542573 0.136556
0.111382 0.536753 0.161837
0.258365 0.540742 0.149744
0.437696 0.545638 0.138697
0.604282 0.549988 0.134207
0.749027 0.552381 0.132623
0.875356 0.554679 0.131974
0.971219 0.561317 0.124452
1.000000 0.575557 0.083482
0.002197 0.664048 0.151943
0.101786 0.658811 0.177982
0.240041 0.663568 0.161722
0.417708 0.670461 0.143605
0.585188 0.674143 0.136957
0.734738 0.678166 0.133419
0.861047 0.680184 0.128976
0.961202 0.680805 0.113555
1.000000 0.677794 0.053381
0.000519 0.768126 0.163017
0.091136 0.763946 0.190976
0.226345 0.769480 0.172197
0.396901 0.776179 0.150067
0.560608 0.781542 0.136100
0.710388 0.786509 0.126696
0.847046 0.790089 0.122226
0.954451 0.793181 0.113059
1.000000 0.794483 0.053687
0.000000 0.853640 0.172805
0.073327 0.853845 0.196948
0.210280 0.859535 0.175124
0.379140 0.869251 0.146865
0.540619 0.876619 0.124666
0.682346 0.880693 0.116726
0.817674 0.885381 0.110972
0.941057 0.888562 0.105938
1.000000 0.892271 0.058826
0.000000 0.934062 0.168523
0.022736 0.931944 0.166045
0.183167 0.939615 0.133986
0.368774 0.950355 0.106791
0.526306 0.959344 0.082533
0.669525 0.967445 0.062191
0.802856 0.974809 0.052616
0.924286 0.975760 0.052524
1.000000 0.977724 0.048057
0.025604 0.048449 0.227379
0.124969 0.060630 0.233925
0.328613 0.089902 0.250658
0.526672 0.122763 0.275650
0.700287 0.153263 0.304374
0.854675 0.178055 0.332702
0.986725 0.197017 0.358458
1.000000 0.212881 0.379504
1.000000 0.228621 0.404069
0.026581 0.112669 0.234965
0.144708 0.143669 0.243021
0.310130 0.160211 0.251668
0.499668 0.183599 0.268961
0.672991 0.209754 0.291367
0.827118 0.235542 0.315887
0.948703 0.259430 0.340206
0.998118 0.278631 0.369087
1.000000 0.277837 0.399144
0.025116 0.258445 0.266810
0.140798 0.261616 0.255563
0.278516 0.265847 0.263655
0.446851 0.284963 0.279087
0.624043 0.308168 0.293085
0.779559 0.333462 0.310660
0.901737 0.364135 0.336106
0.993988 0.377994 0.347256
1.000000 0.396091 0.369685
0.018646 0.417293 0.298961
0.130676 0.408054 0.283407
0.286122 0.402047 0.282968
0.433761 0.402323 0.276039
0.591213 0.408895 0.280230
0.747453 0.430528 0.293317
0.879438 0.453922 0.309383
0.985287 0.482948 0.310476
1.000000 0.504035 0.316519
0.013611 0.557516 0.322179
0.112956 0.549269 0.301078
0.271782 0.537292 0.300473
0.427079 0.540546 0.290217
0.585584 0.543936 0.283647
0.731733 0.547775 0.283942
0.854587 0.557173 0.291804
0.966587 0.581043 0.287734
1.000000 0.608818 0.279198
0.003082 0.681660 0.332641
0.100698 0.671347 0.313749
0.254727 0.661498 0.315101
0.408939 0.664933 0.301461
0.569618 0.669062 0.290449
0.715750 0.672125 0.284054
0.842312 0.674111 0.281993
0.955638 0.688626 0.266871
1.000000 0.702003 0.253809
0.000000 0.788930 0.335608
0.085090 0.779735 0.325163
0.242832 0.768577 0.332255
0.392176 0.772523 0.313867
0.552438 0.778779 0.294757
0.696488 0.781531 0.287723
0.829504 0.784587 0.282162
0.944444 0.793154 0.261409
1.000000 0.801019 0.237321
0.000000 0.876316 0.338666
0.065925 0.872330 0.337650
0.215427 0.866930 0.334591
0.384555 0.871358 0.312032
0.542870 0.878221 0.287812
0.686388 0.883472 0.271629
0.813751 0.887416 0.259927
0.935249 0.889751 0.253048
1.000000 0.893683 0.241848
0.000000 0.959069 0.348700
0.014648 0.956675 0.346681
0.185699 0.950753 0.340502
0.371429 0.954190 0.314592
0.534271 0.963241 0.285347
0.678406 0.970820 0.261273
0.798920 0.973950 0.250291
0.911926 0.976405 0.241053
1.000000 0.978552 0.234262
0.031433 0.079653 0.393179
0.125946 0.091896 0.401040
0.327789 0.121873 0.421077
0.525391 0.151821 0.449128
0.700562 0.175937 0.479872
0.855011 0.194287 0.509819
0.985474 0.207756 0.533956
1.000000 0.219140 0.554513
1.000000 0.232886 0.578037
0.037201 0.142401 0.402019
0.156687 0.174342 0.402556
0.316925 0.188378 0.411787
0.503994 0.210787 0.430869
0.675252 0.234079 0.454084
0.826616 0.255916 0.480681
0.947072 0.274582 0.504949
0.998525 0.286916 0.536107
1.000000 0.279464 0.570725
0.037781 0.286674 0.433925
0.149394 0.288072 0.419687
0.295548 0.297541 0.411470
0.463065 0.312906 0.420552
0.632739 0.331235 0.434028
0.784189 0.352773 0.452216
0.904520 0.376825 0.476622
0.994269 0.390349 0.510459
1.000000 0.407045 0.552187
0.034119 0.439170 0.478526
0.139859 0.426317 0.450797
0.285637 0.417396 0.423056
0.419858 0.410582 0.412199
0.584348 0.428687 0.425897
0.741533 0.449867 0.438974
0.878860 0.472945 0.456785
0.983164 0.505882 0.487156
1.000000 0.535700 0.518232
0.031067 0.575557 0.506302
0.119944 0.564426 0.472982
0.273380 0.549668 0.443910
0.424622 0.542997 0.429655
0.569109 0.543251 0.422404
0.710576 0.550390 0.426749
0.850724 0.575135 0.439841
0.966407 0.603895 0.458547
1.000000 0.637906 0.482747
0.014832 0.696880 0.513154
0.103027 0.686884 0.484749
0.252957 0.674107 0.457780
0.410679 0.664643 0.445318
0.561529 0.667143 0.435087
0.702233 0.669583 0.428149
0.837424 0.680247 0.430274
0.949985 0.701448 0.443150
1.000000 0.716946 0.459193
0.000519 0.808874 0.511104
0.080770 0.797551 0.492805
0.238005 0.782397 0.471261
0.394201 0.779398 0.461967
0.552388 0.782266 0.447136
0.693462 0.785551 0.436619
0.821357 0.787740 0.429052
0.937035 0.797244 0.429425
1.000000 0.807248 0.434782
0.000000 0.898653 0.510829
0.060211 0.892922 0.503348
0.205075 0.886035 0.494178
0.381931 0.879114 0.484600
0.545247 0.882408 0.463734
0.688480 0.888087 0.443595
0.809099 0.889963 0.436097
0.925259 0.891988 0.428378
1.000000 0.891320 0.428082
0.000000 0.982940 0.524167
0.013611 0.980393 0.522453
0.172150 0.972753 0.515051
0.371765 0.964622 0.507280
0.541016 0.966003 0.487612
0.680206 0.972968 0.460416
0.800720 0.976988 0.444051
0.902740 0.979534 0.432793
1.000000 0.982327 0.421903
0.035461 0.104998 0.534812
0.125671 0.116995 0.544203
0.323761 0.144948 0.571398
0.521301 0.169003 0.600735
0.695557 0.186492 0.630407
0.850250 0.200546 0.657082
0.980225 0.212666 0.679565
1.000000 0.223711 0.699022
1.000000 0.234298 0.718874
0.043823 0.165813 0.544142
0.155904 0.195739 0.542310
0.312768 0.209325 0.556011
0.498803 0.231894 0.579138
0.670895 0.253519 0.605843
0.821916 0.271008 0.631372
0.946520 0.283865 0.656847
0.998386 0.290595 0.683250
1.000000 0.281059 0.712236
0.047607 0.310116 0.582656
0.154978 0.311517 0.569627
0.305221 0.323333 0.551023
0.468010 0.335394 0.560499
0.634502 0.353278 0.578783
0.783643 0.371634 0.599126
0.903974 0.390848 0.623920
0.993473 0.398624 0.659617
1.000000 0.409990 0.698501
0.045349 0.458930 0.634230
0.148295 0.447144 0.602679
0.295234 0.440500 0.572614
0.435787 0.439974 0.556051
0.595939 0.454101 0.565067
0.746524 0.470499 0.577931
0.882200 0.491032 0.603482
0.985436 0.516809 0.638700
1.000000 0.544629 0.669501
0.040375 0.591237 0.664271
0.129893 0.580402 0.630346
0.279266 0.563726 0.593432
0.422895 0.556017 0.567427
0.555818 0.550616 0.555823
0.710721 0.568284 0.568597
0.853975 0.593229 0.588039
0.967390 0.622384 0.614690
1.000000 0.655334 0.648027
0.024139 0.710472 0.666442
0.109077 0.701506 0.640308
0.255010 0.686332 0.607009
0.410364 0.675346 0.583862
0.558146 0.674866 0.572109
0.694188 0.675143 0.564840
0.827560 0.689755 0.576879
0.946882 0.718174 0.598997
1.000000 0.734129 0.621077
0.002014 0.823203 0.660538
0.082659 0.811768 0.645185
0.236486 0.796151 0.619727
0.390029 0.792075 0.606320
0.551239 0.789507 0.593508
0.692086 0.791213 0.583618
0.815632 0.792676 0.575742
0.932173 0.804704 0.586591
1.000000 0.817342 0.606669
0.000000 0.915835 0.659590
0.057485 0.909338 0.652038
0.197500 0.902420 0.642167
0.373325 0.894562 0.630240
0.542945 0.890723 0.618389
0.688555 0.892349 0.603287
0.807651 0.894303 0.593097
0.918542 0.895670 0.584596
1.000000 0.892179 0.586449
0.000000 1.000000 0.672163
0.010803 0.998742 0.669685
0.161285 0.990089 0.662007
0.360840 0.981866 0.654421
0.535370 0.974809 0.644815
0.682343 0.976067 0.624748
0.802094 0.980454 0.606057
0.899414 0.981836 0.598409
1.000000 0.984689 0.588253
0.036774 0.124912 0.658275
0.123657 0.135129 0.667513
0.317566 0.157528 0.693118
0.512817 0.176889 0.723004
0.685760 0.191862 0.751239
0.839172 0.206099 0.777180
0.969666 0.218465 0.799755
1.000000 0.228130 0.818294
1.000000 0.235156 0.837351
0.047089 0.184406 0.665525
0.150404 0.211527 0.657225
0.303708 0.226327 0.675089
0.490187 0.247042 0.703606
0.664795 0.264899 0.732164
0.817668 0.279508 0.758319
0.943285 0.290826 0.782081
0.997803 0.294925 0.806288
1.000000 0.281335 0.832671
0.052307 0.326930 0.710951
0.150733 0.327408 0.692264
0.298886 0.339307 0.666504
0.461742 0.351715 0.682299
0.629960 0.369777 0.704542
0.780789 0.386911 0.728114
0.900464 0.402453 0.751246
0.993262 0.402503 0.789460
1.000000 0.405910 0.819394
0.052612 0.475530 0.765586
0.148631 0.466246 0.734193
0.297674 0.461201 0.702158
0.442617 0.462615 0.676588
0.599835 0.473692 0.686770
0.747621 0.488602 0.705285
0.880491 0.505174 0.733700
0.984707 0.524299 0.769199
1.000000 0.545826 0.795014
0.045288 0.601669 0.798991
0.138777 0.594005 0.770062
0.288418 0.580911 0.729468
0.433294 0.576947 0.702082
0.570060 0.577512 0.689811
0.718022 0.589948 0.698948
0.855004 0.610594 0.719610
0.966905 0.635935 0.747500
1.000000 0.660581 0.775069
0.026398 0.722346 0.798532
0.117669 0.713172 0.778203
0.263295 0.698507 0.744700
0.415007 0.686206 0.716463
0.555763 0.685126 0.701343
0.682558 0.681688 0.689509
0.826865 0.704388 0.708053
0.946862 0.732308 0.731552
1.000000 0.752079 0.754115
0.003326 0.835844 0.792108
0.085931 0.823431 0.776303
0.237879 0.807551 0.749745
0.388676 0.802026 0.733957
0.548570 0.797874 0.720717
0.687180 0.797093 0.710725
0.808956 0.797512 0.703387
0.926771 0.814645 0.721271
1.000000 0.830812 0.740501
0.000000 0.930380 0.788590
0.055440 0.921260 0.779651
0.192580 0.914472 0.769335
0.367842 0.906651 0.756351
0.536323 0.901326 0.744863
0.686259 0.898581 0.733153
0.805884 0.898929 0.723803
0.912228 0.899458 0.715720
1.000000 0.898714 0.725054
0.000000 1.000000 0.795472
0.007599 1.000000 0.793179
0.157837 1.000000 0.787305
0.349854 0.995796 0.778036
0.525757 0.988217 0.766595
0.679291 0.983124 0.755889
0.803101 0.983830 0.742398
0.898407 0.984965 0.732823
1.000000 0.986622 0.724900
0.036957 0.138903 0.756684
0.120239 0.147218 0.766657
0.309296 0.165352 0.791985
0.502441 0.182290 0.821505
0.674744 0.198152 0.849924
0.828735 0.212788 0.875895
0.958740 0.225400 0.897737
1.000000 0.235709 0.917070
1.000000 0.242490 0.939340
0.041260 0.194870 0.760019
0.142239 0.223453 0.759305
0.296756 0.236878 0.780616
0.482388 0.255261 0.807090
0.656440 0.272358 0.834441
0.808773 0.286705 0.859583
0.935089 0.299278 0.881867
0.995745 0.303601 0.904741
1.000000 0.290110 0.934567
0.050842 0.337977 0.812267
0.146685 0.341277 0.792098
0.290364 0.352697 0.762487
0.451922 0.366992 0.783139
0.624040 0.383908 0.810707
0.777238 0.398448 0.834844
0.897942 0.410793 0.855315
0.992218 0.409929 0.891632
1.000000 0.408640 0.920435
0.051514 0.487588 0.869807
0.146464 0.480470 0.840570
0.290036 0.475963 0.806224
0.436459 0.477544 0.782130
0.603169 0.489334 0.800050
0.752973 0.503647 0.821001
0.878429 0.516869 0.840750
0.982042 0.532216 0.873033
1.000000 0.546316 0.903641
0.051147 0.613575 0.910278
0.142697 0.608014 0.883631
0.285630 0.599501 0.841151
0.435120 0.603026 0.823036
0.581398 0.603402 0.800455
0.727532 0.612773 0.810903
0.854683 0.624857 0.828062
0.964610 0.645707 0.855974
1.000000 0.666502 0.882808
0.027435 0.731153 0.921505
0.123488 0.722237 0.902621
0.273789 0.709833 0.865478
0.424636 0.707449 0.844712
0.572718 0.710292 0.827720
0.700305 0.710270 0.810646
0.827299 0.720751 0.819290
0.942824 0.744275 0.840308
1.000000 0.763431 0.863812
0.004608 0.843607 0.912786
0.094211 0.831071 0.897566
0.246792 0.816201 0.867250
0.395503 0.810723 0.850978
0.551875 0.805486 0.834484
0.685080 0.803515 0.821771
0.800542 0.802973 0.811450
0.924103 0.824563 0.829153
1.000000 0.845294 0.849893
0.000000 0.939094 0.903915
0.057919 0.929486 0.891489
0.191104 0.923281 0.876721
0.364251 0.914796 0.860651
0.532081 0.908703 0.847575
0.682746 0.903685 0.836144
0.802188 0.902618 0.828391
0.907098 0.902867 0.822049
1.000000 0.910435 0.840746
0.000000 1.000000 0.901713
0.009613 1.000000 0.898807
0.152557 1.000000 0.891618
0.340454 1.000000 0.882104
0.519073 0.998220 0.870786
0.673340 0.992360 0.861028
0.801880 0.988954 0.850505
0.898041 0.988678 0.842398
0.995575 0.989352 0.833802
0.034302 0.147617 0.834506
0.114288 0.154214 0.844448
0.300385 0.170047 0.869746
0.493713 0.187321 0.900367
0.665192 0.204810 0.928541
0.818787 0.220091 0.954145
0.951050 0.233101 0.977639
1.000000 0.244515 0.997644
1.000000 0.251726 1.000000
0.031403 0.201128 0.841144
0.128431 0.225406 0.844842
0.288160 0.239053 0.863941
0.473619 0.257446 0.891309
0.648692 0.274210 0.917987
0.805135 0.288651 0.940417
0.931468 0.300935 0.957088
0.993513 0.311844 0.969308
1.000000 0.299285 1.000000
0.033722 0.340186 0.885133
0.122535 0.345109 0.870796
0.271247 0.351767 0.856188
0.453708 0.366877 0.883043
0.628489 0.382433 0.909473
0.785183 0.396742 0.931875
0.915175 0.408886 0.949346
0.988946 0.419492 0.962843
1.000000 0.417753 0.999052
0.036407 0.493694 0.947844
0.124457 0.491311 0.923796
0.272461 0.495113 0.903498
0.429447 0.492395 0.868859
0.601735 0.506322 0.892502
0.759661 0.519220 0.919262
0.891493 0.530293 0.939268
0.981269 0.540316 0.954308
1.000000 0.554263 0.983328
0.037781 0.625203 0.995533
0.123335 0.621409 0.958768
0.268731 0.622281 0.943163
0.428016 0.625534 0.922297
0.577650 0.622346 0.887220
0.732825 0.633348 0.906557
0.862939 0.644970 0.925536
0.964827 0.655338 0.941249
1.000000 0.671719 0.966931
0.031311 0.738486 1.000000
0.117506 0.734027 0.977846
0.263455 0.731950 0.967074
0.421133 0.734173 0.950889
0.578491 0.737658 0.930529
0.710534 0.736287 0.900544
0.834808 0.744943 0.911726
0.942847 0.755900 0.928521
1.000000 0.771194 0.950046
0.005432 0.848118 1.000000
0.089420 0.838814 0.980922
0.237206 0.832449 0.974015
0.406966 0.826868 0.963485
0.568488 0.824795 0.945607
0.706228 0.827307 0.929149
0.814931 0.827635 0.910278
0.920892 0.836540 0.918633
1.000000 0.855972 0.934658
0.000397 0.941763 1.000000
0.067271 0.933110 0.976619
0.203335 0.927649 0.969760
0.373488 0.920370 0.957976
0.538320 0.914615 0.944995
0.686913 0.908901 0.931426
0.803067 0.907183 0.921726
0.903025 0.907647 0.914133
1.000000 0.921083 0.925207
0.000000 1.000000 1.000000
0.012390 1.000000 0.995840
0.154755 1.000000 0.981004
0.336700 1.000000 0.965494
0.514557 1.000000 0.952187
0.670135 0.998772 0.941327
0.800385 0.993587 0.931141
0.897278 0.991961 0.924167
0.991486 0.991593 0.917345
0.026031 0.152403 0.907097
0.095367 0.156915 0.915570
0.288727 0.171581 0.941664
0.487488 0.191924 0.975161
0.657471 0.208308 1.000000
0.810760 0.226167 1.000000
0.950592 0.240158 1.000000
1.000000 0.251204 1.000000
1.000000 0.262127 1.000000
0.023682 0.197968 0.908045
0.085327 0.198920 0.911930
0.278534 0.215550 0.937627
0.474304 0.238838 0.969196
0.645813 0.257156 0.997644
0.806519 0.274186 1.000000
0.945526 0.287502 1.000000
1.000000 0.298733 1.000000
1.000000 0.309962 1.000000
0.022583 0.343591 0.953931
0.074829 0.343039 0.943102
0.254089 0.346353 0.932823
0.445007 0.365070 0.955399
0.619720 0.382744 0.983787
0.786377 0.396459 1.000000
0.924347 0.407413 1.000000
1.000000 0.416802 1.000000
1.000000 0.426221 1.000000
0.025696 0.500875 1.000000
0.077148 0.500936 1.000000
0.242645 0.502285 0.977087
0.414856 0.506275 0.944998
0.596741 0.520941 0.973815
0.759674 0.533798 1.000000
0.896576 0.545304 1.000000
1.000000 0.554785 1.000000
1.000000 0.563990 1.000000
0.024475 0.634040 1.000000
0.072021 0.634715 1.000000
0.234650 0.637139 1.000000
0.415771 0.641895 0.997308
0.570923 0.639041 0.958673
0.731537 0.651223 0.985071
0.869507 0.662484 1.000000
0.978119 0.671412 1.000000
1.000000 0.680433 1.000000
0.021118 0.748090 1.000000
0.069672 0.747998 1.000000
0.231659 0.748488 1.000000
0.414703 0.751035 1.000000
0.572510 0.754932 1.000000
0.707642 0.750821 0.976078
0.842773 0.760823 0.995198
0.950500 0.770642 1.000000
1.000000 0.779265 1.000000
0.009888 0.852567 1.000000
0.056976 0.850879 1.000000
0.221527 0.847566 1.000000
0.410553 0.844343 1.000000
0.567352 0.846368 1.000000
0.708374 0.849468 1.000000
0.823029 0.849253 0.988131
0.924927 0.855727 0.999144
1.000000 0.865884 1.000000
0.000946 0.942315 1.000000
0.037170 0.940505 1.000000
0.195496 0.936240 1.000000
0.382538 0.930165 1.000000
0.555939 0.922862 1.000000
0.700500 0.921083 1.000000
0.820709 0.923537 1.000000
0.908539 0.923844 0.995381
1.000000 0.932221 1.000000
0.000000 1.000000 1.000000
0.018524 1.000000 1.000000
0.169373 1.000000 1.000000
0.350311 1.000000 1.000000
0.520599 1.000000 1.000000
0.675568 1.000000 1.000000
0.804169 0.998189 1.000000
0.899933 0.996318 1.000000
0.989349 0.996625 1.000000
