components/images/luts/Film Print 02.cube
# Created by: Lutify.me
# Copyright: (c) Copyright Lutify.me 2016, G.T. Colord LTD
# Website: https://lutify.me
# Contact: help@lutify.me
LUT_3D_SIZE 9
0.000000 0.000000 0.000000
0.026770 0.005509 0.001416
0.197418 0.031165 0.001654
0.407660 0.056549 0.000000
0.618091 0.079850 0.000000
0.802155 0.102085 0.000000
0.945630 0.117301 0.000000
1.000000 0.129034 0.000000
1.000000 0.136849 0.000000
0.003607 0.025661 0.003351
0.025006 0.025119 0.001929
0.195429 0.046275 0.001740
0.405804 0.069706 0.000000
0.616547 0.092558 0.000000
0.800098 0.114835 0.000000
0.945398 0.129651 0.000000
1.000000 0.141242 0.000000
1.000000 0.148995 0.000000
0.037341 0.202568 0.018213
0.056720 0.202444 0.014416
0.183947 0.200830 0.007050
0.390967 0.201372 0.012598
0.597144 0.216206 0.006165
0.786121 0.233226 0.002515
0.925098 0.246538 0.000812
1.000000 0.254420 0.000281
1.000000 0.261051 0.000201
0.080505 0.385636 0.033734
0.100403 0.386221 0.030432
0.226776 0.384551 0.016559
0.382941 0.387460 0.014081
0.585016 0.383763 0.017548
0.775348 0.384071 0.027136
0.920318 0.389784 0.021271
1.000000 0.396266 0.012470
1.000000 0.401801 0.006415
0.126446 0.553680 0.046948
0.145776 0.555332 0.044256
0.275018 0.556755 0.028974
0.426019 0.556835 0.023883
0.591724 0.560601 0.024737
0.763336 0.560607 0.016962
0.913409 0.551689 0.022503
1.000000 0.545533 0.026984
1.000000 0.544713 0.026562
0.167297 0.697400 0.057892
0.185974 0.700001 0.055517
0.316284 0.702940 0.042389
0.470087 0.705368 0.032153
0.616138 0.705689 0.028686
0.780212 0.705658 0.036530
0.908771 0.699662 0.029016
1.000000 0.695730 0.026361
1.000000 0.694183 0.022485
0.199139 0.809869 0.066052
0.217651 0.812950 0.064044
0.343762 0.818774 0.050275
0.493610 0.825664 0.033545
0.634686 0.826958 0.035095
0.771143 0.828098 0.030108
0.898816 0.827820 0.028052
0.984674 0.826576 0.021131
1.000000 0.823784 0.016730
0.220410 0.895271 0.068860
0.239117 0.899043 0.066992
0.362494 0.906660 0.053766
0.487714 0.920199 0.035877
0.609430 0.930103 0.030090
0.736206 0.933277 0.025592
0.854779 0.932968 0.020459
0.952539 0.931490 0.022559
1.000000 0.932931 0.022589
0.234527 0.941491 0.073242
0.252197 0.945867 0.070447
0.358014 0.958408 0.051373
0.468604 0.974720 0.030725
0.580176 0.993196 0.011694
0.695367 0.999346 0.008063
0.801459 0.999864 0.011902
0.923584 0.995766 0.025159
0.998077 0.999261 0.032550
0.001758 0.004807 0.023840
0.028265 0.009324 0.022138
0.197113 0.033679 0.016223
0.407013 0.057486 0.009356
0.612976 0.081107 0.006073
0.798126 0.103262 0.004596
0.938861 0.119001 0.002435
1.000000 0.129601 0.000244
1.000000 0.137311 0.000000
0.004303 0.023590 0.022906
0.080469 0.089314 0.087335
0.204980 0.105215 0.091672
0.396090 0.124985 0.083201
0.592472 0.143752 0.075166
0.768637 0.160723 0.070248
0.906872 0.171566 0.061114
0.985356 0.175862 0.050229
1.000000 0.167027 0.026697
0.038245 0.201328 0.036023
0.108608 0.205786 0.095676
0.199053 0.206652 0.088623
0.382511 0.213782 0.092712
0.582322 0.227670 0.085898
0.763711 0.242435 0.078109
0.902342 0.255551 0.066929
0.984528 0.262450 0.054378
1.000000 0.263855 0.029682
0.081531 0.384743 0.049060
0.148990 0.375686 0.108975
0.237479 0.378190 0.096297
0.383056 0.377873 0.090013
0.569952 0.374040 0.092807
0.745188 0.378436 0.089604
0.892208 0.389370 0.078824
0.977642 0.398386 0.063405
1.000000 0.403347 0.038336
0.127441 0.552984 0.061798
0.188883 0.539346 0.117983
0.277427 0.540607 0.107522
0.419949 0.539510 0.097026
0.570516 0.540819 0.093803
0.737186 0.537883 0.090488
0.884516 0.536570 0.087612
0.974622 0.539131 0.073667
1.000000 0.545114 0.050922
0.168378 0.696636 0.072669
0.223932 0.682126 0.123362
0.309292 0.685362 0.113649
0.450092 0.687233 0.099753
0.595745 0.686398 0.097211
0.741564 0.687640 0.097892
0.873361 0.689004 0.085855
0.971894 0.687172 0.073445
1.000000 0.687946 0.044678
0.200055 0.809487 0.080469
0.248626 0.799958 0.122292
0.330211 0.806465 0.110402
0.467020 0.810266 0.097505
0.609382 0.813291 0.090300
0.746307 0.813409 0.088046
0.874171 0.812394 0.095125
0.962794 0.814520 0.083677
1.000000 0.822416 0.049890
0.221399 0.895086 0.083270
0.264446 0.887306 0.117678
0.344213 0.896901 0.101743
0.470168 0.906873 0.084210
0.603417 0.913573 0.074882
0.730241 0.915548 0.077035
0.856513 0.916223 0.076401
0.955493 0.916235 0.078201
1.000000 0.926313 0.056653
0.235571 0.941153 0.087598
0.264349 0.946212 0.101178
0.350024 0.959369 0.080194
0.467249 0.973383 0.057568
0.579846 0.988703 0.040094
0.695532 0.996820 0.038641
0.809766 0.998145 0.045734
0.927722 0.995242 0.050287
0.999017 0.994435 0.055078
0.020459 0.042103 0.218921
0.047687 0.045937 0.217950
0.214685 0.066335 0.200879
0.416748 0.087849 0.184186
0.619134 0.106855 0.169043
0.796630 0.126107 0.156945
0.937579 0.139455 0.148663
1.000000 0.147516 0.144146
1.000000 0.152958 0.144293
0.019964 0.056506 0.217560
0.095914 0.109614 0.207810
0.216284 0.122766 0.203318
0.400312 0.139259 0.188552
0.594123 0.154717 0.177212
0.766714 0.169002 0.170090
0.902883 0.178380 0.164953
0.981309 0.181906 0.160687
1.000000 0.173097 0.150720
0.051947 0.192584 0.209668
0.114683 0.204163 0.208964
0.225449 0.232074 0.229247
0.377948 0.248318 0.234484
0.558978 0.262853 0.223844
0.730101 0.276470 0.214186
0.865256 0.285461 0.204468
0.971865 0.274305 0.170123
1.000000 0.261674 0.137634
0.095148 0.373483 0.217719
0.156167 0.372400 0.218666
0.263324 0.364811 0.236687
0.371283 0.365405 0.228962
0.540328 0.368506 0.232074
0.718021 0.380676 0.224826
0.861541 0.393060 0.213347
0.969773 0.402453 0.179751
1.000000 0.403470 0.146466
0.140649 0.541928 0.224115
0.196061 0.534011 0.222560
0.301195 0.515152 0.244392
0.408852 0.518110 0.233004
0.545768 0.518819 0.228362
0.707666 0.518844 0.227904
0.847622 0.524091 0.220698
0.964278 0.538662 0.191915
1.000000 0.547918 0.159277
0.180762 0.686837 0.229211
0.230357 0.675722 0.223445
0.330608 0.659720 0.245313
0.440626 0.661156 0.237160
0.578332 0.660782 0.231710
0.707263 0.663018 0.230405
0.842089 0.666745 0.222973
0.960478 0.676628 0.190073
1.000000 0.681821 0.154041
0.211499 0.800403 0.232135
0.252823 0.793682 0.222547
0.349251 0.782356 0.240350
0.458487 0.786600 0.232204
0.593353 0.789743 0.224147
0.727098 0.789433 0.226363
0.842654 0.790772 0.229627
0.951741 0.806196 0.198369
1.000000 0.814855 0.158130
0.231897 0.888424 0.230463
0.266790 0.881637 0.220824
0.351046 0.888048 0.216883
0.465524 0.897180 0.200691
0.600219 0.901659 0.192917
0.730107 0.905189 0.190629
0.854488 0.906107 0.191604
0.948401 0.905359 0.200855
1.000000 0.918924 0.177282
0.240790 0.936013 0.226861
0.265558 0.939858 0.217957
0.348706 0.954384 0.195013
0.463055 0.969211 0.166815
0.582141 0.983287 0.150079
0.703528 0.988475 0.149994
0.822888 0.990053 0.156464
0.941522 0.989363 0.160926
1.000000 0.989850 0.165692
0.044116 0.082112 0.435687
0.070837 0.085606 0.434369
0.241156 0.105351 0.419189
0.446960 0.125879 0.401575
0.651141 0.144866 0.386663
0.835144 0.160846 0.375299
0.966321 0.165080 0.374335
1.000000 0.163237 0.377814
1.000000 0.160248 0.379364
0.041595 0.094363 0.434747
0.119835 0.144583 0.405906
0.237928 0.154166 0.398659
0.419006 0.167826 0.381954
0.607370 0.181204 0.369299
0.779305 0.191853 0.361337
0.910106 0.197613 0.359128
0.983825 0.196293 0.360704
1.000000 0.183950 0.369690
0.067834 0.218313 0.414832
0.129368 0.228149 0.399037
0.248133 0.253606 0.369753
0.391935 0.265508 0.365278
0.562939 0.276507 0.351774
0.732107 0.286537 0.346375
0.865029 0.292586 0.343900
0.970465 0.280987 0.341188
1.000000 0.267361 0.336408
0.115515 0.371031 0.414184
0.171950 0.370485 0.396722
0.268475 0.364140 0.369010
0.370403 0.370650 0.366627
0.536739 0.387945 0.373760
0.703671 0.400663 0.365383
0.851597 0.409793 0.354440
0.963473 0.409329 0.337370
1.000000 0.402460 0.319537
0.159900 0.533583 0.419428
0.210712 0.525473 0.397547
0.307265 0.512113 0.372949
0.414920 0.510237 0.374345
0.530099 0.511232 0.367484
0.684154 0.514454 0.371662
0.840112 0.528804 0.363914
0.960888 0.543870 0.347511
1.000000 0.549145 0.328656
0.198083 0.678406 0.423096
0.243063 0.665253 0.393306
0.337926 0.652899 0.371857
0.451584 0.642948 0.379006
0.568325 0.646520 0.371134
0.690627 0.648902 0.368788
0.832300 0.658289 0.364404
0.951382 0.670237 0.350841
1.000000 0.677180 0.333002
0.227368 0.790407 0.421539
0.262243 0.782480 0.388065
0.356923 0.773377 0.366776
0.470722 0.773054 0.372838
0.596873 0.775404 0.368516
0.727509 0.775995 0.368459
0.832064 0.778957 0.368703
0.948374 0.796201 0.354227
1.000000 0.805808 0.326587
0.241132 0.876487 0.409302
0.272660 0.870585 0.381651
0.354925 0.878368 0.363573
0.474168 0.883322 0.356629
0.608153 0.888575 0.349772
0.737432 0.892965 0.347399
0.859391 0.893137 0.354308
0.944955 0.894525 0.360110
1.000000 0.912459 0.348462
0.242798 0.922726 0.394275
0.267432 0.929080 0.379499
0.348432 0.944727 0.356213
0.463434 0.960966 0.330872
0.592261 0.971953 0.319849
0.723596 0.976735 0.322327
0.841437 0.980384 0.328839
0.952624 0.982128 0.334723
1.000000 0.982609 0.343414
0.067719 0.118237 0.632416
0.093109 0.121380 0.629773
0.265613 0.140410 0.615265
0.472534 0.161000 0.598865
0.673327 0.177658 0.586835
0.848474 0.180517 0.586243
0.971253 0.172912 0.591357
1.000000 0.166368 0.592816
1.000000 0.162393 0.596136
0.064282 0.129755 0.630042
0.141083 0.177356 0.598832
0.256335 0.184041 0.590981
0.439104 0.195737 0.577828
0.627541 0.206395 0.568609
0.796504 0.214200 0.562890
0.927970 0.213910 0.565332
0.992188 0.205691 0.573544
1.000000 0.185669 0.589209
0.082794 0.246519 0.604798
0.145573 0.256135 0.587671
0.270079 0.283487 0.548758
0.409039 0.289172 0.540584
0.575341 0.296902 0.527576
0.738567 0.304889 0.525574
0.872406 0.307880 0.529842
0.974706 0.291824 0.547057
1.000000 0.271312 0.561035
0.131817 0.391232 0.597974
0.186835 0.388410 0.577277
0.282382 0.382759 0.540500
0.398817 0.393660 0.516952
0.549934 0.402267 0.511053
0.706384 0.413312 0.505480
0.853647 0.419298 0.510127
0.965057 0.415428 0.517767
1.000000 0.406312 0.521448
0.180042 0.537811 0.598218
0.228116 0.523981 0.570553
0.321063 0.511439 0.534570
0.419404 0.510279 0.514089
0.520012 0.510941 0.505540
0.685412 0.528276 0.514723
0.837733 0.541533 0.511438
0.961704 0.551310 0.506608
1.000000 0.555103 0.503345
0.220483 0.672737 0.599676
0.257216 0.657663 0.563515
0.349389 0.645155 0.530259
0.456186 0.639828 0.514811
0.567541 0.645202 0.512913
0.679403 0.646977 0.508363
0.818864 0.656304 0.514571
0.952157 0.674349 0.511765
1.000000 0.683515 0.506421
0.235053 0.782692 0.589069
0.272093 0.773030 0.554150
0.366970 0.763398 0.522354
0.478436 0.765238 0.515626
0.603537 0.764417 0.517237
0.722769 0.767932 0.513502
0.826041 0.771391 0.512980
0.946782 0.791015 0.511065
1.000000 0.798825 0.504602
0.238788 0.863780 0.561371
0.277745 0.860496 0.540829
0.360490 0.866761 0.520456
0.483133 0.871680 0.510700
0.615891 0.878626 0.507138
0.748550 0.881883 0.508858
0.867546 0.883693 0.515127
0.944599 0.888326 0.517979
1.000000 0.905187 0.517206
0.237128 0.913087 0.541486
0.265332 0.919632 0.530158
0.347583 0.933745 0.510089
0.467529 0.950501 0.492724
0.605414 0.958895 0.489838
0.740906 0.965027 0.494879
0.855829 0.971214 0.503772
0.963891 0.972551 0.514764
1.000000 0.974104 0.520795
0.088501 0.148490 0.796875
0.114215 0.151466 0.793988
0.286279 0.169992 0.779175
0.492779 0.190341 0.765472
0.685217 0.195326 0.762458
0.846985 0.184018 0.766754
0.968433 0.173023 0.772564
1.000000 0.166602 0.782715
1.000000 0.162695 0.791535
0.085229 0.159755 0.794091
0.159380 0.205276 0.762509
0.271748 0.210166 0.756302
0.453117 0.220054 0.747575
0.639493 0.227804 0.741655
0.804667 0.230876 0.740273
0.932048 0.222766 0.749874
0.993444 0.208913 0.761985
1.000000 0.186033 0.778986
0.096100 0.271269 0.767316
0.158596 0.281289 0.752328
0.285358 0.310914 0.717358
0.423467 0.312582 0.709673
0.593202 0.317772 0.701799
0.750335 0.322543 0.698027
0.881278 0.323021 0.704800
0.979781 0.298413 0.732109
1.000000 0.272735 0.754620
0.145777 0.413091 0.754840
0.196341 0.407502 0.736147
0.294889 0.408741 0.704432
0.420317 0.421676 0.677056
0.568081 0.424003 0.669148
0.714415 0.427753 0.660264
0.855905 0.431424 0.673463
0.967278 0.423100 0.699082
1.000000 0.410816 0.717163
0.194483 0.549563 0.754145
0.242025 0.535201 0.727213
0.336166 0.528568 0.694372
0.435365 0.527711 0.667554
0.551786 0.533560 0.652181
0.695156 0.537087 0.644574
0.839205 0.551782 0.654369
0.962952 0.558117 0.672501
1.000000 0.559091 0.681421
0.233246 0.671363 0.750946
0.271173 0.657342 0.714365
0.364402 0.643734 0.680048
0.468534 0.640157 0.658182
0.571212 0.645735 0.647272
0.664901 0.642593 0.635197
0.819788 0.664205 0.650839
0.954107 0.683223 0.659528
1.000000 0.693104 0.660413
0.240290 0.768899 0.720929
0.284347 0.765047 0.698673
0.376996 0.756467 0.667483
0.487243 0.758582 0.656700
0.606274 0.761358 0.651105
0.715503 0.768115 0.646995
0.815185 0.770675 0.645502
0.940016 0.789583 0.658650
1.000000 0.799559 0.658563
0.236041 0.852675 0.690235
0.279442 0.851761 0.678133
0.366039 0.856638 0.661046
0.490490 0.862181 0.652296
0.622796 0.870243 0.652190
0.754656 0.874182 0.655504
0.865785 0.877805 0.658331
0.943923 0.883030 0.660361
1.000000 0.899283 0.659784
0.232666 0.906222 0.668085
0.262128 0.911461 0.658740
0.347754 0.924297 0.644214
0.473163 0.939722 0.634894
0.616504 0.947913 0.636481
0.753046 0.955197 0.644275
0.870484 0.961409 0.655847
0.970191 0.963702 0.666449
1.000000 0.967769 0.667791
0.106812 0.173572 0.921314
0.132782 0.176283 0.919055
0.303021 0.194765 0.908203
0.506854 0.208261 0.903375
0.683380 0.198481 0.905542
0.839612 0.183629 0.914844
0.964453 0.172888 0.930249
1.000000 0.162818 0.940094
1.000000 0.157081 0.947375
0.103369 0.184572 0.918897
0.171116 0.225104 0.892558
0.285593 0.227814 0.889573
0.465623 0.235176 0.881236
0.649297 0.239888 0.878564
0.810131 0.235921 0.882331
0.929370 0.226763 0.888269
0.992668 0.211743 0.905572
1.000000 0.187352 0.933508
0.106653 0.291655 0.902338
0.168057 0.303341 0.883650
0.294532 0.331575 0.851705
0.434385 0.331181 0.848794
0.604661 0.334179 0.845879
0.765364 0.336120 0.844630
0.885480 0.335714 0.845504
0.980579 0.304825 0.884754
1.000000 0.276415 0.913226
0.156567 0.430358 0.884888
0.201073 0.425317 0.867173
0.299342 0.432110 0.842605
0.429386 0.444620 0.825658
0.584681 0.442893 0.819503
0.739971 0.442852 0.816508
0.861009 0.442622 0.817007
0.967560 0.430775 0.847729
1.000000 0.415433 0.874445
0.203455 0.557519 0.888959
0.245256 0.548895 0.857625
0.338874 0.548004 0.829604
0.443314 0.556290 0.811505
0.573766 0.562004 0.796590
0.721825 0.560230 0.789607
0.842102 0.559963 0.784853
0.959856 0.564140 0.814794
1.000000 0.565333 0.837982
0.239606 0.663943 0.871484
0.281076 0.661637 0.846421
0.377524 0.656314 0.818274
0.484234 0.662753 0.802782
0.590315 0.667923 0.786451
0.701236 0.668451 0.774107
0.821508 0.662707 0.760933
0.953217 0.690508 0.794152
1.000000 0.698817 0.809528
0.240948 0.759144 0.831201
0.292081 0.760896 0.820890
0.389459 0.756347 0.796194
0.500293 0.757784 0.783193
0.616952 0.761996 0.773559
0.718627 0.769134 0.767418
0.801495 0.765575 0.755673
0.939602 0.795955 0.782687
1.000000 0.808316 0.788952
0.233447 0.844996 0.798962
0.282288 0.843244 0.791386
0.372761 0.849915 0.781224
0.496290 0.855872 0.772268
0.628246 0.864285 0.772201
0.755001 0.870900 0.774967
0.859377 0.877393 0.776900
0.937136 0.881476 0.779925
1.000000 0.895006 0.785810
0.228924 0.900608 0.775622
0.260565 0.904762 0.768628
0.349121 0.916951 0.759833
0.479413 0.930522 0.755536
0.624304 0.939877 0.759894
0.760370 0.948498 0.769696
0.879132 0.953687 0.780347
0.966376 0.954846 0.786841
1.000000 0.957742 0.787543
0.121832 0.191832 1.000000
0.147156 0.194858 1.000000
0.317273 0.212458 0.994824
0.510907 0.215675 0.995319
0.676679 0.198149 0.997992
0.835785 0.183759 1.000000
0.960876 0.169664 1.000000
1.000000 0.160211 1.000000
1.000000 0.156224 1.000000
0.118219 0.202956 1.000000
0.178744 0.237384 0.974630
0.297053 0.238573 0.972121
0.475370 0.242873 0.967790
0.654903 0.241711 0.967755
0.809788 0.231569 0.971030
0.932262 0.221488 0.976230
0.991476 0.213489 0.981805
1.000000 0.187444 1.000000
0.117169 0.307524 0.986004
0.169833 0.318294 0.969691
0.286476 0.331870 0.961162
0.447267 0.327672 0.960182
0.621395 0.325605 0.957383
0.782006 0.323286 0.959037
0.913287 0.317747 0.962756
0.979240 0.311451 0.966056
1.000000 0.283114 1.000000
0.161664 0.439042 0.977447
0.200480 0.439144 0.960178
0.288301 0.452709 0.952770
0.428919 0.457106 0.941921
0.597492 0.451455 0.942211
0.757008 0.447394 0.945216
0.892128 0.443324 0.948857
0.967614 0.439271 0.952196
1.000000 0.424486 0.986810
0.205414 0.559196 0.977655
0.243742 0.559627 0.952494
0.329341 0.570190 0.944143
0.439289 0.583141 0.933826
0.581556 0.584958 0.924485
0.740528 0.578714 0.920924
0.877058 0.574589 0.923515
0.959647 0.570839 0.927308
1.000000 0.572852 0.949914
0.239093 0.662100 0.957502
0.281732 0.666316 0.946870
0.367790 0.674882 0.934264
0.480912 0.689061 0.924118
0.599308 0.700409 0.910056
0.728258 0.702397 0.901560
0.863739 0.696877 0.896766
0.952774 0.694546 0.896650
1.000000 0.704745 0.916803
0.247839 0.754177 0.928564
0.294823 0.758584 0.922944
0.389502 0.767520 0.916880
0.512588 0.777979 0.910269
0.637130 0.789541 0.900539
0.746220 0.798653 0.890977
0.848042 0.798705 0.881041
0.929917 0.781720 0.860860
1.000000 0.812839 0.895648
0.233850 0.840559 0.889941
0.286640 0.838583 0.886098
0.381225 0.847709 0.883752
0.507134 0.855823 0.878708
0.639841 0.864423 0.876131
0.764457 0.871513 0.874482
0.862378 0.878666 0.872609
0.929784 0.877869 0.864736
1.000000 0.900269 0.885412
0.228631 0.897071 0.865814
0.262964 0.901077 0.859851
0.354633 0.913266 0.857245
0.485815 0.927033 0.855615
0.630072 0.935680 0.856482
0.764722 0.943895 0.863190
0.880762 0.949367 0.870190
0.966516 0.953589 0.874964
1.000000 0.953841 0.879577
0.128998 0.200878 1.000000
0.154816 0.204188 1.000000
0.322235 0.219558 1.000000
0.507794 0.216612 1.000000
0.675641 0.199437 1.000000
0.831744 0.182181 1.000000
0.956232 0.170583 1.000000
1.000000 0.164094 1.000000
1.000000 0.158615 1.000000
0.125464 0.212045 1.000000
0.170941 0.232105 1.000000
0.306860 0.235217 1.000000
0.486987 0.234583 1.000000
0.660412 0.225314 1.000000
0.815912 0.213050 1.000000
0.941882 0.202956 1.000000
1.000000 0.196059 1.000000
1.000000 0.191499 1.000000
0.119226 0.315227 1.000000
0.154565 0.323399 1.000000
0.278656 0.326523 1.000000
0.453448 0.318531 1.000000
0.627606 0.311647 1.000000
0.788897 0.306205 1.000000
0.921045 0.299328 1.000000
1.000000 0.293436 1.000000
1.000000 0.289405 1.000000
0.156366 0.442660 1.000000
0.185992 0.447558 1.000000
0.269433 0.460303 1.000000
0.422949 0.461148 1.000000
0.599127 0.450837 1.000000
0.762171 0.446073 1.000000
0.899201 0.442259 1.000000
0.998315 0.436947 1.000000
1.000000 0.432528 1.000000
0.193640 0.560095 1.000000
0.224445 0.564576 1.000000
0.313184 0.582281 1.000000
0.431403 0.601169 0.999420
0.579687 0.601743 0.996399
0.745343 0.594101 0.999066
0.884857 0.589602 1.000000
0.990259 0.584543 1.000000
1.000000 0.580106 1.000000
0.231793 0.665582 0.997931
0.261652 0.670210 0.998956
0.350434 0.686011 0.998267
0.473133 0.705979 0.995935
0.594873 0.722112 0.987280
0.731488 0.723825 0.979620
0.870996 0.718519 0.983917
0.981793 0.713706 0.989178
1.000000 0.709614 0.991668
0.250556 0.757369 0.994873
0.285114 0.761510 0.994690
0.382159 0.775229 0.994013
0.507398 0.793815 0.989148
0.632330 0.811225 0.981677
0.748224 0.822644 0.967914
0.860559 0.825171 0.962982
0.970099 0.819544 0.962323
1.000000 0.815920 0.964185
0.241156 0.840467 0.955963
0.277282 0.840405 0.962573
0.374823 0.853895 0.969544
0.515655 0.867909 0.972210
0.656354 0.880826 0.972113
0.781342 0.890285 0.962140
0.877545 0.899123 0.953821
0.954523 0.895537 0.942493
0.954596 0.838433 0.886468
0.233917 0.896479 0.927417
0.269818 0.900201 0.931891
0.364428 0.913002 0.936487
0.497351 0.928248 0.941034
0.641376 0.938589 0.941321
0.775074 0.945651 0.941083
0.891180 0.950637 0.942730
0.972101 0.955561 0.942035
0.995434 0.939045 0.919934
