components/images/luts/Film Print 02.cube
# Created by: Lutify.me
# Copyright: (c) Copyright Lutify.me 2016, G.T. Colord LTD
# Website: https://lutify.me
# Contact: help@lutify.me
LUT_3D_SIZE 5
0.000000 0.000000 0.000000
0.197418 0.031165 0.001654
0.618091 0.079850 0.000000
0.945630 0.117301 0.000000
1.000000 0.136849 0.000000
0.037341 0.202568 0.018213
0.183947 0.200830 0.007050
0.597144 0.216206 0.006165
0.925098 0.246538 0.000812
1.000000 0.261051 0.000201
0.126446 0.553680 0.046948
0.275018 0.556755 0.028974
0.591724 0.560601 0.024737
0.913409 0.551689 0.022503
1.000000 0.544713 0.026562
0.199139 0.809869 0.066052
0.343762 0.818774 0.050275
0.634686 0.826958 0.035095
0.898816 0.827820 0.028052
1.000000 0.823784 0.016730
0.234527 0.941491 0.073242
0.358014 0.958408 0.051373
0.580176 0.993196 0.011694
0.801459 0.999864 0.011902
0.998077 0.999261 0.032550
0.020459 0.042103 0.218921
0.214685 0.066335 0.200879
0.619134 0.106855 0.169043
0.937579 0.139455 0.148663
1.000000 0.152958 0.144293
0.051947 0.192584 0.209668
0.225449 0.232074 0.229247
0.558978 0.262853 0.223844
0.865256 0.285461 0.204468
1.000000 0.261674 0.137634
0.140649 0.541928 0.224115
0.301195 0.515152 0.244392
0.545768 0.518819 0.228362
0.847622 0.524091 0.220698
1.000000 0.547918 0.159277
0.211499 0.800403 0.232135
0.349251 0.782356 0.240350
0.593353 0.789743 0.224147
0.842654 0.790772 0.229627
1.000000 0.814855 0.158130
0.240790 0.936013 0.226861
0.348706 0.954384 0.195013
0.582141 0.983287 0.150079
0.822888 0.990053 0.156464
1.000000 0.989850 0.165692
0.067719 0.118237 0.632416
0.265613 0.140410 0.615265
0.673327 0.177658 0.586835
0.971253 0.172912 0.591357
1.000000 0.162393 0.596136
0.082794 0.246519 0.604798
0.270079 0.283487 0.548758
0.575341 0.296902 0.527576
0.872406 0.307880 0.529842
1.000000 0.271312 0.561035
0.180042 0.537811 0.598218
0.321063 0.511439 0.534570
0.520012 0.510941 0.505540
0.837733 0.541533 0.511438
1.000000 0.555103 0.503345
0.235053 0.782692 0.589069
0.366970 0.763398 0.522354
0.603537 0.764417 0.517237
0.826041 0.771391 0.512980
1.000000 0.798825 0.504602
0.237128 0.913087 0.541486
0.347583 0.933745 0.510089
0.605414 0.958895 0.489838
0.855829 0.971214 0.503772
1.000000 0.974104 0.520795
0.106812 0.173572 0.921314
0.303021 0.194765 0.908203
0.683380 0.198481 0.905542
0.964453 0.172888 0.930249
1.000000 0.157081 0.947375
0.106653 0.291655 0.902338
0.294532 0.331575 0.851705
0.604661 0.334179 0.845879
0.885480 0.335714 0.845504
1.000000 0.276415 0.913226
0.203455 0.557519 0.888959
0.338874 0.548004 0.829604
0.573766 0.562004 0.796590
0.842102 0.559963 0.784853
1.000000 0.565333 0.837982
0.240948 0.759144 0.831201
0.389459 0.756347 0.796194
0.616952 0.761996 0.773559
0.801495 0.765575 0.755673
1.000000 0.808316 0.788952
0.228924 0.900608 0.775622
0.349121 0.916951 0.759833
0.624304 0.939877 0.759894
0.879132 0.953687 0.780347
1.000000 0.957742 0.787543
0.128998 0.200878 1.000000
0.322235 0.219558 1.000000
0.675641 0.199437 1.000000
0.956232 0.170583 1.000000
1.000000 0.158615 1.000000
0.119226 0.315227 1.000000
0.278656 0.326523 1.000000
0.627606 0.311647 1.000000
0.921045 0.299328 1.000000
1.000000 0.289405 1.000000
0.193640 0.560095 1.000000
0.313184 0.582281 1.000000
0.579687 0.601743 0.996399
0.884857 0.589602 1.000000
1.000000 0.580106 1.000000
0.250556 0.757369 0.994873
0.382159 0.775229 0.994013
0.632330 0.811225 0.981677
0.860559 0.825171 0.962982
1.000000 0.815920 0.964185
0.233917 0.896479 0.927417
0.364428 0.913002 0.936487
0.641376 0.938589 0.941321
0.891180 0.950637 0.942730
0.995434 0.939045 0.919934
