components/images/luts/Film Print 01.cube
# Created by: Lutify.me
# Copyright: (c) Copyright Lutify.me 2016, G.T. Colord LTD
# Website: https://lutify.me
# Contact: help@lutify.me
LUT_3D_SIZE 5
0.000000 0.000000 0.000000
0.308438 0.059963 0.032380
0.733985 0.123152 0.065523
0.952389 0.161184 0.086337
1.000000 0.177475 0.093295
0.079017 0.286905 0.012908
0.284083 0.290664 0.028504
0.703556 0.314630 0.087863
0.947230 0.342701 0.109652
1.000000 0.358240 0.119297
0.217793 0.642387 0.028748
0.416236 0.647870 0.042878
0.707065 0.655201 0.080568
0.938410 0.645834 0.118534
1.000000 0.643453 0.125889
0.303372 0.839254 0.035767
0.486983 0.853101 0.040864
0.704532 0.858552 0.051179
0.900137 0.857894 0.070589
0.976072 0.859430 0.057497
0.350923 0.941729 0.036774
0.503158 0.961341 0.021637
0.671174 0.991291 0.005767
0.827041 0.999405 0.003906
0.980314 0.998966 0.054811
0.010865 0.070364 0.346324
0.305386 0.112876 0.332254
0.722478 0.162030 0.328501
0.955959 0.184650 0.332468
1.000000 0.193139 0.332254
0.066107 0.280200 0.313120
0.276092 0.292050 0.280120
0.647258 0.337734 0.310271
0.909013 0.370426 0.326054
1.000000 0.360965 0.315073
0.190936 0.631047 0.314096
0.391915 0.597772 0.290575
0.637597 0.602495 0.308156
0.879150 0.609129 0.342378
1.000000 0.643139 0.327982
0.273950 0.826097 0.302285
0.473893 0.825094 0.290934
0.680694 0.828179 0.293609
0.875904 0.828087 0.330556
0.983886 0.855671 0.277871
0.319639 0.925940 0.277749
0.521562 0.957018 0.258217
0.691012 0.984838 0.216071
0.858965 0.984650 0.228522
0.992766 0.984994 0.281106
0.026979 0.157268 0.802820
0.328368 0.194643 0.802759
0.732153 0.212876 0.778100
0.958095 0.210150 0.746727
1.000000 0.207582 0.732383
0.064794 0.343076 0.746299
0.297624 0.355164 0.659503
0.640391 0.376043 0.638338
0.899446 0.395430 0.634735
1.000000 0.367606 0.667989
0.173783 0.629292 0.722342
0.370390 0.595948 0.622109
0.580112 0.581830 0.562456
0.870574 0.620257 0.594486
1.000000 0.672838 0.639729
0.227651 0.800940 0.667226
0.440762 0.803345 0.594450
0.676475 0.810431 0.580918
0.862272 0.816068 0.596233
0.991851 0.847494 0.639302
0.273859 0.906392 0.613819
0.475446 0.934586 0.588946
0.733771 0.973058 0.603687
0.880909 0.970865 0.598560
0.995117 0.972432 0.622943
0.037905 0.207518 0.992889
0.324981 0.231015 0.989868
0.694094 0.224060 0.973449
0.928399 0.217105 0.959838
1.000000 0.215476 0.957671
0.060827 0.375752 0.962981
0.294274 0.402823 0.920887
0.635639 0.414024 0.912787
0.891161 0.416897 0.895298
1.000000 0.385683 0.907925
0.149733 0.626253 0.946043
0.350295 0.624233 0.888825
0.606565 0.634299 0.842817
0.864084 0.640001 0.824443
1.000000 0.678039 0.846370
0.199114 0.785307 0.882992
0.414488 0.795837 0.842129
0.659294 0.806986 0.808259
0.835414 0.815495 0.788560
0.998444 0.852256 0.820581
0.246116 0.897494 0.823603
0.445384 0.920520 0.793359
0.711826 0.952788 0.806452
0.891592 0.961341 0.813684
0.995331 0.965947 0.832240
0.043125 0.230576 1.000000
0.320861 0.242576 1.000000
0.674012 0.229136 1.000000
0.920708 0.228884 1.000000
1.000000 0.227162 1.000000
0.044071 0.390633 1.000000
0.270563 0.399874 1.000000
0.640531 0.404041 1.000000
0.903098 0.403258 1.000000
1.000000 0.399624 1.000000
0.117747 0.635057 1.000000
0.315458 0.663565 0.998169
0.614436 0.693546 0.987671
0.885853 0.688315 0.978881
1.000000 0.687156 0.970061
0.176468 0.791353 0.998291
0.372043 0.822118 1.000000
0.654784 0.845865 0.968322
0.866382 0.855201 0.942472
1.000000 0.860026 0.939634
0.221486 0.896961 0.959563
0.412727 0.923152 0.952819
0.692599 0.946335 0.929747
0.889608 0.953666 0.921446
0.996460 0.974718 0.937101
