components/images/luts/Film Print 02.cube
# Created by: Lutify.me
# Copyright: (c) Copyright Lutify.me 2016, G.T. Colord LTD
# Website: https://lutify.me
# Contact: help@lutify.me
LUT_3D_SIZE 33
0.000000 0.000000 0.000000
0.000000 0.000000 0.000000
0.000000 0.000000 0.000000
0.002435 0.000712 0.000171
0.026770 0.005509 0.001416
0.064835 0.011786 0.001937
0.106220 0.017915 0.001874
0.149853 0.024478 0.002103
0.197418 0.031165 0.001654
0.250213 0.037207 0.000412
0.303497 0.043447 0.000000
0.356177 0.049936 0.000000
0.407660 0.056549 0.000000
0.458032 0.063155 0.000000
0.511389 0.068961 0.000000
0.565735 0.074338 0.000000
0.618091 0.079850 0.000000
0.667941 0.085516 0.000000
0.715588 0.091115 0.000000
0.759885 0.096760 0.000000
0.802155 0.102085 0.000000
0.844424 0.106244 0.000000
0.883130 0.109961 0.000000
0.916049 0.113751 0.000000
0.945630 0.117301 0.000000
0.972732 0.120619 0.000000
0.992255 0.123691 0.000000
1.000000 0.126455 0.000000
1.000000 0.129034 0.000000
1.000000 0.131570 0.000000
1.000000 0.133761 0.000000
1.000000 0.135231 0.000000
1.000000 0.136849 0.000000
0.000000 0.000000 0.000000
0.000000 0.000000 0.000000
0.000000 0.000000 0.000000
0.002435 0.000712 0.000171
0.026550 0.005491 0.001416
0.064520 0.011743 0.001937
0.106344 0.017921 0.001886
0.150567 0.024570 0.002112
0.198059 0.031263 0.001633
0.250189 0.037253 0.000412
0.303277 0.043419 0.000000
0.355984 0.049936 0.000000
0.407517 0.056524 0.000000
0.457852 0.063149 0.000000
0.511216 0.068961 0.000000
0.565601 0.074338 0.000000
0.617981 0.079850 0.000000
0.667841 0.085516 0.000000
0.715537 0.091121 0.000000
0.759961 0.096788 0.000000
0.802402 0.102112 0.000000
0.844562 0.106244 0.000000
0.883121 0.109961 0.000000
0.916022 0.113751 0.000000
0.945603 0.117301 0.000000
0.972706 0.120588 0.000000
0.992240 0.123660 0.000000
1.000000 0.126455 0.000000
1.000000 0.129034 0.000000
1.000000 0.131570 0.000000
1.000000 0.133761 0.000000
1.000000 0.135231 0.000000
1.000000 0.136849 0.000000
0.000000 0.000000 0.000000
0.000000 0.000000 0.000000
0.000000 0.000000 0.000000
0.002713 0.000798 0.000171
0.026886 0.005534 0.001416
0.064627 0.011749 0.001937
0.106104 0.017890 0.001874
0.150192 0.024540 0.002100
0.197821 0.031257 0.001630
0.250278 0.037262 0.000412
0.303448 0.043441 0.000000
0.356107 0.049933 0.000000
0.407714 0.056549 0.000000
0.458035 0.063170 0.000000
0.511133 0.068948 0.000000
0.565512 0.074313 0.000000
0.618030 0.079837 0.000000
0.667892 0.085516 0.000000
0.715423 0.091109 0.000000
0.759775 0.096745 0.000000
0.802259 0.102091 0.000000
0.844516 0.106247 0.000000
0.883209 0.109961 0.000000
0.916071 0.113751 0.000000
0.945630 0.117301 0.000000
0.972727 0.120619 0.000000
0.992249 0.123679 0.000000
1.000000 0.126455 0.000000
1.000000 0.129034 0.000000
1.000000 0.131570 0.000000
1.000000 0.133761 0.000000
1.000000 0.135231 0.000000
1.000000 0.136849 0.000000
0.000000 0.000000 0.000000
0.000000 0.000000 0.000000
0.000000 0.000000 0.000000
0.002713 0.000798 0.000171
0.026526 0.005503 0.001398
0.064398 0.011706 0.001932
0.106107 0.017884 0.001886
0.150262 0.024540 0.002106
0.197720 0.031233 0.001630
0.249878 0.037204 0.000412
0.303134 0.043425 0.000000
0.355893 0.049914 0.000000
0.407794 0.056549 0.000000
0.458218 0.063177 0.000000
0.511292 0.068973 0.000000
0.565552 0.074328 0.000000
0.617990 0.079841 0.000000
0.667831 0.085507 0.000000
0.715356 0.091100 0.000000
0.759769 0.096754 0.000000
0.802259 0.102106 0.000000
0.844550 0.106244 0.000000
0.883212 0.109961 0.000000
0.916110 0.113751 0.000000
0.945645 0.117301 0.000000
0.972687 0.120588 0.000000
0.992227 0.123673 0.000000
1.000000 0.126455 0.000000
1.000000 0.129028 0.000000
1.000000 0.131551 0.000000
1.000000 0.133761 0.000000
1.000000 0.135231 0.000000
1.000000 0.136849 0.000000
0.003607 0.025661 0.003351
0.003644 0.025902 0.003369
0.003644 0.025902 0.003369
0.005807 0.025812 0.002899
0.025006 0.025119 0.001929
0.062201 0.029291 0.002698
0.104108 0.034339 0.002649
0.148459 0.040153 0.002527
0.195429 0.046275 0.001740
0.246402 0.051979 0.000540
0.299426 0.057633 0.000037
0.353516 0.063401 0.000000
0.405804 0.069706 0.000000
0.456662 0.075970 0.000000
0.509039 0.081933 0.000000
0.563824 0.087159 0.000000
0.616547 0.092558 0.000000
0.666312 0.098218 0.000000
0.713776 0.103841 0.000000
0.758188 0.109498 0.000000
0.800098 0.114835 0.000000
0.841352 0.119005 0.000000
0.881201 0.122403 0.000000
0.915955 0.125971 0.000000
0.945398 0.129651 0.000000
0.972186 0.132892 0.000000
0.992017 0.135924 0.000000
1.000000 0.138685 0.000000
1.000000 0.141242 0.000000
1.000000 0.143791 0.000000
1.000000 0.146056 0.000000
1.000000 0.147488 0.000000
1.000000 0.148995 0.000000
0.010483 0.067358 0.008271
0.010507 0.067549 0.008297
0.010514 0.067605 0.008301
0.012692 0.067490 0.007510
0.029220 0.066477 0.004556
0.059646 0.064939 0.004562
0.100784 0.066240 0.004538
0.145325 0.069900 0.004532
0.192196 0.074408 0.003250
0.242114 0.079412 0.001682
0.294724 0.084475 0.000763
0.349875 0.089682 0.000128
0.402841 0.095293 0.000046
0.453897 0.100738 0.000000
0.504526 0.106377 0.000000
0.557755 0.111514 0.000000
0.611380 0.116308 0.000000
0.662458 0.121399 0.000000
0.710843 0.126689 0.000000
0.755884 0.132063 0.000000
0.797257 0.137227 0.000000
0.836341 0.141523 0.000000
0.874872 0.144962 0.000000
0.910654 0.148203 0.000000
0.941672 0.151587 0.000000
0.970276 0.154514 0.000000
0.991302 0.157361 0.000000
1.000000 0.160051 0.000000
1.000000 0.162522 0.000000
1.000000 0.165033 0.000000
1.000000 0.167348 0.000000
1.000000 0.169162 0.000000
1.000000 0.170734 0.000000
0.018738 0.111680 0.011969
0.018714 0.111600 0.011960
0.018714 0.111618 0.011963
0.020972 0.111683 0.011246
0.037695 0.110608 0.008087
0.064300 0.109711 0.005408
0.098767 0.108457 0.006513
0.142429 0.108161 0.006805
0.189306 0.110127 0.006708
0.238888 0.113347 0.005270
0.291119 0.117590 0.003979
0.345819 0.122379 0.002527
0.399335 0.127302 0.001490
0.450714 0.132168 0.000870
0.501196 0.137046 0.000562
0.551947 0.142182 0.000354
0.603967 0.146691 0.000037
0.655759 0.151035 0.000009
0.706275 0.155515 0.000000
0.752841 0.160257 0.000000
0.794488 0.164981 0.000000
0.832376 0.169301 0.000000
0.868018 0.173042 0.000000
0.902066 0.176290 0.000000
0.933112 0.179353 0.000000
0.962009 0.182046 0.000000
0.989111 0.184196 0.000000
0.999887 0.186415 0.000000
1.000000 0.188670 0.000000
1.000000 0.190935 0.000000
1.000000 0.193163 0.000000
1.000000 0.195188 0.000000
1.000000 0.196904 0.000000
0.027618 0.156541 0.014652
0.027582 0.156356 0.014606
0.027576 0.156329 0.014600
0.029834 0.156369 0.014047
0.046927 0.155897 0.010907
0.073767 0.154504 0.007898
0.104590 0.153882 0.007007
0.140643 0.153670 0.007090
0.186997 0.152517 0.008261
0.236496 0.153053 0.009381
0.288501 0.155084 0.009189
0.341647 0.158680 0.008621
0.395032 0.162578 0.006070
0.447079 0.166787 0.004267
0.498019 0.171205 0.003113
0.548792 0.175895 0.002481
0.599591 0.180680 0.001941
0.649753 0.184970 0.001117
0.700238 0.189204 0.000815
0.748072 0.193419 0.000610
0.790689 0.197594 0.000440
0.829663 0.201661 0.000201
0.864432 0.205464 0.000055
0.896408 0.208820 0.000046
0.926163 0.211713 0.000028
0.954007 0.214184 0.000018
0.980158 0.216254 0.000000
0.999210 0.218048 0.000000
1.000000 0.219644 0.000000
1.000000 0.221514 0.000000
1.000000 0.223465 0.000000
1.000000 0.225341 0.000000
1.000000 0.227011 0.000000
0.037341 0.202568 0.018213
0.037329 0.202488 0.018186
0.037329 0.202481 0.018182
0.039569 0.202460 0.017703
0.056720 0.202444 0.014416
0.083744 0.201699 0.010596
0.114160 0.200342 0.008929
0.147436 0.199871 0.008413
0.183947 0.200830 0.007050
0.234106 0.199381 0.008774
0.286023 0.198327 0.011792
0.338290 0.199329 0.014093
0.390967 0.201372 0.012598
0.443375 0.204231 0.010379
0.495026 0.207732 0.008704
0.546188 0.211812 0.007206
0.597144 0.216206 0.006165
0.647354 0.220649 0.005316
0.695770 0.225018 0.004261
0.742667 0.229283 0.003253
0.786121 0.233226 0.002515
0.826950 0.236967 0.001849
0.863581 0.240524 0.001318
0.895856 0.243768 0.001059
0.925098 0.246538 0.000812
0.952045 0.248800 0.000547
0.976690 0.250785 0.000372
0.994595 0.252726 0.000299
1.000000 0.254420 0.000281
1.000000 0.255998 0.000269
1.000000 0.257698 0.000256
1.000000 0.259501 0.000232
1.000000 0.261051 0.000201
0.047489 0.249413 0.022042
0.047437 0.249259 0.022018
0.047431 0.249240 0.022015
0.049719 0.249401 0.021573
0.067069 0.249462 0.018423
0.094324 0.248969 0.014139
0.124698 0.248110 0.011099
0.157666 0.247647 0.010068
0.193127 0.248051 0.008777
0.232107 0.248258 0.008038
0.282974 0.247204 0.009055
0.335724 0.245417 0.011609
0.387961 0.245059 0.015082
0.439978 0.245885 0.016223
0.491708 0.247678 0.016101
0.543094 0.250436 0.014850
0.594336 0.253792 0.012534
0.644980 0.257329 0.010416
0.693918 0.261140 0.008905
0.740283 0.265174 0.007736
0.783762 0.269168 0.007242
0.824579 0.272908 0.006672
0.862198 0.276473 0.005981
0.895478 0.279709 0.005328
0.925186 0.282467 0.004511
0.952014 0.284654 0.003513
0.976211 0.286442 0.002594
0.993869 0.288297 0.002044
1.000000 0.290330 0.001849
1.000000 0.292136 0.001728
1.000000 0.293910 0.001618
1.000000 0.295513 0.001471
1.000000 0.296770 0.001321
0.057953 0.296086 0.025970
0.057925 0.296030 0.025970
0.057922 0.296024 0.025970
0.060229 0.295981 0.025565
0.077954 0.295925 0.022663
0.105636 0.295593 0.018464
0.136005 0.294940 0.014533
0.169174 0.294237 0.012500
0.206384 0.293892 0.013141
0.243973 0.294320 0.012817
0.284760 0.295069 0.011444
0.333676 0.294958 0.010044
0.385498 0.293171 0.012061
0.437277 0.291735 0.015125
0.488940 0.291199 0.018054
0.540192 0.292096 0.020233
0.591186 0.294188 0.020435
0.641861 0.296628 0.018402
0.691065 0.299062 0.015796
0.737674 0.302085 0.013724
0.781647 0.305330 0.011993
0.822709 0.308381 0.010812
0.860401 0.311579 0.010047
0.894168 0.314882 0.009503
0.924481 0.317915 0.008954
0.951859 0.320398 0.008164
0.976441 0.322327 0.007153
0.994147 0.324157 0.006219
1.000000 0.326314 0.005591
1.000000 0.328243 0.005078
1.000000 0.330073 0.004639
1.000000 0.331626 0.004199
1.000000 0.332834 0.003906
0.069021 0.341539 0.030035
0.069049 0.341650 0.030063
0.069046 0.341644 0.030063
0.071353 0.341536 0.029614
0.089170 0.341573 0.026737
0.117218 0.341326 0.022617
0.147977 0.340994 0.018197
0.180198 0.340245 0.014981
0.214563 0.338876 0.014664
0.250510 0.338633 0.014862
0.295251 0.339357 0.015784
0.334033 0.341437 0.013531
0.383340 0.341745 0.011789
0.434720 0.340550 0.012695
0.486066 0.338954 0.014996
0.537399 0.337506 0.018094
0.588528 0.337268 0.021152
0.639041 0.338328 0.022971
0.687964 0.339887 0.023355
0.734256 0.341727 0.022931
0.777911 0.343961 0.021908
0.819330 0.346124 0.019354
0.857925 0.348065 0.016537
0.892233 0.350240 0.014157
0.922906 0.352644 0.012351
0.951074 0.355013 0.010837
0.976804 0.357103 0.009375
0.994897 0.359034 0.008114
1.000000 0.361130 0.007284
1.000000 0.363096 0.006634
1.000000 0.364877 0.006122
1.000000 0.366430 0.005820
1.000000 0.367810 0.005625
0.080505 0.385636 0.033734
0.080508 0.385624 0.033737
0.080512 0.385636 0.033740
0.082712 0.385787 0.033249
0.100403 0.386221 0.030432
0.128522 0.386178 0.026450
0.159705 0.385840 0.022205
0.192347 0.385615 0.018018
0.226776 0.384551 0.016559
0.262521 0.383048 0.018259
0.302203 0.383769 0.017438
0.342963 0.385380 0.015577
0.382941 0.387460 0.014081
0.431934 0.387864 0.013172
0.482678 0.387084 0.012952
0.533728 0.385639 0.014475
0.585016 0.383763 0.017548
0.636005 0.382524 0.020990
0.685480 0.382259 0.023749
0.731988 0.382761 0.025827
0.775348 0.384071 0.027136
0.816180 0.385568 0.027438
0.854767 0.387090 0.026422
0.889551 0.388332 0.023893
0.920318 0.389784 0.021271
0.948535 0.391336 0.018674
0.974835 0.392926 0.016187
0.994076 0.394541 0.014126
1.000000 0.396266 0.012470
1.000000 0.397853 0.010370
1.000000 0.399262 0.008289
1.000000 0.400469 0.007034
1.000000 0.401801 0.006415
0.091870 0.429024 0.036939
0.091870 0.428975 0.036939
0.091870 0.428972 0.036939
0.094092 0.429080 0.036533
0.111661 0.429829 0.033905
0.140003 0.429841 0.030332
0.171466 0.429471 0.026392
0.204544 0.429314 0.022034
0.239395 0.429163 0.018695
0.275671 0.428162 0.019330
0.313327 0.427570 0.020658
0.355124 0.428195 0.018866
0.395135 0.430088 0.017548
0.436652 0.431693 0.017322
0.482977 0.432442 0.015710
0.531735 0.432291 0.014157
0.581796 0.431215 0.014831
0.632333 0.429302 0.017413
0.682022 0.427514 0.020520
0.729242 0.426239 0.023416
0.773187 0.425638 0.025989
0.814288 0.425952 0.027972
0.852972 0.426679 0.029193
0.887573 0.427625 0.029929
0.917987 0.428541 0.028839
0.945755 0.429515 0.027405
0.971878 0.430494 0.025211
0.992331 0.431548 0.022876
1.000000 0.432743 0.020841
1.000000 0.433976 0.018201
1.000000 0.435298 0.015583
1.000000 0.436700 0.013996
1.000000 0.438010 0.012872
0.103369 0.471463 0.040234
0.103351 0.471408 0.040234
0.103351 0.471402 0.040234
0.105627 0.471584 0.039884
0.122949 0.472666 0.037329
0.151215 0.472782 0.033933
0.183093 0.472332 0.030377
0.216492 0.472252 0.026135
0.251642 0.472505 0.021802
0.288190 0.472635 0.019715
0.325824 0.471617 0.021399
0.365759 0.471627 0.020255
0.405872 0.472240 0.020258
0.448499 0.473531 0.020984
0.489514 0.475186 0.020636
0.533902 0.476240 0.018365
0.581061 0.476492 0.015997
0.629697 0.475725 0.015765
0.678290 0.474021 0.017395
0.725409 0.471984 0.019775
0.769745 0.470157 0.022217
0.811383 0.468715 0.024725
0.850781 0.467908 0.026678
0.886291 0.467615 0.028226
0.916815 0.467679 0.029681
0.943942 0.468034 0.029974
0.969372 0.468561 0.029840
0.990454 0.469116 0.028699
1.000000 0.469757 0.027405
1.000000 0.470588 0.025573
1.000000 0.471765 0.023474
1.000000 0.473439 0.021479
1.000000 0.474785 0.020197
0.114975 0.512936 0.043671
0.114963 0.512911 0.043671
0.114960 0.512905 0.043655
0.117230 0.513114 0.043313
0.134411 0.514418 0.040848
0.162384 0.515262 0.037292
0.194226 0.514886 0.033786
0.228006 0.514686 0.029864
0.263455 0.515024 0.025391
0.300198 0.515863 0.021411
0.338028 0.515893 0.020813
0.376569 0.514756 0.021988
0.415531 0.514889 0.020608
0.455551 0.515650 0.021356
0.498526 0.516688 0.023297
0.540771 0.518251 0.023010
0.583756 0.519440 0.020581
0.629611 0.519779 0.017780
0.676056 0.519338 0.016443
0.721685 0.517961 0.016879
0.765656 0.515986 0.018357
0.807178 0.513807 0.020343
0.846954 0.511626 0.022503
0.883447 0.509872 0.024157
0.915088 0.508618 0.025781
0.942734 0.507651 0.027313
0.967774 0.507143 0.028278
0.988971 0.506985 0.028915
1.000000 0.506923 0.028977
1.000000 0.507112 0.028653
1.000000 0.507697 0.027725
1.000000 0.508856 0.026105
1.000000 0.510051 0.025122
0.126446 0.553680 0.046948
0.126459 0.553692 0.046948
0.126459 0.553692 0.046936
0.128723 0.553908 0.046600
0.145776 0.555332 0.044256
0.173626 0.556410 0.040848
0.205456 0.556601 0.037219
0.239240 0.556657 0.033191
0.275018 0.556755 0.028974
0.312122 0.557704 0.024390
0.350061 0.558999 0.021423
0.388297 0.557898 0.023208
0.426019 0.556835 0.023883
0.465180 0.557448 0.022476
0.506134 0.558376 0.022943
0.548245 0.559359 0.024829
0.591724 0.560601 0.024737
0.632996 0.561774 0.022549
0.677240 0.562018 0.019666
0.720654 0.561873 0.017355
0.763336 0.560607 0.016962
0.804224 0.558699 0.017752
0.843756 0.556274 0.019409
0.880767 0.553905 0.021087
0.913409 0.551689 0.022503
0.941604 0.549687 0.023987
0.967212 0.548004 0.025250
0.988159 0.546608 0.026202
1.000000 0.545533 0.026984
1.000000 0.544796 0.027500
1.000000 0.544380 0.027472
1.000000 0.544257 0.026779
1.000000 0.544713 0.026562
0.137662 0.593328 0.050061
0.137680 0.593346 0.050061
0.137683 0.593349 0.050061
0.139948 0.593611 0.049741
0.156812 0.595210 0.047406
0.184534 0.596421 0.044232
0.216525 0.596582 0.040927
0.250619 0.596840 0.036981
0.286459 0.597290 0.032532
0.323935 0.598021 0.027875
0.362063 0.599635 0.023694
0.400332 0.599875 0.023693
0.437466 0.598366 0.026590
0.475955 0.597826 0.026834
0.514957 0.598788 0.025378
0.558346 0.599530 0.025610
0.601666 0.600239 0.027411
0.643003 0.601413 0.026797
0.682614 0.602451 0.025391
0.724276 0.602498 0.022891
0.764957 0.602242 0.020367
0.805076 0.600855 0.019772
0.843863 0.598778 0.020288
0.880703 0.596603 0.021289
0.913772 0.594348 0.022396
0.942190 0.592147 0.023392
0.967697 0.590166 0.024481
0.988507 0.588400 0.025360
1.000000 0.586437 0.025867
1.000000 0.584749 0.025949
1.000000 0.583335 0.025714
1.000000 0.582031 0.025284
1.000000 0.581545 0.025433
0.148511 0.630732 0.053217
0.148511 0.630732 0.053217
0.148511 0.630732 0.053217
0.150776 0.631080 0.052890
0.167420 0.632944 0.050513
0.194873 0.634408 0.047345
0.226843 0.634633 0.044262
0.261298 0.634571 0.040805
0.297577 0.635212 0.036407
0.335144 0.636133 0.031537
0.373492 0.637572 0.026715
0.411945 0.638368 0.025598
0.449463 0.637801 0.027179
0.486896 0.636602 0.029108
0.522693 0.636864 0.028284
0.562091 0.637680 0.027381
0.609076 0.637869 0.028912
0.656399 0.638081 0.031533
0.694104 0.639415 0.030322
0.731884 0.640247 0.029874
0.770520 0.640044 0.027862
0.809174 0.639095 0.026212
0.846845 0.637172 0.025500
0.882672 0.635126 0.025220
0.915369 0.633049 0.025348
0.943701 0.631071 0.025745
0.968591 0.629716 0.026172
0.989426 0.628455 0.026825
1.000000 0.626997 0.027216
1.000000 0.625099 0.026886
1.000000 0.623152 0.025897
1.000000 0.621620 0.024698
1.000000 0.621118 0.024274
0.158454 0.665286 0.055970
0.158454 0.665286 0.055970
0.158454 0.665286 0.055970
0.160715 0.665705 0.055636
0.177203 0.667773 0.053314
0.204446 0.669489 0.050193
0.236322 0.669905 0.047125
0.270837 0.669939 0.043714
0.307382 0.670420 0.039643
0.345370 0.671230 0.035080
0.383768 0.672644 0.029917
0.422400 0.673184 0.028506
0.460562 0.673329 0.028717
0.498010 0.672429 0.030759
0.533231 0.672136 0.030484
0.567932 0.672768 0.028229
0.606708 0.673326 0.028147
0.653067 0.673326 0.031094
0.702609 0.673196 0.034439
0.741870 0.673904 0.034635
0.777136 0.674293 0.034332
0.812723 0.673702 0.032559
0.848459 0.671772 0.031079
0.882706 0.669507 0.029657
0.914346 0.667385 0.028519
0.942606 0.665431 0.028012
0.967740 0.664223 0.027933
0.988636 0.663795 0.027927
1.000000 0.662793 0.028070
1.000000 0.661432 0.027463
1.000000 0.659879 0.026255
1.000000 0.658914 0.024838
1.000000 0.659887 0.023925
0.167297 0.697400 0.057892
0.167297 0.697400 0.057892
0.167297 0.697400 0.057892
0.169541 0.697874 0.057614
0.185974 0.700001 0.055517
0.213180 0.701853 0.052567
0.245074 0.702509 0.049506
0.279645 0.702684 0.046155
0.316284 0.702940 0.042389
0.354517 0.703676 0.038046
0.393188 0.704980 0.033020
0.431723 0.706062 0.029779
0.470087 0.705368 0.032153
0.507980 0.705338 0.032644
0.544721 0.705116 0.032672
0.580521 0.705180 0.030685
0.616138 0.705689 0.028686
0.653684 0.706133 0.029730
0.695367 0.706286 0.032526
0.739096 0.706157 0.034992
0.780212 0.705658 0.036530
0.814847 0.704993 0.036173
0.846405 0.703809 0.033887
0.878284 0.701612 0.031360
0.908771 0.699662 0.029016
0.937043 0.698201 0.027557
0.963300 0.697234 0.027100
0.986050 0.696577 0.026935
1.000000 0.695730 0.026361
1.000000 0.694737 0.025485
1.000000 0.693795 0.024414
1.000000 0.692880 0.023315
1.000000 0.694183 0.022485
0.175373 0.727461 0.059650
0.175373 0.727434 0.059650
0.175373 0.727434 0.059650
0.177637 0.727908 0.059394
0.194058 0.729960 0.057578
0.221164 0.732052 0.054596
0.253107 0.732844 0.051572
0.287875 0.732755 0.048636
0.324661 0.732752 0.045273
0.363098 0.733698 0.040933
0.401868 0.735125 0.035931
0.440375 0.736706 0.031317
0.478617 0.737466 0.030322
0.516495 0.737380 0.032465
0.553821 0.736314 0.034714
0.590067 0.735837 0.033527
0.627393 0.735950 0.030515
0.665054 0.736120 0.029996
0.701715 0.736373 0.032046
0.740518 0.736142 0.034045
0.778290 0.735692 0.035266
0.813061 0.734888 0.034909
0.844229 0.734148 0.033429
0.872342 0.733171 0.030618
0.901968 0.731923 0.028036
0.930234 0.730878 0.025888
0.956845 0.730367 0.024930
0.982086 0.730170 0.024774
0.999936 0.729649 0.024298
1.000000 0.728974 0.023755
1.000000 0.728155 0.023123
1.000000 0.727211 0.022217
1.000000 0.726716 0.021460
0.183301 0.756044 0.061579
0.183301 0.756041 0.061579
0.183301 0.756013 0.061579
0.185587 0.756444 0.061365
0.201922 0.758490 0.059686
0.228903 0.760801 0.056702
0.260651 0.761910 0.053540
0.295282 0.761766 0.050781
0.332129 0.761418 0.047864
0.370865 0.762373 0.043723
0.408984 0.764333 0.038574
0.447223 0.766135 0.033716
0.485461 0.767790 0.030444
0.523325 0.769481 0.028854
0.560394 0.768591 0.032154
0.595493 0.766376 0.035980
0.631690 0.765657 0.034784
0.670209 0.765864 0.031970
0.707574 0.766058 0.031561
0.744727 0.765846 0.032641
0.779517 0.765381 0.033075
0.814362 0.764872 0.033230
0.844177 0.764659 0.031751
0.870639 0.764601 0.029575
0.897052 0.764641 0.027454
0.925128 0.764206 0.025857
0.951587 0.763636 0.024664
0.976010 0.763301 0.024088
0.995312 0.762841 0.023456
1.000000 0.762099 0.022712
1.000000 0.761035 0.021857
1.000000 0.759698 0.020853
1.000000 0.759027 0.019947
0.191339 0.783320 0.063892
0.191339 0.783320 0.063892
0.191339 0.783316 0.063892
0.193647 0.783785 0.063678
0.209860 0.786096 0.061884
0.236590 0.788608 0.058890
0.267868 0.790241 0.055350
0.301880 0.790583 0.052237
0.338184 0.790259 0.049423
0.376740 0.790996 0.045621
0.414688 0.792992 0.040649
0.452102 0.795167 0.035718
0.489560 0.797109 0.032138
0.526782 0.799032 0.029846
0.563687 0.799984 0.029691
0.599069 0.798055 0.034088
0.632764 0.796215 0.036359
0.668680 0.796188 0.034079
0.705606 0.796561 0.032040
0.742752 0.796696 0.031537
0.779428 0.796299 0.031537
0.814539 0.796172 0.031137
0.845005 0.796212 0.031003
0.872257 0.796418 0.029553
0.897552 0.796705 0.027933
0.922671 0.797035 0.026511
0.947836 0.796625 0.025135
0.970834 0.795886 0.023734
0.990356 0.795106 0.022370
1.000000 0.794197 0.021072
1.000000 0.793042 0.019974
1.000000 0.791763 0.019086
1.000000 0.791106 0.017847
0.199139 0.809869 0.066052
0.199139 0.809869 0.066016
0.199139 0.809850 0.066016
0.201429 0.810343 0.065820
0.217651 0.812950 0.064044
0.243982 0.815754 0.060834
0.274854 0.817646 0.057098
0.308279 0.818639 0.053399
0.343762 0.818774 0.050275
0.381497 0.819378 0.046732
0.419439 0.821103 0.042114
0.456848 0.823322 0.037427
0.493610 0.825664 0.033545
0.529501 0.828012 0.030790
0.565015 0.829177 0.030542
0.600498 0.828758 0.032465
0.634686 0.826958 0.035095
0.667508 0.826563 0.033392
0.699683 0.827285 0.030499
0.731982 0.828073 0.029425
0.771143 0.828098 0.030108
0.808396 0.828089 0.030173
0.843658 0.827969 0.029987
0.872449 0.827923 0.029233
0.898816 0.827820 0.028052
0.923163 0.827950 0.026498
0.945386 0.828030 0.024860
0.966028 0.827426 0.023001
0.984674 0.826576 0.021131
0.998245 0.825793 0.019553
1.000000 0.824998 0.018463
1.000000 0.824175 0.017941
1.000000 0.823784 0.016730
0.205918 0.835644 0.067215
0.205918 0.835644 0.067191
0.205918 0.835635 0.067184
0.208203 0.836140 0.066992
0.224524 0.838741 0.065408
0.250641 0.841730 0.062240
0.281232 0.843609 0.058554
0.314472 0.844897 0.054596
0.349649 0.845631 0.051007
0.386688 0.846303 0.047611
0.424667 0.847708 0.043519
0.462033 0.849883 0.039066
0.498398 0.852551 0.034821
0.533777 0.855432 0.031320
0.568366 0.856850 0.030912
0.600082 0.857553 0.032287
0.634015 0.856702 0.033624
0.667898 0.856111 0.032272
0.699164 0.856930 0.028048
0.725631 0.858298 0.025967
0.758957 0.859124 0.026321
0.796649 0.859063 0.027744
0.835050 0.858465 0.028180
0.869635 0.857870 0.028256
0.897168 0.857549 0.027224
0.921691 0.857460 0.026108
0.943341 0.857614 0.024640
0.961542 0.857580 0.022977
0.977796 0.857124 0.021228
0.993008 0.856720 0.019754
1.000000 0.856382 0.018738
1.000000 0.855956 0.018213
1.000000 0.855778 0.016876
0.211450 0.859608 0.067474
0.211450 0.859608 0.067474
0.211450 0.859608 0.067474
0.213761 0.860101 0.067307
0.230163 0.862732 0.065869
0.256317 0.865684 0.062957
0.286792 0.867466 0.059436
0.319980 0.868556 0.055811
0.355176 0.869702 0.052002
0.391696 0.870731 0.048569
0.428637 0.872266 0.044825
0.465747 0.874466 0.040396
0.501575 0.877393 0.035919
0.536435 0.880650 0.031857
0.570605 0.882502 0.030792
0.600760 0.883537 0.032388
0.628266 0.884979 0.032263
0.661407 0.884749 0.031155
0.695495 0.885189 0.027826
0.725387 0.886428 0.024609
0.752497 0.887685 0.023254
0.787418 0.887747 0.023773
0.822217 0.887019 0.024390
0.858451 0.885852 0.025082
0.891138 0.885060 0.025726
