components/images/luts/Film Print 01.cube
# Created by: Lutify.me
# Copyright: (c) Copyright Lutify.me 2016, G.T. Colord LTD
# Website: https://lutify.me
# Contact: help@lutify.me
LUT_3D_SIZE 9
0.000000 0.000000 0.000000
0.075141 0.018546 0.010131
0.308438 0.059963 0.032380
0.545734 0.096366 0.051851
0.733985 0.123152 0.065523
0.872699 0.144455 0.076692
0.952389 0.161184 0.086337
0.988250 0.171648 0.092562
1.000000 0.177475 0.093295
0.016573 0.079981 0.004669
0.068151 0.079542 0.009704
0.298702 0.109022 0.038086
0.538349 0.141792 0.056551
0.723577 0.167857 0.071413
0.866352 0.187375 0.081301
0.952572 0.203101 0.090548
0.988280 0.212876 0.096469
1.000000 0.211968 0.100070
0.079017 0.286905 0.012908
0.128155 0.285714 0.017548
0.284083 0.290664 0.028504
0.515916 0.297964 0.067506
0.703556 0.314630 0.087863
0.848161 0.330295 0.101687
0.947230 0.342701 0.109652
0.988616 0.351190 0.114139
1.000000 0.358240 0.119297
0.153486 0.485213 0.021607
0.204792 0.486592 0.024293
0.351716 0.486028 0.039826
0.511613 0.498872 0.045838
0.687776 0.497023 0.076967
0.833878 0.495489 0.108126
0.933832 0.496523 0.126651
0.980925 0.501378 0.133396
1.000000 0.507269 0.135502
0.217793 0.642387 0.028748
0.270654 0.645018 0.029999
0.416236 0.647870 0.042878
0.580527 0.650219 0.067964
0.707065 0.655201 0.080568
0.829177 0.649530 0.097415
0.938410 0.645834 0.118534
0.984343 0.642325 0.116245
1.000000 0.643453 0.125889
0.265710 0.754135 0.033326
0.318846 0.757832 0.033295
0.463360 0.764098 0.044983
0.605524 0.760965 0.062410
0.739081 0.762970 0.082186
0.836380 0.761278 0.087588
0.919762 0.760652 0.090670
0.976469 0.761623 0.088290
0.999725 0.758082 0.064729
0.303372 0.839254 0.035767
0.354677 0.844674 0.033570
0.486983 0.853101 0.040864
0.602044 0.857613 0.043671
0.704532 0.858552 0.051179
0.805829 0.859085 0.058961
0.900137 0.857894 0.070589
0.949488 0.857519 0.078004
0.976072 0.859430 0.057497
0.328399 0.895175 0.037720
0.377415 0.901535 0.033478
0.495712 0.913472 0.031067
0.595941 0.926629 0.020417
0.674958 0.930671 0.021058
0.752205 0.930576 0.031251
0.858416 0.930859 0.039826
0.933008 0.931517 0.061555
0.969998 0.935684 0.089266
0.350923 0.941729 0.036774
0.395482 0.949624 0.032380
0.503158 0.961341 0.021637
0.596124 0.981047 0.007507
0.671174 0.991291 0.005767
0.735419 0.995364 0.002563
0.827041 0.999405 0.003906
0.918511 0.998778 0.030549
0.980314 0.998966 0.054811
0.002655 0.018953 0.087741
0.074408 0.032581 0.086489
0.303464 0.069111 0.094515
0.541706 0.102600 0.106448
0.727392 0.128728 0.117618
0.868823 0.148716 0.125950
0.953762 0.164035 0.133121
0.988860 0.173528 0.138492
1.000000 0.180514 0.130222
0.013794 0.076817 0.080232
0.108577 0.125285 0.117652
0.283364 0.154539 0.141090
0.504573 0.184009 0.153358
0.697451 0.207992 0.163518
0.844092 0.226135 0.171731
0.937040 0.239429 0.178173
0.981793 0.241681 0.175664
1.000000 0.211968 0.132480
0.073829 0.282895 0.084597
0.160171 0.286546 0.123233
0.278892 0.288955 0.126075
0.484897 0.299596 0.159255
0.678098 0.317753 0.176312
0.826383 0.335805 0.185990
0.931411 0.348395 0.189767
0.981993 0.357668 0.187193
1.000000 0.358646 0.152714
0.147017 0.481892 0.088870
0.228234 0.467822 0.130917
0.340376 0.469918 0.134579
0.492083 0.473023 0.148455
0.668661 0.472835 0.177753
0.807922 0.478008 0.196088
0.914156 0.487441 0.206254
0.977320 0.498855 0.201028
1.000000 0.509430 0.168370
0.210926 0.639192 0.093600
0.290025 0.625359 0.133745
0.397521 0.625118 0.138245
0.540156 0.624802 0.154508
0.670848 0.629532 0.166227
0.801299 0.627607 0.180137
0.906123 0.627221 0.194948
0.971735 0.629163 0.186634
1.000000 0.643421 0.167332
0.258599 0.751034 0.096255
0.337792 0.744702 0.135247
0.438845 0.747985 0.134563
0.570602 0.749663 0.144559
0.701809 0.749137 0.165203
0.806836 0.749983 0.181992
0.894247 0.748872 0.185047
0.962626 0.753074 0.164684
0.997498 0.755890 0.091159
0.296291 0.836873 0.097079
0.374210 0.834681 0.134132
0.466439 0.841921 0.126397
0.583817 0.844796 0.128988
0.694901 0.844559 0.138354
0.806453 0.845715 0.158245
0.893667 0.844890 0.176227
0.950421 0.847734 0.175027
0.975675 0.858678 0.095339
0.321380 0.892795 0.096316
0.398168 0.898312 0.123549
0.490249 0.911244 0.109856
0.592699 0.921742 0.100209
0.680112 0.926438 0.098157
0.770907 0.925021 0.110616
0.873072 0.924659 0.135434
0.944989 0.924986 0.154640
0.973081 0.936027 0.135685
0.344880 0.940978 0.078706
0.392186 0.947275 0.075471
0.505356 0.960526 0.054720
0.602349 0.980138 0.038880
0.674470 0.989536 0.027741
0.737708 0.995144 0.024384
0.831864 0.998496 0.035584
0.924859 0.996804 0.070497
0.984160 0.993703 0.105288
0.010865 0.070364 0.346324
0.083656 0.082393 0.345500
0.305386 0.112876 0.332254
0.534778 0.141448 0.326548
0.722478 0.162030 0.328501
0.865253 0.176003 0.331583
0.955959 0.184650 0.332468
0.990539 0.188127 0.331736
1.000000 0.193139 0.332254
0.016756 0.117544 0.328104
0.118042 0.158330 0.302062
0.286328 0.180239 0.303574
0.501649 0.203603 0.301848
0.694677 0.222953 0.305551
0.840297 0.236912 0.308087
0.936718 0.248107 0.312903
0.982926 0.249116 0.320149
1.000000 0.222181 0.322428
0.066107 0.280200 0.313120
0.154724 0.287758 0.291092
0.276092 0.292050 0.280120
0.458031 0.317170 0.302031
0.647258 0.337734 0.310271
0.801251 0.355517 0.317349
0.909013 0.370426 0.326054
0.980209 0.367617 0.320251
1.000000 0.360965 0.315073
0.130505 0.473903 0.314157
0.217234 0.464986 0.293849
0.335526 0.452180 0.286224
0.457306 0.453205 0.289125
0.625646 0.457368 0.314012
0.780253 0.471270 0.327587
0.894234 0.486774 0.336741
0.976174 0.506990 0.332370
1.000000 0.517200 0.324778
0.190936 0.631047 0.314096
0.274900 0.618181 0.288932
0.391915 0.597772 0.290575
0.509381 0.599516 0.296031
0.637597 0.602495 0.308156
0.773427 0.602501 0.326709
0.879150 0.609129 0.342378
0.965047 0.629386 0.339579
1.000000 0.643139 0.327982
0.237723 0.741761 0.311563
0.321545 0.735377 0.282984
0.437403 0.725780 0.289647
0.544975 0.724232 0.293791
0.667619 0.723848 0.309658
0.773795 0.727687 0.319755
0.871850 0.728947 0.327029
0.957658 0.743602 0.317369
0.992400 0.747180 0.285378
0.273950 0.826097 0.302285
0.356091 0.825324 0.276880
0.473893 0.825094 0.290934
0.569860 0.826701 0.287184
0.680694 0.828179 0.293609
0.790652 0.827239 0.314872
0.875904 0.828087 0.330556
0.945816 0.838666 0.317107
0.983886 0.855671 0.277871
0.298885 0.881735 0.290780
0.378045 0.889216 0.271886
0.501371 0.906133 0.277206
0.599298 0.915449 0.263758
0.691537 0.915737 0.259654
0.782542 0.915626 0.267250
0.879573 0.916308 0.292109
0.948064 0.916409 0.313326
0.992156 0.923371 0.301827
0.319639 0.925940 0.277749
0.366153 0.930389 0.264900
0.521562 0.957018 0.258217
0.619106 0.974279 0.237830
0.691012 0.984838 0.216071
0.762307 0.991103 0.212836
0.858965 0.984650 0.228522
0.947169 0.983552 0.264473
0.992766 0.984994 0.281106
0.019441 0.119455 0.605060
0.092079 0.130827 0.605396
0.321441 0.160244 0.600269
0.548176 0.183083 0.585284
0.732916 0.195865 0.581591
0.878041 0.200658 0.578783
0.968076 0.202193 0.570299
0.997223 0.202788 0.564806
1.000000 0.204041 0.565874
0.021150 0.161310 0.582049
0.128765 0.200564 0.537672
0.293609 0.216615 0.533382
0.501080 0.234708 0.519265
0.687766 0.250056 0.514461
0.834593 0.259677 0.513467
0.932485 0.265525 0.512453
0.984211 0.259806 0.518184
1.000000 0.231391 0.548814
0.065130 0.313691 0.555620
0.153893 0.315574 0.512338
0.291654 0.323535 0.467430
0.464698 0.340200 0.466666
0.644910 0.354906 0.462264
0.798384 0.368176 0.463894
0.905753 0.379821 0.465876
0.980667 0.377005 0.488455
1.000000 0.367011 0.505295
0.125866 0.480044 0.546281
0.209169 0.467084 0.503447
0.326977 0.453853 0.452877
0.431521 0.441956 0.426026
0.604021 0.462041 0.444075
0.761870 0.478463 0.451665
0.891109 0.496989 0.462518
0.976764 0.512761 0.478255
1.000000 0.518609 0.487411
0.181474 0.627068 0.543382
0.258195 0.611153 0.492819
0.379524 0.594672 0.449640
0.488688 0.586887 0.430979
0.603703 0.589361 0.434152
0.741784 0.592162 0.453867
0.871258 0.613941 0.470189
0.964284 0.639021 0.485919
1.000000 0.659744 0.500046
0.217305 0.734148 0.532945
0.301602 0.725317 0.479557
0.422649 0.716750 0.442376
0.533843 0.706318 0.434750
0.646596 0.708474 0.440812
0.752736 0.712005 0.450879
0.866673 0.722483 0.467777
0.952476 0.742088 0.486885
0.999420 0.758365 0.500992
0.249138 0.813816 0.510636
0.332889 0.813224 0.465702
0.458542 0.813995 0.436741
0.573374 0.819669 0.436344
0.680471 0.817314 0.440332
0.784756 0.816862 0.455329
0.867554 0.819506 0.462723
0.944748 0.832066 0.471985
0.992431 0.845175 0.477981
0.273309 0.869048 0.486068
0.354708 0.877548 0.454319
0.480852 0.894065 0.444912
0.609580 0.906677 0.444471
0.703186 0.906736 0.437662
0.793021 0.908010 0.440406
0.881150 0.906509 0.462101
0.946596 0.907185 0.477167
0.990996 0.914255 0.469253
0.291439 0.914693 0.465376
0.339722 0.919424 0.448591
0.495163 0.943954 0.442732
0.633450 0.971241 0.451857
0.716923 0.979918 0.438307
0.791821 0.977945 0.427594
0.873248 0.975909 0.438673
0.951014 0.976222 0.466658
0.995117 0.977037 0.483871
0.026979 0.157268 0.802820
0.099038 0.168202 0.804590
0.328368 0.194643 0.802759
0.557149 0.209868 0.792322
0.732153 0.212876 0.778100
0.867267 0.212468 0.762231
0.958095 0.210150 0.746727
0.993651 0.208302 0.736381
1.000000 0.207582 0.732383
0.026460 0.196272 0.779168
0.133035 0.235095 0.742203
0.293975 0.246725 0.732963
0.505845 0.262500 0.725642
0.687587 0.272292 0.712458
0.831443 0.277433 0.704187
0.933198 0.278109 0.697541
0.986486 0.268313 0.694781
1.000000 0.232237 0.715109
0.064794 0.343076 0.746299
0.152086 0.342906 0.709199
0.297624 0.355164 0.659503
0.465658 0.365240 0.650983
0.640391 0.376043 0.638338
0.789221 0.386416 0.633604
0.899446 0.395430 0.634735
0.974780 0.386905 0.654205
1.000000 0.367606 0.667989
0.123668 0.498998 0.734336
0.204513 0.484423 0.691888
0.324979 0.472201 0.635508
0.447176 0.469230 0.599761
0.609829 0.482124 0.596776
0.759563 0.493166 0.593021
0.888967 0.507712 0.607864
0.974119 0.520997 0.626091
1.000000 0.534242 0.644337
0.173783 0.629292 0.722342
0.250877 0.610923 0.673038
0.370390 0.595948 0.622109
0.479280 0.589046 0.583890
0.580112 0.581830 0.562456
0.735129 0.598192 0.577477
0.870574 0.620257 0.594486
0.964264 0.646411 0.616619
1.000000 0.672838 0.639729
0.206287 0.723026 0.698325
0.288034 0.717812 0.652336
0.407150 0.708706 0.604742
0.523035 0.702726 0.578609
0.632501 0.707920 0.567207
0.735512 0.711089 0.571293
0.852380 0.722479 0.595375
0.949204 0.747490 0.618912
0.998535 0.767857 0.640309
0.227651 0.800940 0.667226
0.313586 0.803185 0.631841
0.440762 0.803345 0.594450
0.560260 0.809776 0.585104
0.676475 0.810431 0.580918
0.779760 0.811866 0.588086
0.862272 0.816068 0.596233
0.942598 0.828234 0.616958
0.991851 0.847494 0.639302
0.252708 0.857926 0.637104
0.334696 0.867332 0.609048
0.460210 0.881837 0.594493
0.594540 0.893463 0.592744
0.708832 0.900505 0.592445
0.799230 0.897943 0.596077
0.882157 0.897936 0.610004
0.943018 0.901180 0.612906
0.990325 0.907143 0.621753
0.273859 0.906392 0.613819
0.321776 0.911372 0.597278
0.475446 0.934586 0.588946
0.621639 0.961059 0.602527
0.733771 0.973058 0.603687
0.803296 0.970395 0.594805
0.880909 0.970865 0.598560
0.952267 0.970144 0.623340
0.995117 0.972432 0.622943
0.032870 0.185370 0.929136
0.104288 0.195426 0.929716
0.328490 0.216605 0.928617
0.548298 0.223183 0.919859
0.714635 0.220927 0.905362
0.845048 0.216322 0.886776
0.941981 0.213064 0.870754
0.984588 0.210996 0.860348
1.000000 0.210308 0.852137
0.031039 0.222337 0.905362
0.135283 0.260805 0.880466
0.293460 0.270426 0.878913
0.501165 0.281986 0.873304
0.682469 0.287329 0.863175
0.823535 0.288200 0.850999
0.924767 0.286818 0.838957
0.981457 0.276326 0.834006
1.000000 0.236748 0.837031
0.063665 0.362876 0.878567
0.145880 0.365027 0.858706
0.294809 0.380779 0.818621
0.460505 0.387388 0.806391
0.639281 0.396618 0.798179
0.786323 0.402182 0.787252
0.896161 0.407819 0.781206
0.973115 0.394417 0.792633
1.000000 0.374812 0.793237
0.119609 0.511779 0.872646
0.194018 0.500484 0.838120
0.317720 0.493123 0.789857
0.449835 0.494567 0.754372
0.610227 0.501587 0.744733
0.755590 0.508296 0.734684
0.880498 0.518721 0.742503
0.967004 0.529191 0.759334
1.000000 0.538659 0.764733
0.164108 0.626692 0.853816
0.242118 0.618989 0.820314
0.363300 0.608757 0.774332
0.476202 0.603721 0.733441
0.595345 0.605254 0.715157
0.740870 0.614718 0.711350
0.868822 0.631135 0.718556
0.962060 0.652802 0.736327
1.000000 0.675282 0.742546
0.191424 0.713252 0.817987
0.275121 0.716193 0.792593
0.397998 0.708405 0.750658
0.514591 0.704313 0.718948
0.623065 0.710025 0.699619
0.715326 0.706078 0.683036
0.847380 0.726797 0.702646
0.949824 0.751845 0.725103
0.998352 0.772337 0.739097
0.212330 0.791103 0.784173
0.299639 0.794716 0.760786
0.427974 0.795848 0.725683
0.547011 0.801414 0.709923
0.667333 0.806181 0.701866
0.766839 0.810490 0.696667
0.847405 0.815703 0.702938
0.937430 0.829282 0.725198
0.994170 0.849593 0.736412
0.237815 0.850438 0.751823
0.317408 0.858507 0.731756
0.443749 0.871209 0.717219
0.578849 0.882160 0.711722
0.700449 0.890668 0.712112
0.799305 0.890971 0.715276
0.879533 0.892551 0.722699
0.938685 0.898340 0.727961
0.991088 0.904637 0.736534
0.258996 0.901755 0.724021
0.306699 0.906955 0.708701
0.460949 0.926379 0.697409
0.608546 0.949875 0.708243
0.725012 0.964380 0.714469
0.812025 0.967637 0.714774
0.888479 0.964599 0.718588
0.949672 0.965289 0.727745
0.994934 0.966792 0.725089
0.037905 0.207518 0.992889
0.108103 0.216385 0.992889
0.324981 0.231015 0.989868
0.535571 0.230200 0.982940
0.694094 0.224060 0.973449
0.824569 0.219611 0.966216
0.928399 0.217105 0.959838
0.981840 0.215507 0.956908
1.000000 0.215476 0.957671
0.034060 0.242794 0.982604
0.135625 0.279609 0.966277
0.291774 0.286111 0.965117
0.494548 0.294368 0.960024
0.670709 0.296690 0.953992
0.809268 0.295384 0.945223
0.911253 0.293299 0.934694
0.975421 0.282606 0.929400
1.000000 0.246303 0.944151
0.060827 0.375752 0.962981
0.142872 0.382018 0.947864
0.294274 0.402823 0.920887
0.457556 0.408037 0.918191
0.635639 0.414024 0.912787
0.783314 0.416639 0.904594
0.891161 0.416897 0.895298
0.970076 0.402089 0.898136
1.000000 0.385683 0.907925
0.111338 0.517450 0.965362
0.185102 0.513457 0.936084
0.307146 0.512627 0.904942
0.447888 0.519177 0.886455
0.616574 0.522422 0.873366
0.764645 0.526172 0.865139
0.876272 0.528037 0.856470
0.962779 0.535812 0.860683
1.000000 0.544298 0.870907
0.149733 0.626253 0.946043
0.228336 0.627193 0.923480
0.350295 0.624233 0.888825
0.471615 0.631386 0.861135
0.606565 0.634299 0.842817
0.750997 0.636956 0.831732
0.864084 0.640001 0.824443
0.955315 0.658856 0.830768
1.000000 0.678039 0.846370
0.175614 0.708020 0.919309
0.261963 0.716541 0.903375
0.388991 0.717273 0.873872
0.511773 0.723942 0.848942
0.629689 0.730425 0.825001
0.738959 0.732661 0.809859
0.851229 0.738657 0.805417
0.947658 0.758333 0.813142
1.000000 0.773466 0.828242
0.199114 0.785307 0.882992
0.284572 0.790508 0.866492
0.414488 0.795837 0.842129
0.537078 0.800546 0.822501
0.659294 0.806986 0.808259
0.757977 0.812144 0.795178
0.835414 0.815495 0.788560
0.935758 0.832251 0.804027
0.998444 0.852256 0.820581
0.225271 0.845238 0.848445
0.302440 0.853847 0.831250
0.429632 0.865393 0.814322
0.566543 0.874499 0.800765
0.690567 0.882077 0.795651
0.795035 0.885746 0.796377
0.874069 0.890090 0.799059
0.934083 0.898758 0.807211
0.992644 0.906673 0.823512
0.246116 0.897494 0.823603
0.292751 0.902757 0.809564
0.445384 0.920520 0.793359
0.593927 0.940006 0.800104
0.711826 0.952788 0.806452
0.810194 0.960369 0.812555
0.891592 0.961341 0.813684
0.951534 0.958867 0.821405
0.995331 0.965947 0.832240
0.041050 0.220520 1.000000
0.110056 0.227820 1.000000
0.320372 0.237656 1.000000
0.524553 0.233459 0.999542
0.681886 0.227036 0.996094
0.812941 0.223089 0.994324
0.921990 0.222682 0.993591
0.978788 0.221899 0.993958
1.000000 0.220364 0.996063
0.033114 0.254699 1.000000
0.130091 0.285620 0.997945
0.292375 0.287765 0.997711
0.491480 0.294271 0.995626
0.662007 0.294688 0.992628
0.800465 0.292269 0.989434
0.904502 0.290215 0.987345
0.970399 0.288729 0.985324
1.000000 0.251128 0.992920
0.052129 0.382142 0.992340
0.129158 0.393160 0.991743
0.280811 0.404821 0.987660
0.466972 0.408734 0.985456
0.640209 0.411720 0.981940
0.785615 0.411971 0.978417
0.895559 0.410600 0.973710
0.964552 0.409235 0.967986
1.000000 0.391760 0.968078
0.096658 0.518797 0.995056
0.169225 0.522818 0.985436
0.293419 0.537730 0.974303
0.450996 0.542996 0.963161
0.623863 0.543902 0.959193
0.772101 0.543853 0.953815
0.885644 0.543435 0.947529
0.960340 0.543021 0.941116
1.000000 0.549405 0.937223
0.134899 0.629073 0.987976
0.210512 0.634649 0.981523
0.335208 0.649304 0.969783
0.466870 0.661880 0.953141
0.611655 0.664098 0.935331
0.758862 0.664004 0.923883
0.874673 0.664770 0.917003
0.953958 0.665233 0.910784
1.000000 0.680765 0.909421
0.163070 0.711529 0.978789
0.242050 0.722449 0.973303
0.369964 0.736605 0.960333
0.505587 0.749931 0.941757
0.631575 0.757902 0.916674
0.750750 0.761668 0.901798
0.862848 0.762385 0.892080
0.946599 0.765243 0.888753
1.000000 0.777256 0.890042
0.187059 0.785527 0.953277
0.263147 0.791736 0.953151
0.395032 0.805082 0.943107
0.534730 0.816900 0.929217
0.662852 0.824565 0.906891
0.766509 0.831043 0.889258
0.853991 0.834823 0.877814
0.936080 0.840946 0.875789
0.999939 0.856109 0.877102
0.214528 0.843515 0.918362
0.287498 0.852848 0.918051
0.413941 0.865751 0.906885
0.552195 0.875954 0.892744
0.680560 0.882738 0.880459
0.789108 0.886780 0.872823
0.868155 0.891545 0.867645
0.931275 0.900724 0.869747
0.993957 0.910339 0.875576
0.236014 0.895802 0.888516
0.279567 0.902225 0.882870
0.430368 0.920990 0.871090
0.583885 0.935777 0.859249
0.703891 0.946429 0.858791
0.805616 0.952632 0.862789
0.893087 0.955044 0.866329
0.949916 0.956297 0.868770
0.995911 0.970175 0.886623
0.043125 0.230576 1.000000
0.102487 0.236842 1.000000
0.320861 0.242576 1.000000
0.519579 0.236122 1.000000
0.674012 0.229136 1.000000
0.806226 0.229073 1.000000
0.920708 0.228884 1.000000
0.978575 0.227632 1.000000
1.000000 0.227162 1.000000
0.033145 0.255388 1.000000
0.091103 0.260464 1.000000
0.305997 0.262500 1.000000
0.502151 0.259336 1.000000
0.662017 0.257080 1.000000
0.796917 0.258083 1.000000
0.912407 0.259680 1.000000
0.973905 0.259649 1.000000
1.000000 0.260119 1.000000
0.044071 0.390633 1.000000
0.080481 0.394737 1.000000
0.270563 0.399874 1.000000
0.465802 0.394423 0.999603
0.640531 0.404041 1.000000
0.781261 0.405921 1.000000
0.903098 0.403258 1.000000
0.970670 0.401378 1.000000
1.000000 0.399624 1.000000
0.083565 0.524185 1.000000
0.123851 0.531297 1.000000
0.270990 0.548935 1.000000
0.457775 0.555577 0.997772
0.628964 0.564505 0.999481
0.770975 0.562092 0.997589
0.893606 0.559681 0.995148
0.967770 0.557738 0.992462
1.000000 0.556328 0.989166
0.117747 0.635057 1.000000
0.158431 0.641322 1.000000
0.315458 0.663565 0.998169
0.468335 0.688973 0.992157
0.614436 0.693546 0.987671
0.758126 0.689694 0.981444
0.885853 0.688315 0.978881
0.964200 0.687719 0.974822
1.000000 0.687156 0.970061
0.145612 0.717544 1.000000
0.190752 0.725094 1.000000
0.349488 0.751880 0.995117
0.502060 0.770175 0.991364
0.622676 0.777381 0.973205
0.747871 0.778822 0.962920
0.876332 0.779793 0.960082
0.958126 0.779731 0.955443
1.000000 0.780294 0.951475
0.176468 0.791353 0.998291
0.219349 0.799185 0.998962
0.372043 0.822118 1.000000
0.532000 0.837031 0.986786
0.654784 0.845865 0.968322
0.757363 0.851504 0.949613
0.866382 0.855201 0.942472
0.949092 0.856015 0.937895
1.000000 0.860026 0.939634
0.201587 0.845896 0.983948
0.243552 0.852663 0.984863
0.390020 0.872400 0.985779
0.550588 0.885965 0.973876
0.677308 0.894706 0.963439
0.781901 0.900000 0.946928
0.869678 0.905013 0.932737
0.939844 0.907581 0.926420
0.996735 0.920395 0.935331
0.221486 0.896961 0.959563
0.263146 0.903885 0.960113
0.412727 0.923152 0.952819
0.568533 0.937907 0.939604
0.692599 0.946335 0.929747
0.797314 0.950940 0.923643
0.889608 0.953666 0.921446
0.946040 0.956610 0.919706
0.996460 0.974718 0.937101
