components/images/luts/Film Print 01.cube
# Created by: Lutify.me
# Copyright: (c) Copyright Lutify.me 2016, G.T. Colord LTD
# Website: https://lutify.me
# Contact: help@lutify.me
LUT_3D_SIZE 33
0.000000 0.000000 0.000000
0.005432 0.002037 0.001129
0.017427 0.005358 0.002868
0.040012 0.010934 0.005920
0.075141 0.018546 0.010131
0.124217 0.028384 0.015563
0.181810 0.038941 0.021271
0.243796 0.049499 0.026856
0.308438 0.059963 0.032380
0.372745 0.069956 0.037568
0.434457 0.079386 0.042603
0.492781 0.088064 0.047242
0.545734 0.096366 0.051851
0.596399 0.104041 0.056062
0.644895 0.110996 0.059602
0.690798 0.117293 0.062746
0.733985 0.123152 0.065523
0.774088 0.128634 0.068178
0.810866 0.133929 0.070802
0.843644 0.139223 0.073671
0.872699 0.144455 0.076692
0.898245 0.149342 0.079530
0.919793 0.153791 0.082125
0.938043 0.157738 0.084353
0.952389 0.161184 0.086337
0.963467 0.164255 0.088137
0.972868 0.166980 0.089785
0.981199 0.169424 0.091281
0.988250 0.171648 0.092562
0.993712 0.173590 0.093447
0.997589 0.175250 0.093966
1.000000 0.176723 0.094119
1.000000 0.177475 0.093295
0.000915 0.007237 0.000732
0.004852 0.007018 0.001190
0.016695 0.009618 0.003082
0.039463 0.014912 0.006317
0.074530 0.022212 0.010406
0.123424 0.031704 0.015808
0.180803 0.042136 0.021607
0.242636 0.052695 0.027283
0.307736 0.063095 0.032685
0.372226 0.072963 0.037751
0.433908 0.082393 0.042817
0.492171 0.091072 0.047455
0.545490 0.099279 0.052003
0.595483 0.107049 0.056398
0.643186 0.114192 0.060243
0.688783 0.120552 0.063417
0.732488 0.126221 0.065981
0.773294 0.131579 0.068391
0.810225 0.136873 0.071046
0.843065 0.142199 0.074007
0.872241 0.147400 0.077028
0.898093 0.152255 0.079866
0.919915 0.156673 0.082400
0.938104 0.160589 0.084597
0.952419 0.164067 0.086581
0.963467 0.167074 0.088351
0.972868 0.169799 0.089938
0.981199 0.172212 0.091464
0.988250 0.174530 0.092868
0.993712 0.176629 0.094058
0.997559 0.177695 0.094576
1.000000 0.176723 0.094119
1.000000 0.177475 0.093295
0.003418 0.021271 0.001556
0.006684 0.021084 0.001709
0.015595 0.020865 0.002990
0.037936 0.024530 0.006774
0.073096 0.031141 0.011291
0.122111 0.040226 0.016633
0.179490 0.050313 0.022431
0.240744 0.060683 0.028290
0.305173 0.070896 0.033692
0.370151 0.080608 0.038666
0.432535 0.089787 0.043519
0.491011 0.098215 0.048005
0.544361 0.106297 0.052583
0.594812 0.113941 0.056886
0.641813 0.121021 0.060854
0.686586 0.127475 0.064272
0.729559 0.133271 0.067110
0.770700 0.138534 0.069398
0.808423 0.143640 0.071779
0.841690 0.148873 0.074617
0.871387 0.154010 0.077669
0.897666 0.158897 0.080507
0.919762 0.163252 0.083010
0.938165 0.167136 0.085177
0.952541 0.170520 0.087069
0.963528 0.173528 0.088809
0.972898 0.176221 0.090426
0.981199 0.178603 0.091891
0.988250 0.180921 0.093356
0.993712 0.183146 0.094699
0.997589 0.183866 0.095584
1.000000 0.180796 0.095156
1.000000 0.177475 0.093295
0.008393 0.045300 0.002899
0.011872 0.045175 0.003204
0.019502 0.044925 0.003753
0.036044 0.044737 0.005859
0.070838 0.048841 0.011657
0.119853 0.056642 0.018006
0.177201 0.065915 0.023865
0.238608 0.075783 0.029938
0.302121 0.085746 0.035645
0.366458 0.095144 0.040589
0.429268 0.104010 0.045228
0.488509 0.112281 0.049593
0.542011 0.120019 0.053926
0.592675 0.127538 0.058260
0.640226 0.134367 0.062074
0.684541 0.140884 0.065675
0.726354 0.146773 0.068880
0.766520 0.152067 0.071504
0.805127 0.156924 0.073488
0.839279 0.161873 0.075929
0.869525 0.166948 0.078920
0.896566 0.171773 0.081790
0.919243 0.176034 0.084323
0.938043 0.179793 0.086428
0.952663 0.183114 0.088290
0.963712 0.186027 0.089999
0.973051 0.188627 0.091555
0.981230 0.190977 0.092990
0.988250 0.193264 0.094393
0.993712 0.195426 0.095767
0.997589 0.196053 0.096926
1.000000 0.192701 0.097262
1.000000 0.189536 0.096377
0.016573 0.079981 0.004669
0.020326 0.079918 0.004974
0.028048 0.079605 0.005828
0.042362 0.079355 0.006713
0.068151 0.079542 0.009704
0.116649 0.083804 0.017975
0.173844 0.091134 0.025483
0.235098 0.099749 0.031891
0.298702 0.109022 0.038086
0.361910 0.117920 0.043427
0.424141 0.126347 0.048066
0.483962 0.134305 0.052400
0.538349 0.141792 0.056551
0.589165 0.148935 0.060548
0.637113 0.155671 0.064516
0.682069 0.161905 0.068025
0.723577 0.167857 0.071413
0.762734 0.173277 0.074434
0.799970 0.178133 0.076906
0.835037 0.182707 0.078889
0.866352 0.187375 0.081301
0.894369 0.192043 0.084048
0.918144 0.196241 0.086611
0.937525 0.199906 0.088748
0.952572 0.203101 0.090548
0.963956 0.205921 0.092196
0.973234 0.208427 0.093691
0.981382 0.210714 0.095126
0.988280 0.212876 0.096469
0.993712 0.215006 0.097842
0.997559 0.216009 0.098941
1.000000 0.212939 0.099337
1.000000 0.211968 0.100070
0.028659 0.125658 0.006866
0.032504 0.125658 0.007110
0.040409 0.125438 0.007965
0.054692 0.125032 0.009216
0.076941 0.125000 0.010406
0.113352 0.125658 0.014465
0.170029 0.128697 0.024384
0.230825 0.134650 0.033173
0.294002 0.142199 0.040162
0.357241 0.150125 0.046387
0.418496 0.157863 0.051729
0.477552 0.165257 0.056154
0.532580 0.172369 0.060426
0.584252 0.179136 0.064302
0.632351 0.185433 0.067873
0.677643 0.191478 0.071504
0.720036 0.197149 0.074800
0.759133 0.202632 0.078065
0.795422 0.207645 0.081057
0.829086 0.212218 0.083621
0.861315 0.216447 0.085513
0.890707 0.220645 0.087680
0.915763 0.224687 0.089999
0.936212 0.228258 0.092166
0.951992 0.231422 0.093997
0.963803 0.234117 0.095584
0.973478 0.236497 0.097048
0.981657 0.238690 0.098452
0.988433 0.240696 0.099734
0.993743 0.242638 0.101016
0.997559 0.243922 0.102175
1.000000 0.242105 0.102572
1.000000 0.240977 0.103091
0.043766 0.177851 0.008880
0.047733 0.177757 0.009185
0.055760 0.177600 0.009918
0.070165 0.177130 0.011291
0.092416 0.176692 0.013305
0.123759 0.177099 0.014862
0.166763 0.178666 0.019318
0.226888 0.180326 0.030304
0.289547 0.184524 0.040284
0.352326 0.190445 0.047883
0.413337 0.196930 0.054628
0.471203 0.203415 0.059969
0.526110 0.209900 0.064577
0.577994 0.216040 0.068758
0.626644 0.221930 0.072511
0.672211 0.227444 0.075655
0.715001 0.232863 0.079195
0.754768 0.237939 0.082400
0.791485 0.242920 0.085513
0.824996 0.247494 0.088534
0.856188 0.251754 0.091097
0.886343 0.255545 0.092837
0.912407 0.259242 0.094760
0.934015 0.262688 0.096713
0.951075 0.265759 0.098452
0.963498 0.268390 0.100009
0.973417 0.270708 0.101412
0.981871 0.272807 0.102786
0.988707 0.274718 0.104067
0.993865 0.276410 0.105227
0.997589 0.278039 0.106448
1.000000 0.277725 0.107363
1.000000 0.277788 0.108035
0.060797 0.232362 0.010803
0.064855 0.232174 0.011077
0.073066 0.232049 0.011871
0.087501 0.231610 0.013214
0.109720 0.230828 0.015625
0.141400 0.230858 0.018464
0.178726 0.232174 0.019959
0.224172 0.234399 0.023926
0.285945 0.235213 0.035309
0.348237 0.237656 0.046021
0.408729 0.241823 0.054628
0.466168 0.246868 0.061891
0.520311 0.252099 0.067628
0.571952 0.257425 0.072450
0.620601 0.262688 0.076906
0.666290 0.267638 0.080476
0.709324 0.272494 0.083712
0.749519 0.277287 0.087252
0.786662 0.281673 0.090335
0.820937 0.286091 0.093447
0.852586 0.290226 0.096469
0.882222 0.293985 0.098879
0.908897 0.297369 0.100619
0.931360 0.300595 0.102175
0.949549 0.303478 0.103701
0.962796 0.306109 0.105136
0.973081 0.308333 0.106448
0.981748 0.310401 0.107699
0.988860 0.312312 0.108981
0.994079 0.313972 0.110201
0.997711 0.315571 0.111392
1.000000 0.316667 0.112673
1.000000 0.318735 0.114505
0.079017 0.286905 0.012908
0.083107 0.286967 0.013031
0.091499 0.286842 0.013824
0.106211 0.286560 0.015167
0.128155 0.285714 0.017548
0.159286 0.284837 0.020814
0.197802 0.285621 0.024415
0.238364 0.287970 0.025879
0.284083 0.290664 0.028504
0.344667 0.291102 0.039063
0.404761 0.292168 0.050325
0.462140 0.294643 0.059755
0.515916 0.297964 0.067506
0.567129 0.301974 0.073732
0.615444 0.306297 0.079103
0.660766 0.310558 0.083865
0.703556 0.314630 0.087863
0.743964 0.318765 0.091403
0.781505 0.322807 0.095187
0.816054 0.326473 0.098452
0.848161 0.330295 0.101687
0.878224 0.333897 0.104617
0.905387 0.337062 0.106814
0.928399 0.339975 0.108340
0.947230 0.342701 0.109652
0.961208 0.345176 0.110842
0.972104 0.347369 0.112002
0.981108 0.349280 0.113071
0.988616 0.351190 0.114139
0.994170 0.352977 0.115299
0.997833 0.354606 0.116520
1.000000 0.356642 0.118015
1.000000 0.358240 0.119297
0.097878 0.339943 0.015014
0.102090 0.340069 0.015045
0.110514 0.340131 0.015686
0.125408 0.340069 0.016968
0.147841 0.339537 0.019562
0.178421 0.338597 0.022675
0.215291 0.337939 0.026337
0.257439 0.339693 0.030274
0.299558 0.342982 0.031403
0.344087 0.346084 0.032807
0.400976 0.346523 0.041810
0.458202 0.346585 0.053072
0.512345 0.347556 0.062929
0.563406 0.349436 0.071321
0.611384 0.352006 0.078310
0.656401 0.355107 0.084262
0.698733 0.358271 0.089541
0.738684 0.361435 0.094119
0.776438 0.364662 0.098178
0.811232 0.367794 0.102420
0.843339 0.370614 0.106173
0.873340 0.373685 0.109622
0.900900 0.376691 0.112399
0.924767 0.379354 0.114292
0.944239 0.381892 0.115726
0.958889 0.384179 0.116825
0.970303 0.386309 0.117771
0.979826 0.388189 0.118595
0.987792 0.389913 0.119419
0.993926 0.391635 0.120334
0.997864 0.393421 0.121433
1.000000 0.395394 0.122745
1.000000 0.396836 0.123600
0.116740 0.390789 0.017121
0.121013 0.390977 0.017090
0.129528 0.391134 0.017548
0.144574 0.391354 0.018647
0.167190 0.391197 0.020936
0.198351 0.390696 0.024506
0.234915 0.389787 0.028779
0.275110 0.389662 0.032471
0.318968 0.392481 0.036164
0.361147 0.396460 0.036988
0.402258 0.399530 0.036896
0.454479 0.400126 0.044312
0.508500 0.399656 0.054964
0.559835 0.399781 0.064790
0.607905 0.400564 0.073610
0.652861 0.401848 0.081149
0.694949 0.403478 0.087893
0.734473 0.405325 0.093966
0.771860 0.407300 0.099276
0.806928 0.409367 0.104006
0.839127 0.411560 0.108737
0.868762 0.413503 0.112857
0.896017 0.415758 0.116398
0.920281 0.418046 0.119022
0.940486 0.420301 0.120884
0.955837 0.422400 0.122257
0.967648 0.424373 0.123233
0.977446 0.426253 0.123966
0.985991 0.427945 0.124576
0.992888 0.429481 0.125126
0.997559 0.431078 0.125889
1.000000 0.432613 0.126896
1.000000 0.432988 0.127384
0.135265 0.439192 0.019288
0.139569 0.439630 0.018952
0.148207 0.439787 0.019471
0.163406 0.439975 0.020539
0.186021 0.440351 0.022339
0.217000 0.440163 0.025239
0.252983 0.439286 0.029542
0.292324 0.438566 0.034302
0.336945 0.439380 0.039521
0.381077 0.443046 0.042695
0.421822 0.447431 0.042969
0.457988 0.450564 0.040955
0.504928 0.451285 0.046692
0.555715 0.450720 0.056429
0.604059 0.450157 0.066011
0.649077 0.449937 0.074861
0.691256 0.450031 0.083010
0.730810 0.450470 0.090426
0.768076 0.451128 0.097262
0.803022 0.451974 0.103427
0.835709 0.452945 0.108981
0.865467 0.454073 0.114231
0.892171 0.455138 0.118625
0.916160 0.456611 0.122104
0.936731 0.458177 0.124607
0.952724 0.459900 0.126407
0.964810 0.461592 0.127781
0.974607 0.463283 0.128727
0.983427 0.464881 0.129306
0.991057 0.466385 0.129673
0.996704 0.467731 0.130100
1.000000 0.469110 0.130893
1.000000 0.470708 0.131778
0.153486 0.485213 0.021607
0.157821 0.485526 0.021241
0.166488 0.485903 0.021424
0.181840 0.486247 0.022461
0.204792 0.486592 0.024293
0.235739 0.487187 0.026734
0.271723 0.486842 0.030396
0.310514 0.485903 0.035340
0.351716 0.486028 0.039826
0.396918 0.488001 0.044739
0.439920 0.492074 0.047364
0.478285 0.496084 0.047852
0.511613 0.498872 0.045838
0.553548 0.499749 0.050081
0.600366 0.499029 0.058992
0.645322 0.498057 0.068086
0.687776 0.497023 0.076967
0.727850 0.496147 0.085604
0.765634 0.495614 0.093783
0.801038 0.495458 0.101382
0.833878 0.495489 0.108126
0.863573 0.495426 0.113987
0.889913 0.495521 0.118869
0.913536 0.495771 0.123081
0.933832 0.496523 0.126651
0.950190 0.497619 0.129215
0.962582 0.498778 0.131077
0.972195 0.500063 0.132541
0.980925 0.501378 0.133396
0.988830 0.502726 0.133823
0.995178 0.504104 0.134128
0.999542 0.505733 0.134800
1.000000 0.507269 0.135502
0.170914 0.528978 0.023530
0.175400 0.529293 0.023285
0.184190 0.529731 0.023408
0.199572 0.530357 0.023987
0.222676 0.530795 0.025849
0.253959 0.531423 0.028351
0.289883 0.531986 0.031403
0.328368 0.531203 0.035828
0.368838 0.530357 0.041230
0.411537 0.531611 0.045838
0.456920 0.534618 0.050874
0.496902 0.538471 0.053316
0.532519 0.542012 0.053560
0.563437 0.544392 0.052065
0.600854 0.544893 0.055879
0.643552 0.544017 0.063936
0.685335 0.542701 0.072633
0.725347 0.541228 0.081515
0.763436 0.539662 0.090274
0.799420 0.538315 0.098635
0.833054 0.537344 0.106234
0.863604 0.536529 0.113224
0.890096 0.535683 0.118595
0.913231 0.535057 0.122379
0.933161 0.534962 0.126285
0.949305 0.535307 0.129581
0.961696 0.535933 0.131595
0.971310 0.536623 0.133030
0.979490 0.537469 0.134525
0.986815 0.538471 0.135715
0.993255 0.539755 0.136814
0.998322 0.541542 0.138279
1.000000 0.543014 0.138675
0.187669 0.569956 0.025483
0.192095 0.570333 0.025116
0.201037 0.570708 0.025300
0.216664 0.571397 0.025879
0.239737 0.572275 0.027100
0.271143 0.572869 0.029633
0.307309 0.573527 0.032776
0.345613 0.573967 0.036622
0.386205 0.572807 0.042267
0.426918 0.572494 0.047059
0.470196 0.574813 0.052156
0.513932 0.577976 0.057954
0.551534 0.581548 0.060152
0.584953 0.584273 0.060915
0.614039 0.585840 0.060823
0.646910 0.585933 0.064088
0.685304 0.584774 0.071169
0.723882 0.583145 0.078950
0.761453 0.581391 0.087161
0.797588 0.579606 0.095462
0.831864 0.577976 0.103213
0.863177 0.576567 0.110079
0.890737 0.575344 0.116337
0.914573 0.574248 0.121097
0.934534 0.573339 0.124302
0.950801 0.572869 0.127109
0.962857 0.572744 0.128788
0.972012 0.572869 0.129581
0.979582 0.573089 0.130954
0.986114 0.573590 0.132999
0.991942 0.574498 0.135654
0.997192 0.576190 0.139499
1.000000 0.577976 0.141269
0.203296 0.607801 0.027222
0.207721 0.608333 0.026673
0.216694 0.608772 0.026764
0.232503 0.609273 0.027466
0.255883 0.610213 0.028687
0.287226 0.611404 0.030579
0.323730 0.611967 0.034058
0.361941 0.612469 0.037629
0.401556 0.612563 0.042328
0.442759 0.611184 0.048921
0.484389 0.611748 0.054048
0.525560 0.614129 0.059236
0.567556 0.617450 0.065309
0.603234 0.620301 0.068086
0.634732 0.622180 0.069917
0.662200 0.622744 0.070955
0.691226 0.622306 0.073518
0.725225 0.620896 0.079164
0.760873 0.619142 0.085848
0.796154 0.617293 0.092959
0.830337 0.615601 0.100039
0.862353 0.614066 0.106417
0.891103 0.612938 0.112551
0.916252 0.611936 0.118473
0.937006 0.610745 0.122532
0.953396 0.609618 0.124332
0.965756 0.608898 0.124912
0.974546 0.608490 0.124454
0.981474 0.608240 0.123966
0.987273 0.608177 0.125156
0.992370 0.608585 0.128483
0.997192 0.609774 0.134372
1.000000 0.611247 0.138858
0.217793 0.642387 0.028748
0.222218 0.642920 0.028199
0.231222 0.643578 0.028077
0.247123 0.644267 0.028595
0.270654 0.645018 0.029999
0.302365 0.646241 0.031952
0.338593 0.647525 0.034607
0.377293 0.647744 0.039063
0.416236 0.647870 0.042878
0.456066 0.647368 0.048738
0.497879 0.646460 0.056062
0.539722 0.647400 0.062471
0.580527 0.650219 0.067964
0.617671 0.652851 0.072786
0.651335 0.654668 0.076173
0.680849 0.655514 0.078645
0.707065 0.655201 0.080568
0.733038 0.654230 0.082278
0.763131 0.652726 0.086489
0.795940 0.651034 0.091769
0.829177 0.649530 0.097415
0.861102 0.648214 0.102847
0.890401 0.647212 0.108126
0.916282 0.646554 0.113468
0.938410 0.645834 0.118534
0.955807 0.644862 0.121402
0.968564 0.643734 0.120884
0.977812 0.642858 0.118900
0.984343 0.642325 0.116245
0.989531 0.641855 0.114658
0.994140 0.641886 0.115696
0.998474 0.642795 0.120395
1.000000 0.643453 0.125889
0.231069 0.673716 0.030121
0.235556 0.674280 0.029633
0.244590 0.675000 0.029389
0.260491 0.675971 0.029572
0.284022 0.676911 0.030762
0.315855 0.677945 0.033021
0.352449 0.679323 0.035828
0.390477 0.680420 0.039338
0.430215 0.679824 0.044922
0.468548 0.679574 0.048279
0.507676 0.678822 0.055055
0.549977 0.678447 0.063997
0.591942 0.680044 0.070558
0.630246 0.682299 0.075929
0.664611 0.683991 0.080202
0.694979 0.684837 0.083163
0.722264 0.684837 0.085635
0.747383 0.683866 0.087832
0.771158 0.682582 0.088809
0.797955 0.681297 0.091586
0.828445 0.680138 0.095462
0.859209 0.679105 0.099490
0.888204 0.678227 0.103488
0.914146 0.677663 0.107546
0.936884 0.677256 0.111605
0.955684 0.676817 0.115421
0.969846 0.676128 0.116337
0.979704 0.675156 0.113681
0.986876 0.674468 0.109408
0.991881 0.673935 0.105014
0.995941 0.673684 0.102145
0.999969 0.674498 0.102297
1.000000 0.675031 0.105471
0.243369 0.702318 0.031403
0.247856 0.702851 0.030915
0.256951 0.703603 0.030640
0.272882 0.704636 0.030793
0.296322 0.705922 0.031586
0.328002 0.707206 0.033539
0.364627 0.708459 0.036652
0.403052 0.709837 0.040101
0.441599 0.710244 0.044953
0.480879 0.708835 0.050935
0.517961 0.708333 0.053835
0.555043 0.707644 0.060793
0.596765 0.707832 0.069978
0.638303 0.709461 0.077058
0.674775 0.710933 0.082125
0.705173 0.711779 0.084902
0.732488 0.711842 0.086978
0.758157 0.711310 0.089205
0.782115 0.710214 0.091128
0.804364 0.708991 0.091555
0.828902 0.708270 0.093112
0.856860 0.707707 0.095675
0.884449 0.706986 0.098178
0.909813 0.706297 0.100833
0.932337 0.705984 0.103457
0.951626 0.705890 0.106539
0.967038 0.705796 0.108248
0.978514 0.705420 0.107150
0.986510 0.704636 0.102816
0.992461 0.703947 0.096865
0.996826 0.703603 0.091128
1.000000 0.704105 0.086764
1.000000 0.704825 0.087924
0.254844 0.728885 0.032502
0.259392 0.729418 0.032013
0.268488 0.730201 0.031678
0.284388 0.731203 0.031830
0.307919 0.732581 0.032593
0.339447 0.734179 0.034089
0.375767 0.735620 0.037018
0.414131 0.737031 0.040741
0.452892 0.738127 0.044922
0.490554 0.737312 0.051485
0.528644 0.735777 0.056367
0.563498 0.735119 0.058900
0.599023 0.734743 0.065370
0.637144 0.735307 0.072969
0.676972 0.736591 0.080019
0.710605 0.737437 0.084048
0.738013 0.737625 0.085665
0.763619 0.737249 0.087222
0.788250 0.736560 0.089114
0.811384 0.735683 0.090579
0.832840 0.734869 0.090792
0.855517 0.734649 0.091799
0.880177 0.734368 0.093020
0.904257 0.733898 0.094363
0.926140 0.733459 0.095919
0.945185 0.733427 0.097964
0.961178 0.733772 0.099276
0.973661 0.734023 0.098757
0.982664 0.733553 0.095462
0.989348 0.732581 0.089663
0.994720 0.731798 0.082400
0.999359 0.731798 0.075929
1.000000 0.732237 0.075410
0.265710 0.754135 0.033326
0.270288 0.754668 0.032776
0.279414 0.755420 0.032471
0.295376 0.756453 0.032593
0.318846 0.757832 0.033295
0.350373 0.759524 0.034821
0.386510 0.761215 0.037446
0.424630 0.762688 0.041047
0.463360 0.764098 0.044983
0.500808 0.764223 0.050630
0.536578 0.762751 0.056795
0.572623 0.761373 0.060487
0.605524 0.760965 0.062410
0.637052 0.760902 0.066896
0.672852 0.761748 0.073427
0.708469 0.762562 0.079134
0.739081 0.762970 0.082186
0.764932 0.762845 0.083316
0.789715 0.762344 0.084567
0.813643 0.761779 0.086093
0.836380 0.761278 0.087588
0.857378 0.760871 0.088473
0.877858 0.760902 0.089236
0.899283 0.760902 0.089968
0.919762 0.760652 0.090670
0.938013 0.760432 0.091708
0.953792 0.760777 0.092318
0.966733 0.761435 0.091525
0.976469 0.761623 0.088290
0.983488 0.760777 0.082797
0.989135 0.759398 0.075380
0.994506 0.758490 0.067293
0.999725 0.758082 0.064729
0.276087 0.778164 0.033875
0.280696 0.778697 0.033265
0.289852 0.779448 0.033051
0.305844 0.780482 0.033265
0.329345 0.781923 0.033967
0.360811 0.783615 0.035401
0.396581 0.785370 0.037903
0.433786 0.787093 0.041169
0.472027 0.788691 0.044831
0.509202 0.789693 0.048799
0.543323 0.788910 0.054018
0.576743 0.787249 0.059297
0.610316 0.786341 0.061922
0.640867 0.786529 0.062837
0.670350 0.787061 0.065919
0.701633 0.787719 0.070772
0.733251 0.788158 0.075166
0.761880 0.788252 0.077730
0.786937 0.787907 0.078554
0.811415 0.787437 0.079744
0.835160 0.787187 0.081484
0.857561 0.786999 0.083804
0.877552 0.786936 0.085726
0.896047 0.787187 0.086978
0.914390 0.787281 0.087649
0.931146 0.787093 0.087863
0.945918 0.787093 0.087680
0.958523 0.787594 0.086337
0.968839 0.788252 0.082858
0.976652 0.788190 0.077333
0.982389 0.787031 0.069765
0.987212 0.785715 0.060701
0.992675 0.785056 0.056367
0.285945 0.800501 0.034577
0.290554 0.801222 0.033814
0.299710 0.802068 0.033448
0.315763 0.803101 0.033692
0.339294 0.804480 0.034577
0.370792 0.806297 0.036133
0.405524 0.808239 0.038117
0.440348 0.810307 0.040528
0.476820 0.812031 0.043702
0.512986 0.813628 0.046357
0.545826 0.814254 0.048738
0.576377 0.812562 0.054048
0.607386 0.810997 0.058809
0.638852 0.811560 0.058931
0.667541 0.812156 0.059846
0.694216 0.812594 0.062166
0.722020 0.812939 0.065279
0.750893 0.813095 0.068544
0.778148 0.812970 0.070619
0.803571 0.812657 0.071748
0.828719 0.812406 0.073671
0.852800 0.812312 0.076509
0.874652 0.812281 0.079836
0.893636 0.812374 0.082705
0.910606 0.812562 0.084323
0.925927 0.812437 0.084719
0.939447 0.812093 0.084658
0.951259 0.812031 0.083773
0.961605 0.812594 0.080722
0.970181 0.813315 0.075166
0.976316 0.813503 0.067201
0.980009 0.813628 0.056978
0.983671 0.812187 0.051149
0.295101 0.820928 0.035187
0.299741 0.821711 0.034424
0.308926 0.822745 0.033936
0.324492 0.824029 0.033631
0.347566 0.825533 0.034302
0.378636 0.827318 0.035920
0.413459 0.829230 0.038147
0.448069 0.831360 0.040406
0.481397 0.833647 0.042023
0.515488 0.835527 0.043793
0.547871 0.836717 0.045075
0.577140 0.836435 0.047699
0.604517 0.834806 0.052187
0.633694 0.834430 0.054781
0.663024 0.835495 0.055147
0.689149 0.836090 0.056184
0.713933 0.836435 0.057924
0.739539 0.836748 0.060152
0.765450 0.836873 0.062166
0.791760 0.836811 0.063997
0.818648 0.836560 0.066255
0.844621 0.836310 0.069032
0.868305 0.836185 0.072298
0.889120 0.836059 0.075746
0.906577 0.836059 0.078767
0.921258 0.835934 0.080354
0.933984 0.835620 0.081057
0.945155 0.835339 0.081088
0.955074 0.835527 0.079652
0.963651 0.836372 0.075716
0.970273 0.837562 0.068391
0.974485 0.838878 0.057710
0.977873 0.837249 0.051393
0.303372 0.839254 0.035767
0.308103 0.840100 0.035065
0.317289 0.841291 0.034485
0.332459 0.842888 0.033631
0.354677 0.844674 0.033570
0.384892 0.846617 0.034943
0.419655 0.848528 0.037507
0.454906 0.850470 0.040131
0.486983 0.853101 0.040864
0.517473 0.855639 0.040772
0.547993 0.857206 0.041169
0.576652 0.857676 0.042389
0.602044 0.857613 0.043671
0.627163 0.856140 0.047699
0.654265 0.856893 0.048952
0.680727 0.858020 0.049806
0.704532 0.858552 0.051179
0.727697 0.858928 0.052736
0.752113 0.859242 0.054720
0.778270 0.859368 0.056795
0.805829 0.859085 0.058961
0.833145 0.858615 0.061311
0.858569 0.858239 0.063936
0.881031 0.858020 0.067049
0.900137 0.857894 0.070589
0.915397 0.857832 0.073427
0.928338 0.857738 0.075471
0.939691 0.857613 0.076997
0.949488 0.857519 0.078004
0.957851 0.858020 0.077150
0.964902 0.859148 0.072572
0.970517 0.860557 0.063783
0.976072 0.859430 0.057497
0.310667 0.855451 0.036347
0.315428 0.856265 0.035676
0.324370 0.857581 0.034852
0.339752 0.859273 0.034089
0.361574 0.861435 0.033600
0.390722 0.863690 0.034058
0.424294 0.865821 0.036255
0.459117 0.867857 0.038849
0.492110 0.870301 0.039826
0.521074 0.873308 0.038392
0.547871 0.875783 0.036744
0.574485 0.877099 0.036652
0.599084 0.877820 0.036500
0.621822 0.877350 0.037842
0.644712 0.876755 0.040589
0.669556 0.877820 0.042420
0.693301 0.878916 0.043915
0.715398 0.879230 0.045838
0.738044 0.879386 0.048035
0.762704 0.879543 0.049989
0.789929 0.879386 0.051820
0.818251 0.878979 0.053621
0.845323 0.878509 0.055788
0.869647 0.878164 0.058412
0.890493 0.878008 0.061494
0.907523 0.878071 0.064760
0.921624 0.878164 0.067934
0.933954 0.878258 0.071016
0.944850 0.878289 0.074129
0.953853 0.878446 0.076601
0.961239 0.879042 0.076479
0.967526 0.880013 0.072298
0.973692 0.879888 0.067842
0.317045 0.869831 0.036896
0.321837 0.870615 0.036225
0.330626 0.871930 0.035279
0.345887 0.873747 0.034394
0.367862 0.876003 0.033967
0.396367 0.878666 0.033753
0.428383 0.881203 0.034852
0.461589 0.883490 0.036744
0.494613 0.885934 0.037690
0.524340 0.888878 0.036255
0.549581 0.892043 0.033295
0.572532 0.894612 0.030793
0.596338 0.895959 0.029908
0.618190 0.896303 0.029633
0.638608 0.896084 0.030884
0.660461 0.895865 0.034485
0.682985 0.897212 0.036683
0.704624 0.897901 0.038880
0.725408 0.897682 0.041504
0.747780 0.897588 0.043610
0.773447 0.897588 0.045014
0.801740 0.897400 0.046357
0.830093 0.897118 0.048127
0.856371 0.896774 0.050417
0.879231 0.896586 0.053316
