components/images/luts/Studio Skin Tone Shaper.cube
# Created by: Lutify.me
# Copyright: (c) Copyright Lutify.me 2016, G.T. Colord LTD
# Website: https://lutify.me
# Contact: help@lutify.me
LUT_3D_SIZE 33
0.007636 0.004373 0.007492
0.027207 0.004973 0.007133
0.047972 0.006206 0.006759
0.069522 0.006737 0.006083
0.092828 0.007455 0.005595
0.118758 0.007145 0.004497
0.145233 0.007010 0.003337
0.172562 0.007043 0.002401
0.201456 0.007091 0.001529
0.230773 0.007159 0.000944
0.260978 0.007240 0.000906
0.289546 0.007988 0.001510
0.318644 0.008970 0.002270
0.348572 0.009612 0.002776
0.378710 0.009567 0.002848
0.407742 0.009404 0.002729
0.435014 0.009243 0.002613
0.460755 0.009063 0.002502
0.486154 0.008905 0.002395
0.511007 0.008707 0.002439
0.535689 0.008180 0.002551
0.560040 0.007998 0.002617
0.583707 0.007958 0.002762
0.607073 0.008106 0.002914
0.630395 0.008231 0.003060
0.654128 0.008353 0.003349
0.677998 0.008480 0.003494
0.702652 0.008608 0.003784
0.727469 0.008579 0.003929
0.752846 0.008867 0.004082
0.777777 0.008856 0.004082
0.802582 0.008970 0.004227
0.826731 0.009109 0.004227
0.010524 0.024318 0.007048
0.029149 0.023174 0.006941
0.052023 0.022165 0.006031
0.070123 0.024196 0.005973
0.092608 0.025048 0.005806
0.116812 0.025766 0.005280
0.143774 0.024843 0.003882
0.171528 0.023914 0.002436
0.200190 0.023465 0.001334
0.229264 0.023169 0.000711
0.258822 0.023436 0.000447
0.288878 0.023478 0.000214
0.318280 0.023811 0.000205
0.347273 0.025049 0.000984
0.376622 0.026493 0.001896
0.405528 0.027925 0.002909
0.433770 0.027753 0.002786
0.460279 0.027544 0.002833
0.485559 0.027367 0.002712
0.510499 0.027104 0.002601
0.535221 0.026759 0.002710
0.559866 0.026425 0.002762
0.584080 0.026307 0.002914
0.608117 0.025943 0.003204
0.631668 0.026026 0.003349
0.655527 0.025835 0.003639
0.679537 0.025926 0.003784
0.704072 0.025829 0.003929
0.729155 0.025743 0.004082
0.754428 0.025896 0.004082
0.780054 0.025804 0.004227
0.805472 0.025669 0.004364
0.830498 0.025624 0.004364
0.013090 0.045087 0.006494
0.032389 0.043744 0.006582
0.051862 0.041403 0.006364
0.075715 0.040105 0.005093
0.093481 0.043170 0.005252
0.117534 0.043690 0.004543
0.144126 0.044106 0.003497
0.172393 0.043842 0.001896
0.200612 0.044193 0.001322
0.229582 0.044771 0.000944
0.259273 0.044625 0.000447
0.289696 0.044358 0.000000
0.319372 0.044733 0.000000
0.348814 0.044760 0.000000
0.377928 0.045520 0.000000
0.406705 0.046603 0.000181
0.434594 0.048103 0.001220
0.461347 0.049346 0.002162
0.486827 0.050204 0.003021
0.511714 0.050148 0.002886
0.536400 0.050137 0.003000
0.561021 0.049945 0.003060
0.585646 0.049759 0.003349
0.610006 0.049760 0.003494
0.634137 0.049545 0.003784
0.657996 0.049437 0.003929
0.682111 0.049468 0.004082
0.706617 0.049429 0.004082
0.731729 0.049294 0.004227
0.757251 0.049192 0.004364
0.782851 0.049279 0.004364
0.808611 0.049067 0.004516
0.834115 0.049076 0.004516
0.014850 0.066400 0.005616
0.038824 0.065555 0.005959
0.052951 0.064308 0.006266
0.075163 0.059897 0.005445
0.099084 0.058906 0.004123
0.118037 0.062642 0.004455
0.143616 0.063380 0.003693
0.171144 0.063672 0.002384
0.201262 0.063095 0.000260
0.230305 0.063776 0.000000
0.260378 0.064886 0.000000
0.290864 0.065869 0.000000
0.320623 0.066561 0.000000
0.350069 0.067272 0.000000
0.379555 0.067252 0.000000
0.408708 0.067513 0.000000
0.436636 0.068583 0.000000
0.463101 0.069630 0.000000
0.487801 0.070474 0.000000
0.512407 0.071375 0.000614
0.537726 0.072548 0.002045
0.562691 0.073859 0.003204
0.587619 0.074008 0.003784
0.612260 0.074099 0.003929
0.636705 0.074183 0.004082
0.660937 0.074149 0.004227
0.685125 0.074145 0.004227
0.709793 0.074227 0.004364
0.734810 0.074262 0.004364
0.760451 0.074287 0.004516
0.786257 0.074385 0.004661
0.812014 0.074481 0.004661
0.837885 0.074483 0.004807
0.019040 0.088436 0.005440
0.044235 0.088371 0.005476
0.060126 0.087432 0.005610
0.076559 0.083899 0.005982
0.099650 0.079701 0.004433
0.122088 0.080184 0.003598
0.143869 0.082812 0.003370
0.170493 0.083552 0.002810
0.198406 0.084109 0.001846
0.229674 0.083816 0.000000
0.259752 0.084802 0.000000
0.290864 0.085992 0.000000
0.321568 0.086924 0.000000
0.351857 0.087901 0.000000
0.381039 0.088987 0.000000
0.410060 0.090028 0.000000
0.438502 0.091034 0.000000
0.465735 0.091773 0.000000
0.490552 0.092618 0.000000
0.514818 0.093434 0.000000
0.538819 0.094289 0.000000
0.562772 0.095152 0.000000
0.587268 0.096146 0.000443
0.612734 0.097513 0.001747
0.638337 0.098628 0.003060
0.663698 0.099712 0.004227
0.688455 0.100046 0.004516
0.713261 0.100164 0.004661
0.738385 0.100429 0.004661
0.764088 0.100521 0.004807
0.789828 0.100721 0.004807
0.815781 0.100926 0.004952
0.841765 0.101172 0.005097
0.024996 0.111538 0.005208
0.049071 0.112012 0.003952
0.067779 0.110988 0.004861
0.082302 0.110850 0.005201
0.101966 0.104316 0.005106
0.125730 0.100328 0.003046
0.146736 0.101877 0.002779
0.170544 0.103719 0.002607
0.198177 0.104705 0.002129
0.226893 0.105799 0.001830
0.258603 0.105539 0.000000
0.289988 0.106543 0.000000
0.320710 0.107625 0.000000
0.351078 0.108713 0.000000
0.381182 0.109899 0.000000
0.410933 0.110917 0.000000
0.440187 0.111891 0.000000
0.467285 0.113670 0.000000
0.492896 0.115392 0.000000
0.517567 0.116648 0.000000
0.541647 0.117704 0.000000
0.565682 0.118522 0.000000
0.589734 0.119380 0.000000
0.614112 0.120493 0.000000
0.638953 0.121461 0.000000
0.663932 0.122299 0.000000
0.688808 0.123163 0.000000
0.714009 0.124070 0.000588
0.739878 0.124903 0.001602
0.766251 0.125798 0.002762
0.792767 0.126603 0.003929
0.819349 0.127494 0.005097
0.845391 0.127854 0.005386
0.028450 0.136036 0.005149
0.056885 0.135933 0.002915
0.074360 0.136249 0.003954
0.091577 0.135056 0.004111
0.106697 0.135685 0.004411
0.127650 0.126087 0.004123
0.153253 0.122077 0.001639
0.172833 0.124117 0.002145
0.197910 0.125677 0.002314
0.226551 0.126618 0.002004
0.256285 0.127959 0.001709
0.288587 0.128063 0.000000
0.319808 0.129086 0.000000
0.350516 0.130048 0.000000
0.380625 0.131144 0.000000
0.410215 0.132336 0.000000
0.439380 0.133657 0.000000
0.467943 0.134797 0.000000
0.494577 0.136242 0.000000
0.519832 0.137826 0.000000
0.543803 0.139369 0.000000
0.568022 0.140949 0.000000
0.592352 0.142500 0.000000
0.616746 0.144226 0.000000
0.642080 0.146146 0.000000
0.667579 0.146992 0.000000
0.692994 0.147773 0.000000
0.718007 0.148534 0.000000
0.743264 0.149279 0.000000
0.768819 0.150053 0.000000
0.794620 0.150824 0.000000
0.820403 0.151594 0.000000
0.846187 0.152338 0.000000
0.032220 0.162073 0.005220
0.061298 0.161875 0.001786
0.081572 0.162497 0.002266
0.099733 0.161877 0.004106
0.115902 0.160812 0.003778
0.132767 0.161228 0.003848
0.154763 0.148719 0.002808
0.181373 0.144400 0.000293
0.199087 0.147295 0.002074
0.226284 0.148089 0.001966
0.256056 0.149290 0.001682
0.286619 0.150737 0.001409
0.318398 0.151139 0.000000
0.349160 0.152297 0.000000
0.379841 0.153252 0.000000
0.409623 0.154254 0.000000
0.438837 0.155547 0.000000
0.467408 0.156845 0.000000
0.494685 0.158298 0.000000
0.520789 0.159325 0.000000
0.545338 0.160932 0.000000
0.569862 0.162428 0.000000
0.594901 0.163929 0.000000
0.619320 0.165791 0.000000
0.644626 0.167530 0.000000
0.670494 0.169329 0.000000
0.696893 0.171163 0.000000
0.721928 0.173078 0.000000
0.748084 0.174609 0.000000
0.773691 0.175748 0.000000
0.799509 0.176473 0.000000
0.825346 0.177195 0.000000
0.851087 0.177981 0.000000
0.035847 0.188177 0.005914
0.063585 0.187732 0.001662
0.094486 0.187524 0.001900
0.108417 0.188257 0.003056
0.125747 0.186955 0.003368
0.140677 0.187290 0.003600
0.160589 0.186071 0.003636
0.182972 0.172262 0.001715
0.209933 0.167515 0.000000
0.226650 0.171412 0.002183
0.255581 0.171301 0.001891
0.286187 0.172764 0.001384
0.316724 0.174253 0.001146
0.347847 0.174912 0.000000
0.378599 0.176130 0.000000
0.408595 0.177202 0.000000
0.438113 0.178186 0.000000
0.466709 0.179553 0.000000
0.494618 0.181062 0.000000
0.520762 0.182444 0.000000
0.545850 0.183485 0.000000
0.570444 0.184704 0.000000
0.595583 0.186171 0.000000
0.620883 0.187804 0.000000
0.646738 0.189538 0.000000
0.673586 0.191139 0.000000
0.699914 0.193156 0.000000
0.726039 0.194929 0.000000
0.752307 0.196520 0.000000
0.778111 0.198032 0.000000
0.803947 0.199766 0.000000
0.830170 0.201380 0.000000
0.855989 0.203284 0.000000
0.039494 0.216157 0.006717
0.066449 0.215274 0.001573
0.100769 0.214928 0.001796
0.117198 0.215717 0.002466
0.134298 0.215554 0.004256
0.151780 0.214177 0.003641
0.166562 0.215015 0.003648
0.190170 0.211969 0.003668
0.211851 0.196432 0.000923
0.239690 0.191684 0.000000
0.256510 0.196227 0.002255
0.285627 0.195490 0.001580
0.316302 0.196946 0.001146
0.346589 0.198631 0.000885
0.377129 0.199544 0.000000
0.407300 0.200637 0.000000
0.436957 0.201905 0.000000
0.465886 0.203077 0.000000
0.494075 0.204590 0.000000
0.520708 0.206046 0.000000
0.545770 0.207308 0.000000
0.570647 0.208536 0.000000
0.595965 0.209487 0.000000
0.621298 0.210910 0.000000
0.647245 0.212471 0.000000
0.674061 0.214173 0.000000
0.701252 0.216017 0.000000
0.728800 0.217846 0.000000
0.755829 0.219382 0.000000
0.782531 0.220702 0.000000
0.808535 0.222310 0.000000
0.834156 0.223938 0.000000
0.860423 0.225619 0.000000
0.043526 0.244833 0.006485
0.070698 0.243700 0.002115
0.106825 0.243227 0.001694
0.130618 0.242931 0.002128
0.143920 0.244052 0.003415
0.161401 0.244166 0.005756
0.177990 0.242628 0.003887
0.193394 0.243670 0.003897
0.220418 0.237283 0.003261
0.241785 0.220984 0.000000
0.270616 0.216481 0.000000
0.287198 0.221612 0.001934
0.315944 0.220505 0.001476
0.346278 0.221619 0.001058
0.376078 0.223346 0.000687
0.405807 0.224819 0.000000
0.435634 0.225898 0.000000
0.464679 0.227385 0.000000
0.493127 0.228667 0.000000
0.520344 0.229943 0.000000
0.545662 0.231404 0.000000
0.570674 0.232651 0.000000
0.595828 0.233892 0.000000
0.621382 0.235137 0.000000
0.647287 0.236643 0.000000
0.674305 0.237826 0.000000
0.701765 0.239353 0.000000
0.729520 0.241229 0.000000
0.757411 0.242978 0.000000
0.784215 0.244362 0.000000
0.810475 0.245944 0.000000
0.836972 0.247410 0.000000
0.863443 0.248994 0.000000
0.047610 0.274428 0.006255
0.074888 0.272593 0.001792
0.112116 0.272121 0.001396
0.141488 0.271932 0.001792
0.155869 0.272451 0.002385
0.171663 0.273330 0.004183
0.189631 0.271989 0.004666
0.204526 0.271709 0.003669
0.223935 0.272833 0.003489
0.251143 0.261556 0.002255
0.271372 0.247068 0.000000
0.301598 0.241990 0.000000
0.317699 0.247675 0.001459
0.345582 0.245307 0.000852
0.375701 0.246904 0.000825
0.405146 0.248691 0.000629
0.434226 0.250555 0.000303
0.463486 0.251640 0.000000
0.491866 0.253425 0.000000
0.519252 0.254845 0.000000
0.545257 0.256154 0.000000
0.570417 0.257105 0.000000
0.595733 0.258315 0.000000
0.621036 0.259726 0.000000
0.647175 0.261187 0.000000
0.673672 0.262819 0.000000
0.701398 0.263970 0.000000
0.729505 0.265590 0.000000
0.757859 0.266842 0.000000
0.785283 0.268328 0.000000
0.811829 0.269807 0.000000
0.838081 0.271367 0.000000
0.864842 0.272910 0.000000
0.051420 0.304911 0.005987
0.079087 0.302578 0.001679
0.116533 0.302036 0.001308
0.150334 0.301835 0.001493
0.168954 0.301536 0.001887
0.181664 0.303134 0.003023
0.199785 0.303684 0.005290
0.217295 0.300977 0.003862
0.233146 0.301894 0.003472
0.256159 0.302416 0.003291
0.281653 0.287990 0.001549
0.300853 0.274862 0.000000
0.331050 0.269710 0.000000
0.348240 0.274767 0.001202
0.375322 0.271911 0.000800
0.404499 0.272611 0.000619
0.433645 0.274582 0.000445
0.462116 0.276901 0.000443
0.490579 0.278573 0.000000
0.517999 0.280028 0.000000
0.544476 0.281472 0.000000
0.569686 0.282762 0.000000
0.594942 0.283759 0.000000
0.620703 0.284827 0.000000
0.646625 0.286332 0.000000
0.673413 0.287804 0.000000
0.701080 0.289086 0.000000
0.728947 0.290812 0.000000
0.757173 0.292423 0.000000
0.785493 0.293560 0.000000
0.812521 0.294711 0.000000
0.838920 0.296273 0.000000
0.865943 0.297223 0.000000
0.054482 0.335542 0.005698
0.083764 0.333040 0.001571
0.121073 0.332433 0.001051
0.157885 0.332237 0.001398
0.180410 0.331994 0.001574
0.196447 0.331557 0.001948
0.210115 0.334041 0.003896
0.228381 0.334914 0.006388
0.244891 0.331423 0.003449
0.263117 0.332614 0.003271
0.288952 0.331936 0.002918
0.310779 0.315462 0.001278
0.330309 0.302819 0.000000
0.360137 0.297923 0.000000
0.378149 0.302252 0.000969
0.404852 0.299528 0.000608
0.432758 0.298841 0.000443
0.461690 0.301069 0.000443
0.489585 0.303586 0.000443
0.516611 0.305445 0.000000
0.543318 0.307135 0.000000
0.568590 0.308397 0.000000
0.593797 0.309514 0.000000
0.619583 0.310785 0.000000
0.645682 0.312081 0.000000
0.672363 0.313375 0.000000
0.700289 0.314412 0.000000
0.728418 0.315963 0.000000
0.756904 0.317686 0.000000
0.785297 0.319026 0.000000
0.812235 0.320492 0.000000
0.839010 0.321756 0.000000
0.866017 0.322955 0.000000
0.059386 0.366015 0.005271
0.087996 0.362957 0.001143
0.125727 0.362496 0.000981
0.165517 0.362341 0.001305
0.191893 0.362122 0.001470
0.207972 0.361868 0.001634
0.221577 0.362989 0.002292
0.238768 0.364818 0.004879
0.257819 0.366562 0.007926
0.273027 0.361935 0.003247
0.295503 0.363229 0.003077
0.321196 0.360276 0.002745
0.340017 0.342638 0.001202
0.359603 0.330818 0.000000
0.388915 0.325994 0.000000
0.408057 0.328857 0.000300
0.434048 0.327319 0.000588
0.460989 0.326070 0.000588
0.488907 0.327943 0.000443
0.515948 0.330110 0.000443
0.541917 0.332217 0.000000
0.567413 0.333506 0.000000
0.592625 0.335092 0.000000
0.617992 0.336302 0.000000
0.644260 0.337733 0.000000
0.670930 0.339110 0.000000
0.698620 0.340178 0.000000
0.727303 0.341369 0.000000
0.755904 0.342701 0.000000
0.784606 0.344285 0.000000
0.811904 0.345534 0.000000
0.838396 0.347229 0.000000
0.865392 0.348304 0.000000
0.063885 0.395917 0.004830
0.093302 0.392397 0.001066
0.131756 0.392010 0.000915
0.172069 0.391813 0.001066
0.202576 0.391924 0.001370
0.219231 0.391540 0.001548
0.235620 0.391230 0.001860
0.248992 0.394520 0.003719
0.268633 0.396415 0.006546
0.285993 0.391201 0.003533
0.303452 0.392360 0.003379
0.330105 0.393581 0.002890
0.352584 0.388192 0.002739
0.368836 0.369214 0.001129
0.388729 0.358042 0.000000
0.417453 0.353291 0.000000
0.436901 0.355785 0.000000
0.462292 0.354839 0.000588
0.488256 0.352977 0.000443
0.515288 0.354402 0.000443
0.541563 0.356535 0.000443
0.566458 0.358357 0.000443
0.591206 0.359760 0.000000
0.616816 0.360961 0.000000
0.642522 0.362555 0.000000
0.669339 0.363787 0.000000
0.696678 0.365327 0.000000
0.725261 0.366604 0.000000
0.753905 0.368098 0.000000
0.783208 0.369579 0.000000
0.811077 0.370475 0.000000
0.837751 0.371751 0.000000
0.864455 0.372996 0.000000
0.069724 0.425434 0.004364
0.099241 0.421340 0.001022
0.137764 0.421167 0.001022
0.178140 0.421009 0.001022
0.211330 0.421131 0.001312
0.230459 0.420724 0.001457
0.247035 0.420518 0.001892
0.261318 0.421862 0.002493
0.278749 0.425224 0.005300
0.299798 0.428441 0.008789
0.313823 0.421175 0.003617
0.335193 0.422121 0.003167
0.362562 0.422492 0.003017
0.382907 0.415501 0.002709
0.397458 0.395470 0.001058
0.417438 0.384675 0.000000
0.445827 0.379959 0.000000
0.464649 0.383086 0.000145
0.489734 0.381881 0.000588
0.514696 0.380012 0.000588
0.540957 0.380971 0.000443
0.565876 0.382190 0.000443
0.590603 0.383648 0.000588
0.615460 0.385443 0.000588
0.640862 0.386602 0.000000
0.667536 0.387953 0.000000
0.694793 0.389603 0.000000
0.722912 0.391184 0.000000
0.751755 0.392457 0.000000
0.780983 0.393741 0.000000
0.808851 0.395304 0.000000
0.836178 0.396285 0.000000
0.862610 0.397460 0.000000
0.075360 0.453173 0.003784
0.106229 0.449910 0.001167
0.144209 0.449726 0.001167
0.184441 0.449678 0.001312
0.219395 0.449554 0.001457
0.241627 0.449393 0.001602
0.258341 0.449441 0.002045
0.275024 0.449206 0.002479
0.288199 0.453089 0.004364
0.310170 0.456833 0.008263
0.329185 0.455206 0.008263
0.341912 0.450469 0.003784
0.367243 0.451357 0.003349
0.393618 0.450483 0.003204
0.412355 0.442199 0.002762
0.425352 0.421068 0.000878
0.445744 0.410953 0.000000
0.473581 0.406040 0.000000
0.492051 0.410917 0.001022
0.516414 0.408569 0.000725
0.540567 0.406491 0.000588
0.565064 0.406597 0.000443
0.589706 0.407144 0.000443
0.614602 0.408256 0.000443
0.639895 0.409875 0.000443
0.666047 0.411968 0.000588
0.692750 0.413094 0.000000
0.720753 0.414512 0.000000
0.749173 0.416063 0.000000
0.778336 0.417739 0.000000
0.806504 0.418873 0.000000
0.833766 0.420170 0.000000
0.860720 0.421190 0.000000
0.080652 0.481538 0.003929
0.111746 0.478268 0.001312
0.150023 0.478156 0.001312
0.190482 0.478099 0.001457
0.227284 0.478217 0.001747
0.252937 0.478127 0.002045
0.269179 0.477826 0.002190
0.285969 0.477764 0.002617
0.300120 0.479722 0.003639
0.319303 0.484080 0.007279
0.340182 0.487347 0.010719
0.353913 0.479289 0.005097
0.372424 0.479361 0.004227
0.399531 0.480546 0.004082
0.424142 0.478309 0.003639
0.441497 0.469048 0.003349
0.453028 0.446557 0.000725
0.473581 0.437131 0.000000
0.501028 0.432265 0.000000
0.518459 0.436355 0.000290
0.542643 0.435526 0.001022
0.565711 0.433509 0.000878
0.589062 0.432012 0.000588
0.613906 0.432803 0.000725
0.639141 0.433281 0.000588
0.664991 0.434561 0.000588
0.691635 0.436289 0.000588
0.718782 0.438298 0.000588
0.746935 0.439427 0.000000
0.776247 0.440799 0.000000
0.804007 0.442290 0.000000
0.831698 0.443401 0.000000
0.858518 0.444980 0.000000
0.085564 0.509245 0.004082
0.118104 0.506091 0.001602
0.155892 0.506105 0.001602
0.196049 0.506050 0.001747
0.235257 0.506129 0.002045
0.263481 0.506115 0.002190
0.280011 0.505900 0.002479
0.296952 0.505980 0.002914
0.313886 0.505805 0.003204
0.327690 0.510768 0.006264
0.349069 0.514271 0.009903
0.369034 0.516951 0.012825
0.379459 0.506497 0.004661
0.403172 0.507444 0.004516
0.430585 0.508532 0.004364
0.453882 0.505665 0.004227
0.469789 0.495245 0.003929
0.480127 0.471804 0.000588
0.500866 0.463042 0.000000
0.527541 0.458498 0.000000
0.545931 0.460916 0.000000
0.567819 0.462141 0.001312
0.590767 0.460197 0.001167
0.613881 0.458300 0.001022
0.638566 0.457766 0.001022
0.664123 0.457794 0.000878
0.690620 0.458863 0.000878
0.717706 0.460463 0.000725
0.745413 0.462177 0.000588
0.773774 0.464191 0.000725
0.801465 0.465236 0.000000
0.829226 0.466472 0.000000
0.856316 0.467516 0.000000
0.091079 0.536869 0.004364
0.122767 0.533835 0.001892
0.160956 0.533725 0.001892
0.201630 0.533971 0.002190
0.242202 0.533848 0.002190
0.273162 0.534205 0.002617
0.290891 0.534028 0.003060
0.307899 0.534010 0.003494
0.324736 0.533867 0.003784
0.339204 0.535893 0.005097
0.356888 0.540354 0.008659
0.377049 0.543391 0.011810
0.396279 0.544146 0.013313
0.407189 0.534460 0.005241
0.433971 0.535327 0.004952
0.461017 0.536280 0.004807
0.482445 0.532013 0.004661
0.497129 0.519479 0.004364
0.507247 0.496893 0.000588
0.527757 0.488783 0.000000
0.553461 0.484927 0.000000
0.575613 0.483636 0.000000
0.593403 0.488802 0.002045
0.616132 0.486586 0.001602
0.639479 0.484411 0.001312
0.663479 0.482254 0.001167
0.689278 0.481869 0.001022
0.716235 0.482332 0.000878
0.744006 0.484200 0.000878
0.772045 0.485841 0.000725
0.799890 0.487366 0.000588
0.827097 0.488936 0.000725
0.853789 0.490446 0.000878
0.097691 0.562891 0.004516
0.130448 0.560621 0.002762
0.168324 0.560497 0.002617
0.209168 0.560907 0.003060
0.250904 0.560853 0.003204
0.282828 0.560965 0.003349
0.302140 0.561061 0.003929
0.318895 0.560948 0.004227
0.335758 0.560812 0.004516
0.351948 0.560377 0.004661
0.364110 0.565073 0.007279
0.385342 0.568781 0.011055
0.405432 0.571883 0.014244
0.421968 0.569644 0.013123
0.437559 0.561455 0.005829
0.464467 0.562504 0.005684
0.489417 0.561835 0.005531
0.509194 0.556351 0.005386
0.522353 0.537549 0.003204
0.532920 0.520839 0.000290
0.553704 0.513473 0.000000
0.579022 0.509918 0.000000
0.604746 0.505942 0.000000
0.620413 0.509367 0.000000
0.642882 0.512600 0.002914
0.666521 0.510102 0.002479
0.690925 0.507685 0.002190
0.716140 0.505733 0.001602
0.743682 0.506396 0.001747
0.771813 0.508022 0.001602
0.799724 0.509898 0.001892
0.827000 0.511112 0.001602
0.853698 0.512738 0.001747
0.104952 0.588420 0.004661
0.138516 0.587281 0.003639
0.177017 0.587199 0.003784
0.217742 0.587593 0.004082
0.259660 0.587552 0.004227
0.292864 0.587573 0.004227
0.313333 0.587319 0.004516
0.329754 0.587158 0.004661
0.346583 0.586958 0.004952
0.362722 0.586793 0.005241
0.376435 0.588768 0.006554
0.393173 0.593433 0.010139
0.414109 0.597054 0.013786
0.433392 0.599407 0.017436
0.445842 0.590438 0.009300
0.467889 0.588213 0.006554
0.494376 0.589272 0.006401
0.517058 0.586898 0.006401
0.535673 0.580329 0.006264
0.548495 0.561329 0.003494
0.558729 0.545110 0.000588
0.578806 0.538115 0.000000
0.603928 0.534896 0.000000
0.630084 0.531169 0.000000
0.650850 0.531120 0.000000
0.670158 0.537308 0.003639
0.694982 0.535779 0.004364
0.720026 0.533317 0.004227
0.745363 0.530910 0.003929
0.772990 0.531120 0.003784
0.800176 0.532271 0.003349
0.827413 0.533350 0.002914
0.854063 0.534898 0.003060
0.111878 0.614054 0.004807
0.147309 0.613470 0.004364
0.186092 0.613414 0.004364
0.227299 0.613639 0.004661
0.268532 0.613517 0.004516
0.302361 0.613563 0.004807
0.324251 0.613262 0.004952
0.340537 0.613187 0.005241
0.357320 0.613107 0.005684
0.373113 0.612774 0.005829
0.389268 0.612718 0.006119
0.400964 0.617752 0.009041
0.422525 0.621707 0.013024
0.442464 0.624632 0.016702
0.459518 0.623719 0.016498
0.471618 0.613975 0.007568
0.497791 0.615017 0.007431
0.522862 0.615006 0.007279
0.544193 0.611463 0.007134
0.561910 0.604712 0.007134
0.574322 0.585674 0.004082
0.584688 0.570278 0.001457
0.603928 0.562411 0.000000
0.629365 0.559320 0.000000
0.655877 0.555764 0.000000
0.682175 0.552510 0.000000
0.697627 0.555860 0.000000
0.723223 0.560450 0.005531
0.748695 0.557874 0.005386
0.774443 0.555478 0.005097
0.801381 0.555223 0.005097
0.828415 0.556294 0.004952
0.855115 0.557764 0.005097
0.120262 0.639690 0.004952
0.157306 0.639648 0.004952
0.195455 0.639634 0.004952
0.236837 0.639849 0.005241
0.277775 0.639742 0.005097
0.312785 0.640011 0.005684
0.335896 0.639713 0.005684
0.351520 0.639443 0.005829
0.367707 0.639229 0.006119
0.383964 0.639184 0.006554
0.400405 0.639105 0.006988
0.413510 0.641362 0.008263
0.431009 0.646374 0.012230
0.451963 0.650059 0.016260
0.471058 0.652405 0.020535
0.483365 0.646268 0.013786
0.501525 0.641119 0.008659
0.527493 0.642176 0.008522
0.550254 0.640228 0.008392
0.571332 0.637149 0.008263
0.588396 0.630554 0.008263
0.600523 0.610872 0.005097
0.610888 0.595391 0.002479
0.629420 0.586694 0.000000
0.655229 0.583670 0.000000
0.682305 0.580168 0.000000
0.710488 0.576248 0.000000
0.729990 0.577309 0.000000
0.751684 0.583952 0.005684
0.777907 0.582480 0.006698
0.803648 0.580305 0.006554
0.829512 0.579365 0.006554
0.855884 0.580648 0.006554
0.130378 0.666329 0.005531
0.168225 0.666329 0.005684
0.206189 0.666400 0.005684
0.246957 0.666434 0.005829
0.287584 0.666519 0.005829
0.322607 0.666574 0.006119
0.347290 0.666477 0.006264
0.363096 0.666109 0.006554
0.378708 0.665858 0.006698
0.395056 0.665939 0.007134
0.411016 0.665575 0.007279
0.426958 0.665812 0.007713
0.440002 0.671569 0.011490
0.461507 0.675751 0.015739
0.481324 0.678598 0.020359
0.498425 0.678526 0.021747
0.508494 0.668299 0.010490
0.531538 0.669178 0.010261
0.556800 0.670058 0.010261
0.578055 0.667191 0.010261
0.599144 0.664892 0.010261
0.616071 0.658044 0.010261
0.629186 0.640949 0.008659
0.638336 0.620742 0.004082
0.656217 0.611029 0.000145
0.682233 0.607962 0.000000
0.709681 0.604561 0.000000
0.738309 0.600697 0.000000
0.763873 0.598632 0.000000
0.779705 0.601725 0.000000
0.806892 0.607680 0.007995
0.832391 0.605323 0.007843
0.857322 0.604260 0.007843
0.140672 0.693595 0.006264
0.178387 0.693573 0.006401
0.216172 0.693508 0.006264
0.257079 0.693698 0.006554
0.297557 0.693771 0.006698
0.332753 0.693772 0.006988
0.358370 0.693564 0.006988
0.374460 0.693282 0.007134
0.390411 0.693245 0.007431
0.406793 0.693167 0.007843
0.422837 0.692776 0.008125
0.439501 0.693118 0.008789
0.452391 0.696456 0.010719
0.471502 0.701870 0.015473
0.491971 0.705224 0.020260
0.511236 0.707921 0.024801
0.523401 0.702299 0.018299
0.537489 0.697190 0.012436
0.561084 0.698154 0.012329
0.584730 0.697797 0.012230
0.605897 0.695580 0.012329
0.627186 0.693369 0.012436
0.643868 0.686315 0.012436
0.657576 0.671364 0.011704
0.666740 0.646425 0.006119
