components/images/luts/Studio Skin Tone Shaper.cube
# Created by: Lutify.me
# Copyright: (c) Copyright Lutify.me 2016, G.T. Colord LTD
# Website: https://lutify.me
# Contact: help@lutify.me
LUT_3D_SIZE 5
0.007636 0.004373 0.007492
0.201456 0.007091 0.001529
0.435014 0.009243 0.002613
0.630395 0.008231 0.003060
0.826731 0.009109 0.004227
0.035847 0.188177 0.005914
0.209933 0.167515 0.000000
0.438113 0.178186 0.000000
0.646738 0.189538 0.000000
0.855989 0.203284 0.000000
0.069724 0.425434 0.004364
0.278749 0.425224 0.005300
0.445827 0.379959 0.000000
0.640862 0.386602 0.000000
0.862610 0.397460 0.000000
0.120262 0.639690 0.004952
0.367707 0.639229 0.006119
0.501525 0.641119 0.008659
0.655229 0.583670 0.000000
0.855884 0.580648 0.006554
0.213225 0.866293 0.014061
0.479252 0.866850 0.016464
0.607528 0.879917 0.030800
0.730134 0.875147 0.025802
0.897218 0.789770 0.009170
0.007864 0.009613 0.191676
0.192296 0.006851 0.154856
0.447951 0.006988 0.158030
0.644192 0.006988 0.171639
0.839532 0.009544 0.185201
0.005110 0.174726 0.169485
0.224173 0.216147 0.206952
0.472178 0.223063 0.206776
0.682740 0.226772 0.206798
0.894855 0.224816 0.204419
0.014244 0.442548 0.249974
0.279195 0.473504 0.220790
0.479014 0.449965 0.213499
0.691525 0.450836 0.206075
0.922360 0.445766 0.175488
0.038090 0.682468 0.274639
0.319690 0.694335 0.232274
0.541734 0.692056 0.229875
0.708128 0.651704 0.228401
0.918418 0.637616 0.208268
0.057300 0.908886 0.228541
0.399558 0.922024 0.243354
0.637599 0.920961 0.225769
0.764345 0.914144 0.245272
0.919108 0.871643 0.249443
0.011526 0.016136 0.446410
0.198829 0.006435 0.431831
0.405941 0.005188 0.339755
0.623452 0.003060 0.317118
0.823893 0.004661 0.336370
0.000000 0.185202 0.428483
0.225629 0.229369 0.492070
0.477015 0.216338 0.429515
0.703049 0.212101 0.418691
0.909218 0.215734 0.434847
0.006119 0.396538 0.402811
0.231629 0.453754 0.455923
0.507753 0.509767 0.508822
0.718260 0.512470 0.507406
0.934102 0.508613 0.501127
0.036265 0.665626 0.492169
0.248619 0.692751 0.533352
0.552451 0.729900 0.521479
0.722208 0.713817 0.514411
0.933832 0.708859 0.503826
0.062529 0.910085 0.564933
0.268944 0.935575 0.508561
0.611187 0.955753 0.519375
0.799484 0.952117 0.507373
0.941551 0.926507 0.515414
0.013956 0.024505 0.664371
0.205148 0.010139 0.676772
0.446652 0.017476 0.594677
0.604289 0.009610 0.524486
0.798267 0.004227 0.468074
0.000000 0.208447 0.664835
0.222733 0.235333 0.722029
0.479274 0.219907 0.705957
0.688953 0.217088 0.638152
0.894491 0.200186 0.575662
0.000000 0.403594 0.631139
0.209963 0.474275 0.709929
0.507604 0.515426 0.746096
0.714964 0.506376 0.702199
0.926398 0.500080 0.691361
0.034137 0.650476 0.655113
0.251684 0.676384 0.680922
0.512279 0.712243 0.716065
0.741303 0.751208 0.752950
0.955829 0.756223 0.753272
0.072327 0.876595 0.687290
0.281398 0.896659 0.722745
0.511411 0.938305 0.753345
0.775156 0.980807 0.760462
0.962863 0.970564 0.758079
0.017955 0.036789 0.868961
0.216279 0.023598 0.896568
0.448779 0.032853 0.830891
0.663506 0.032395 0.795083
0.810361 0.026699 0.724761
0.000000 0.219316 0.876439
0.219501 0.234171 0.939099
0.470716 0.216151 0.940599
0.693089 0.223377 0.879516
0.889193 0.217387 0.834974
0.000000 0.416903 0.850615
0.199252 0.465557 0.942155
0.500536 0.504788 0.969953
0.706092 0.500805 0.942766
0.924033 0.493994 0.899182
0.034286 0.654487 0.860696
0.238990 0.674830 0.891399
0.493462 0.704398 0.941947
0.736680 0.754091 0.983677
0.958478 0.747919 0.949955
0.074186 0.874841 0.870758
0.284585 0.894328 0.893858
0.516378 0.924358 0.924180
0.740143 0.962386 0.959488
0.976444 0.995169 0.990891
