components/images/luts/Studio Skin Tone Shaper.cube
# Created by: Lutify.me
# Copyright: (c) Copyright Lutify.me 2016, G.T. Colord LTD
# Website: https://lutify.me
# Contact: help@lutify.me
LUT_3D_SIZE 9
0.007636 0.004373 0.007492
0.092828 0.007455 0.005595
0.201456 0.007091 0.001529
0.318644 0.008970 0.002270
0.435014 0.009243 0.002613
0.535689 0.008180 0.002551
0.630395 0.008231 0.003060
0.727469 0.008579 0.003929
0.826731 0.009109 0.004227
0.019040 0.088436 0.005440
0.099650 0.079701 0.004433
0.198406 0.084109 0.001846
0.321568 0.086924 0.000000
0.438502 0.091034 0.000000
0.538819 0.094289 0.000000
0.638337 0.098628 0.003060
0.738385 0.100429 0.004661
0.841765 0.101172 0.005097
0.035847 0.188177 0.005914
0.125747 0.186955 0.003368
0.209933 0.167515 0.000000
0.316724 0.174253 0.001146
0.438113 0.178186 0.000000
0.545850 0.183485 0.000000
0.646738 0.189538 0.000000
0.752307 0.196520 0.000000
0.855989 0.203284 0.000000
0.051420 0.304911 0.005987
0.168954 0.301536 0.001887
0.233146 0.301894 0.003472
0.331050 0.269710 0.000000
0.433645 0.274582 0.000445
0.544476 0.281472 0.000000
0.646625 0.286332 0.000000
0.757173 0.292423 0.000000
0.865943 0.297223 0.000000
0.069724 0.425434 0.004364
0.211330 0.421131 0.001312
0.278749 0.425224 0.005300
0.362562 0.422492 0.003017
0.445827 0.379959 0.000000
0.540957 0.380971 0.000443
0.640862 0.386602 0.000000
0.751755 0.392457 0.000000
0.862610 0.397460 0.000000
0.091079 0.536869 0.004364
0.242202 0.533848 0.002190
0.324736 0.533867 0.003784
0.396279 0.544146 0.013313
0.482445 0.532013 0.004661
0.553461 0.484927 0.000000
0.639479 0.484411 0.001312
0.744006 0.484200 0.000878
0.853789 0.490446 0.000878
0.120262 0.639690 0.004952
0.277775 0.639742 0.005097
0.367707 0.639229 0.006119
0.431009 0.646374 0.012230
0.501525 0.641119 0.008659
0.588396 0.630554 0.008263
0.655229 0.583670 0.000000
0.751684 0.583952 0.005684
0.855884 0.580648 0.006554
0.162670 0.750019 0.007713
0.315169 0.750037 0.008125
0.416917 0.750415 0.009666
0.482320 0.750780 0.012016
0.555656 0.768300 0.028047
0.617279 0.757171 0.016401
0.701491 0.745013 0.016816
0.769466 0.682223 0.000290
0.881997 0.667412 0.000000
0.213225 0.866293 0.014061
0.367465 0.866599 0.015137
0.479252 0.866850 0.016464
0.542836 0.867291 0.019165
0.607528 0.879917 0.030800
0.665282 0.877285 0.029953
0.730134 0.875147 0.025802
0.817392 0.860262 0.026428
0.897218 0.789770 0.009170
0.007625 0.008125 0.089687
0.093758 0.006958 0.078862
0.203974 0.009275 0.077671
0.323795 0.009279 0.080620
0.443025 0.008919 0.079001
0.544241 0.007995 0.078415
0.638436 0.007843 0.079195
0.735667 0.008392 0.080224
0.834955 0.008919 0.081767
0.008254 0.085273 0.084911
0.101711 0.096156 0.090816
0.207329 0.098279 0.088781
0.333031 0.098008 0.084310
0.456985 0.096306 0.079818
0.561575 0.097439 0.080442
0.662791 0.098886 0.081912
0.764898 0.097277 0.080866
0.870432 0.095031 0.079318
0.008275 0.188009 0.093495
0.121544 0.201322 0.087855
0.211070 0.191122 0.089126
0.337121 0.193974 0.084751
0.465134 0.192883 0.068564
0.573418 0.196988 0.063623
0.676472 0.199588 0.061103
0.784213 0.198245 0.057963
0.889565 0.197259 0.054268
0.010719 0.313768 0.088969
0.145258 0.325956 0.091427
0.251102 0.322710 0.088563
0.356099 0.292301 0.081650
0.461587 0.302288 0.082637
0.576693 0.301489 0.061819
0.682635 0.304388 0.059094
0.796149 0.307354 0.056207
0.905771 0.308666 0.052604
0.018981 0.444732 0.082049
0.164831 0.454193 0.095521
0.298341 0.452477 0.083996
0.376968 0.450380 0.090996
0.479184 0.407807 0.074548
0.573623 0.414809 0.082625
0.677062 0.418416 0.079919
0.792939 0.414844 0.054415
0.904477 0.415224 0.051396
0.029204 0.559092 0.080743
0.184615 0.570685 0.099184
0.346978 0.568511 0.083677
0.411612 0.567810 0.096387
0.505758 0.566937 0.094470
0.592537 0.516003 0.066741
0.675026 0.519209 0.087292
0.785518 0.518449 0.082384
0.896245 0.520328 0.080343
0.044632 0.666809 0.079390
0.214278 0.677609 0.099089
0.388691 0.675878 0.085857
0.455133 0.673741 0.091834
0.524719 0.670954 0.101037
0.615590 0.668617 0.101747
0.701781 0.618399 0.080155
0.807602 0.599732 0.051946
0.893055 0.613573 0.089907
0.072985 0.781106 0.080719
0.250650 0.789683 0.102024
0.426846 0.787975 0.089197
0.509901 0.785130 0.094251
0.571857 0.785825 0.115502
0.633693 0.783432 0.109006
0.725251 0.779192 0.110262
0.817954 0.722031 0.093921
0.927758 0.698321 0.053655
0.116582 0.894385 0.086703
0.301475 0.903121 0.102830
0.477976 0.901587 0.095643
0.569529 0.899455 0.100513
0.624702 0.900698 0.114864
0.686281 0.898943 0.133823
0.745108 0.897955 0.119384
0.836932 0.889619 0.121389
0.929050 0.833417 0.113226
0.007864 0.009613 0.191676
0.091928 0.006317 0.186917
0.192296 0.006851 0.154856
0.322688 0.007568 0.151671
0.447951 0.006988 0.158030
0.549390 0.005531 0.163991
0.644192 0.006988 0.171639
0.741186 0.009041 0.179784
0.839532 0.009544 0.185201
0.001378 0.086356 0.186134
0.102615 0.100403 0.200626
0.209278 0.095483 0.175460
0.342436 0.096668 0.179925
0.461805 0.102733 0.190072
0.565939 0.102067 0.190305
0.667844 0.102734 0.193016
0.770276 0.101134 0.192047
0.875878 0.098772 0.190610
0.005110 0.174726 0.169485
0.103993 0.196019 0.190546
0.224173 0.216147 0.206952
0.350783 0.220312 0.206958
0.472178 0.223063 0.206776
0.579960 0.225663 0.207043
0.682740 0.226772 0.206798
0.789463 0.226361 0.205900
0.894855 0.224816 0.204419
0.008131 0.295701 0.208586
0.104086 0.326618 0.222123
0.256201 0.345229 0.211638
0.354890 0.331278 0.209755
0.476672 0.334859 0.205864
0.589193 0.340554 0.202623
0.695512 0.344618 0.200748
0.804294 0.353828 0.208305
0.910416 0.352910 0.206027
0.014244 0.442548 0.249974
0.107099 0.463639 0.236036
0.279195 0.473504 0.220790
0.391658 0.469865 0.210943
0.479014 0.449965 0.213499
0.587481 0.446835 0.207720
0.691525 0.450836 0.206075
0.807831 0.450412 0.194954
0.922360 0.445766 0.175488
0.023792 0.571728 0.274664
0.117739 0.578541 0.234858
0.298177 0.587639 0.227066
0.421711 0.587218 0.205976
0.509314 0.583135 0.219171
0.595314 0.554556 0.219780
0.706765 0.536138 0.202929
0.799491 0.549097 0.208910
0.909379 0.550841 0.206970
0.038090 0.682468 0.274639
0.132039 0.685909 0.216440
0.319690 0.694335 0.232274
0.474073 0.691906 0.209463
0.541734 0.692056 0.229875
0.624447 0.690180 0.227586
0.708128 0.651704 0.228401
0.827729 0.629569 0.203716
0.918418 0.637616 0.208268
0.052127 0.795630 0.266926
0.144445 0.799212 0.199762
0.351626 0.807429 0.238446
0.524587 0.805597 0.213321
0.587984 0.805466 0.227301
0.655013 0.799994 0.234886
0.734070 0.801295 0.237206
0.819047 0.757413 0.239480
0.940625 0.733918 0.219021
0.057300 0.908886 0.228541
0.192416 0.914381 0.202991
0.399558 0.922024 0.243354
0.571252 0.919200 0.220188
0.637599 0.920961 0.225769
0.701574 0.918355 0.246951
0.764345 0.914144 0.245272
0.846454 0.911693 0.248028
0.919108 0.871643 0.249443
0.009087 0.012726 0.319029
0.093786 0.008125 0.325989
0.201633 0.008006 0.289773
0.299988 0.006706 0.246453
0.426663 0.005829 0.230705
0.538411 0.004661 0.239414
0.637708 0.004364 0.246442
0.736099 0.004661 0.252646
0.836559 0.004952 0.261020
0.000000 0.089322 0.318210
0.100852 0.102021 0.338598
0.209598 0.095270 0.334838
0.335576 0.092216 0.280054
0.476235 0.086595 0.266068
0.588473 0.086856 0.273286
0.691198 0.086752 0.278852
0.790723 0.087404 0.285589
0.889569 0.093536 0.298436
0.000000 0.176132 0.290450
0.091593 0.202057 0.332409
0.226702 0.224572 0.350673
0.352732 0.216507 0.313368
0.483515 0.218379 0.319009
0.591139 0.227282 0.330664
0.688973 0.231517 0.339501
0.798600 0.224205 0.327985
0.907021 0.216280 0.314993
0.001180 0.275120 0.275508
0.103212 0.307156 0.304680
0.227911 0.334932 0.331890
0.371859 0.365852 0.359698
0.490975 0.370048 0.360370
0.599225 0.373497 0.361195
0.702497 0.374550 0.361015
0.812213 0.374352 0.359980
0.917282 0.372235 0.357582
0.012016 0.412667 0.316780
0.108350 0.441823 0.347898
0.230051 0.471061 0.374836
0.402151 0.494025 0.373276
0.494271 0.482364 0.365700
0.603102 0.483460 0.362044
0.707877 0.487249 0.361005
0.820242 0.491132 0.360505
0.927355 0.492777 0.361965
0.021929 0.556233 0.384764
0.114962 0.576145 0.405172
0.237074 0.595679 0.395450
0.419221 0.605728 0.383253
0.524931 0.603177 0.366466
0.604417 0.586901 0.371788
0.704370 0.581032 0.366357
0.815206 0.583813 0.362651
0.924809 0.585638 0.359165
0.034170 0.683179 0.437494
0.129929 0.695288 0.424891
0.247135 0.703550 0.384865
0.439013 0.712443 0.384922
0.565847 0.710618 0.364136
0.630586 0.708521 0.375634
0.708648 0.686552 0.376533
0.811852 0.676379 0.369877
0.919883 0.677602 0.364615
0.048405 0.807053 0.441521
0.143206 0.811126 0.412201
0.259341 0.815360 0.335853
0.470645 0.825254 0.385222
0.613478 0.823796 0.362937
0.669979 0.824779 0.379246
0.739255 0.820132 0.379888
0.818649 0.791252 0.380531
0.921422 0.779485 0.373333
0.063712 0.921619 0.419251
0.159406 0.924422 0.379059
0.318782 0.930571 0.337146
0.513112 0.939098 0.383384
0.653714 0.937137 0.363443
0.714905 0.939149 0.371414
0.784219 0.930984 0.379758
0.855630 0.933422 0.383432
0.927258 0.898066 0.384163
0.011526 0.016136 0.446410
0.094592 0.009041 0.455971
0.198829 0.006435 0.431831
0.321868 0.010333 0.385587
0.405941 0.005188 0.339755
0.511118 0.002479 0.312569
0.623452 0.003060 0.317118
0.723551 0.004227 0.326978
0.823893 0.004661 0.336370
0.003060 0.098648 0.450670
0.098864 0.102833 0.477882
0.210287 0.097246 0.483817
0.359359 0.093505 0.453565
0.462356 0.089309 0.390014
0.588500 0.077695 0.352841
0.696812 0.076137 0.358542
0.793781 0.076116 0.364340
0.894054 0.076586 0.371092
0.000000 0.185202 0.428483
0.083253 0.209191 0.484871
0.225629 0.229369 0.492070
0.353886 0.217729 0.484334
0.477015 0.216338 0.429515
0.599062 0.210011 0.409312
0.703049 0.212101 0.418691
0.806641 0.214114 0.426404
0.909218 0.215734 0.434847
0.000000 0.281873 0.402249
0.088949 0.318511 0.452905
0.214296 0.347402 0.484554
0.374620 0.375485 0.502571
0.492629 0.366595 0.468576
0.606759 0.367791 0.470266
0.710788 0.371429 0.478811
0.816063 0.378939 0.487733
0.920345 0.377176 0.485636
0.006119 0.396538 0.402811
0.104478 0.428041 0.431600
0.231629 0.453754 0.455923
0.374782 0.482360 0.482852
0.507753 0.509767 0.508822
0.615256 0.512430 0.508879
0.718260 0.512470 0.507406
0.827810 0.511409 0.504821
0.934102 0.508613 0.501127
0.021327 0.531721 0.429009
0.118427 0.554451 0.455575
0.243154 0.577294 0.487684
0.375787 0.599774 0.516985
0.531998 0.621864 0.519422
0.617239 0.612693 0.512338
0.718879 0.611376 0.508141
0.830034 0.614665 0.505256
0.939009 0.615817 0.501619
0.036265 0.665626 0.492169
0.132994 0.678895 0.511278
0.248619 0.692751 0.533352
0.378237 0.712451 0.519028
0.552451 0.729900 0.521479
0.648066 0.727775 0.509951
0.722208 0.713817 0.514411
0.825060 0.706219 0.508591
0.933832 0.708859 0.503826
0.049803 0.786577 0.540713
0.143609 0.796409 0.554700
0.257611 0.811018 0.534792
0.383265 0.832488 0.492716
0.579401 0.842838 0.521151
0.690930 0.842292 0.505215
0.753280 0.838054 0.513133
0.832246 0.819000 0.515461
0.932918 0.808318 0.509030
0.062529 0.910085 0.564933
0.157321 0.920229 0.541459
0.268944 0.935575 0.508561
0.426393 0.946430 0.466114
0.611187 0.955753 0.519375
0.725357 0.956195 0.501197
0.799484 0.952117 0.507373
0.860760 0.949760 0.514543
0.941551 0.926507 0.515414
0.013571 0.019646 0.560562
0.095490 0.010376 0.569996
0.200348 0.004540 0.561279
0.321074 0.013184 0.515926
0.433543 0.012091 0.481956
0.504459 0.005300 0.431095
0.603515 0.002496 0.406844
0.707484 0.003060 0.390590
0.810448 0.003784 0.403261
0.008263 0.106196 0.567071
0.097221 0.103763 0.597810
0.209519 0.096708 0.604341
0.340331 0.093630 0.591428
0.492591 0.093279 0.555468
0.575459 0.087186 0.496674
0.683231 0.075434 0.453277
0.788383 0.072564 0.436995
0.887012 0.072525 0.444109
0.000000 0.196918 0.554184
0.088471 0.222578 0.606073
0.224716 0.233366 0.612090
0.351570 0.223120 0.614769
0.498925 0.217675 0.587521
0.587879 0.216659 0.538286
0.696680 0.205791 0.497755
0.800540 0.205419 0.500062
0.901262 0.206893 0.507629
0.000000 0.293316 0.531846
0.078882 0.327931 0.590293
0.207621 0.359510 0.615738
0.373907 0.380210 0.622968
0.493081 0.367194 0.615303
0.600729 0.367354 0.575304
0.706158 0.360536 0.551695
0.813331 0.363298 0.561652
0.916109 0.365161 0.570633
0.000443 0.392783 0.511864
0.093619 0.438642 0.562478
0.219017 0.466562 0.589300
0.362425 0.491465 0.613825
0.508977 0.515412 0.630780
0.615148 0.509186 0.605777
0.718295 0.507910 0.602625
0.828935 0.510594 0.612722
0.935731 0.511719 0.614886
0.017774 0.528009 0.535583
0.115076 0.550232 0.556136
0.240522 0.569423 0.573961
0.377599 0.589013 0.592764
0.509506 0.611856 0.614145
0.627844 0.633361 0.634155
0.730285 0.635622 0.634183
0.839400 0.635123 0.631772
0.945847 0.632975 0.628344
0.036092 0.647610 0.545292
0.135250 0.662196 0.561060
0.253552 0.677921 0.584714
0.384813 0.695882 0.612811
0.510194 0.720974 0.638988
0.646192 0.743900 0.641833
0.734486 0.737581 0.636914
0.838611 0.733846 0.632447
0.946624 0.736647 0.628784
0.054485 0.768459 0.588737
0.149763 0.779105 0.605949
0.263853 0.792698 0.628122
0.388274 0.812791 0.648068
0.508605 0.839318 0.625643
0.667107 0.856562 0.642485
0.766641 0.856782 0.630629
0.845915 0.844182 0.636925
0.943279 0.832965 0.631564
0.067799 0.890810 0.636396
0.162619 0.900401 0.651611
0.274018 0.914586 0.651602
0.393074 0.935661 0.624253
0.520418 0.958818 0.594008
0.694802 0.969332 0.642763
0.808859 0.971397 0.626962
0.874728 0.966192 0.632777
0.954699 0.951513 0.636150
0.013956 0.024505 0.664371
0.100582 0.015892 0.678014
0.205148 0.010139 0.676772
0.322679 0.016381 0.638871
0.446652 0.017476 0.594677
0.535008 0.015557 0.571733
0.604289 0.009610 0.524486
0.699460 0.005858 0.498643
0.798267 0.004227 0.468074
0.009903 0.112006 0.671187
0.096911 0.106535 0.705801
0.212696 0.101786 0.712896
0.337542 0.090652 0.711518
0.489062 0.093563 0.680816
0.606494 0.093097 0.659917
0.678542 0.086632 0.597516
0.777732 0.077156 0.550731
0.877255 0.071204 0.512825
0.000000 0.208447 0.664835
0.093247 0.231051 0.714924
0.222733 0.235333 0.722029
0.351532 0.226664 0.726512
0.479274 0.219907 0.705957
0.610511 0.219796 0.683177
0.688953 0.217088 0.638152
0.793150 0.204758 0.590926
0.894491 0.200186 0.575662
0.000000 0.305064 0.647673
0.072791 0.337640 0.708499
0.212569 0.368318 0.730012
0.372001 0.381198 0.735727
0.488587 0.369488 0.736945
0.611122 0.367367 0.706828
0.699969 0.366679 0.672338
0.805795 0.354565 0.632909
0.907243 0.355483 0.638495
0.000000 0.403594 0.631139
0.083371 0.447477 0.686506
0.209963 0.474275 0.709929
0.354733 0.493908 0.735350
0.507604 0.515426 0.746096
0.612860 0.507548 0.737082
0.714964 0.506376 0.702199
0.821114 0.499216 0.681030
0.926398 0.500080 0.691361
0.015724 0.526918 0.640118
0.109528 0.553861 0.665606
0.231944 0.576181 0.685639
0.367738 0.594350 0.706347
0.500048 0.614566 0.733028
0.627835 0.638577 0.753083
0.731697 0.632696 0.730278
0.837585 0.631060 0.725909
0.944203 0.633036 0.736103
0.034137 0.650476 0.655113
0.132690 0.662870 0.667094
0.251684 0.676384 0.680922
0.384376 0.691935 0.696692
0.512279 0.712243 0.716065
0.627027 0.731385 0.734277
0.741303 0.751208 0.752950
0.850152 0.757177 0.755740
0.955829 0.756223 0.753272
0.053862 0.757675 0.653720
0.150927 0.767937 0.665945
0.267426 0.781565 0.682941
0.393571 0.799395 0.708945
0.514360 0.820756 0.737451
0.623915 0.842887 0.756623
0.754306 0.867853 0.759575
0.853214 0.864559 0.757724
0.953986 0.857563 0.754350
0.072327 0.876595 0.687290
0.168735 0.884780 0.702375
0.281398 0.896659 0.722745
0.399245 0.917719 0.752034
0.511411 0.938305 0.753345
0.619430 0.959753 0.737848
0.775156 0.980807 0.760462
0.887126 0.982881 0.751153
0.962863 0.970564 0.758079
0.015620 0.030228 0.765084
0.106731 0.023491 0.784394
0.213026 0.018448 0.787395
0.330841 0.017916 0.755386
0.450806 0.024772 0.713900
0.560876 0.024205 0.689761
0.638033 0.022484 0.668201
0.706216 0.017297 0.621110
0.803798 0.013179 0.588925
0.011276 0.118018 0.772101
0.096554 0.108965 0.810022
0.217842 0.108511 0.818247
0.337498 0.094793 0.821265
0.472012 0.097778 0.787412
0.600648 0.095921 0.761666
0.706770 0.095743 0.757442
0.775104 0.089118 0.693151
0.876954 0.078741 0.639362
0.000000 0.215013 0.768907
0.091945 0.229465 0.821030
0.219809 0.234196 0.828630
0.354660 0.227415 0.835441
0.474129 0.218604 0.819644
0.596611 0.221817 0.788226
0.710880 0.221302 0.782143
0.788315 0.217695 0.733791
0.895016 0.202960 0.679365
0.000000 0.311581 0.751876
0.069437 0.339498 0.819668
0.217057 0.366687 0.839490
0.368939 0.377768 0.845404
0.490990 0.372625 0.848800
0.592843 0.368501 0.817089
0.712743 0.366302 0.800270
0.803051 0.364115 0.768830
0.909862 0.348262 0.719370
0.000000 0.410600 0.739600
0.078990 0.450502 0.798244
0.204760 0.473154 0.824492
0.348438 0.487399 0.852720
0.504493 0.511091 0.858316
0.608781 0.503340 0.858226
0.717832 0.503938 0.825975
0.820442 0.501060 0.799191
0.925203 0.487918 0.760896
0.014694 0.531283 0.745545
0.101912 0.560341 0.778534
0.221909 0.576739 0.798084
0.358044 0.590988 0.820984
0.491693 0.608625 0.852089
0.624821 0.635823 0.867178
0.726517 0.629666 0.862673
0.836820 0.628195 0.825821
0.943867 0.619847 0.805787
0.034076 0.659057 0.762847
0.128979 0.669328 0.772379
0.247023 0.681013 0.783951
0.378978 0.693938 0.799429
0.504874 0.712041 0.823879
0.617526 0.729128 0.847855
0.736957 0.753193 0.871984
0.852930 0.753624 0.851897
0.958788 0.751288 0.846815
0.053470 0.762321 0.760941
0.150852 0.771365 0.771441
0.267803 0.782975 0.784721
0.394281 0.797887 0.800483
0.515317 0.816526 0.818545
0.626390 0.834407 0.835385
0.740488 0.855544 0.855328
0.862023 0.880319 0.878699
0.965441 0.879958 0.873831
0.073479 0.870565 0.761211
0.170275 0.879714 0.772874
0.283348 0.892851 0.787948
0.402894 0.910851 0.810733
0.515688 0.928299 0.834108
0.624456 0.948898 0.861348
0.736004 0.972087 0.883853
0.875462 0.989643 0.879878
0.965922 0.987008 0.874352
0.017955 0.036789 0.868961
0.114497 0.032471 0.894500
0.216279 0.023598 0.896568
0.334985 0.019230 0.878340
0.448779 0.032853 0.830891
0.557405 0.032716 0.799711
0.663506 0.032395 0.795083
0.743402 0.031972 0.781794
0.810361 0.026699 0.724761
0.012726 0.123993 0.876928
0.096833 0.111691 0.918338
0.223869 0.116139 0.927882
0.342549 0.105702 0.932979
0.466657 0.098119 0.902375
0.583639 0.100812 0.872037
0.701772 0.097375 0.864406
0.803718 0.097222 0.861979
0.875257 0.091466 0.796032
0.000000 0.219316 0.876439
0.090130 0.225808 0.931050
0.219501 0.234171 0.939099
0.359051 0.233203 0.946929
0.470716 0.216151 0.940599
0.578116 0.225225 0.898035
0.693089 0.223377 0.879516
0.808912 0.221509 0.884083
0.889193 0.217387 0.834974
0.000000 0.315519 0.858213
0.066378 0.336039 0.934686
0.218607 0.360604 0.951493
0.365255 0.372935 0.957379
0.492999 0.368699 0.962220
0.591497 0.364351 0.938247
0.691613 0.368182 0.903719
0.816312 0.363234 0.903309
0.905349 0.360248 0.869480
0.000000 0.416903 0.850615
0.074352 0.448312 0.913671
0.199252 0.465557 0.942155
0.345052 0.478719 0.967027
0.500536 0.504788 0.969953
0.612389 0.501994 0.972121
0.706092 0.500805 0.942766
0.825723 0.497554 0.924245
0.924033 0.493994 0.899182
0.015213 0.533121 0.854520
0.095867 0.558501 0.892482
0.213178 0.570499 0.912882
0.348735 0.581482 0.938312
0.482792 0.598914 0.970304
0.619486 0.629473 0.978357
0.726501 0.629214 0.979519
0.837493 0.625230 0.949942
0.943364 0.621061 0.926885
0.034286 0.654487 0.860696
0.123182 0.664762 0.875324
0.238990 0.674830 0.891399
0.368367 0.687009 0.913276
0.493462 0.704398 0.941947
0.607009 0.721013 0.966351
0.736680 0.754091 0.983677
0.847839 0.750508 0.981322
0.958478 0.747919 0.949955
0.050087 0.774216 0.873671
0.147217 0.780843 0.881495
0.263268 0.789980 0.892478
0.389000 0.802685 0.907716
0.508476 0.817589 0.925464
0.618770 0.831191 0.941420
0.733130 0.846824 0.959253
0.857636 0.872694 0.981565
0.972756 0.879942 0.976977
0.074186 0.874841 0.870758
0.171292 0.882920 0.880827
0.284585 0.894328 0.893858
0.403729 0.908784 0.908836
0.516378 0.924358 0.924180
0.626349 0.941955 0.940591
0.740143 0.962386 0.959488
0.859565 0.984299 0.982464
0.976444 0.995169 0.990891
