components/images/luts/Vintage Chrome.cube
# Created by: Lutify.me
# Copyright: (c) Copyright Lutify.me 2016, G.T. Colord LTD
# Website: https://lutify.me
# Contact: help@lutify.me
LUT_3D_SIZE 33
0.000054 0.000093 0.000024
0.032160 0.004386 0.001012
0.062205 0.007273 0.001194
0.091672 0.009944 0.001415
0.121999 0.012322 0.001513
0.151225 0.014168 0.001669
0.179636 0.015630 0.001741
0.208106 0.016421 0.001611
0.237287 0.017160 0.001465
0.266669 0.017872 0.001241
0.294478 0.018012 0.001021
0.321570 0.017851 0.000840
0.349349 0.017739 0.000672
0.377172 0.017306 0.000448
0.404814 0.016472 0.000194
0.432132 0.015547 0.000051
0.458571 0.014719 0.000024
0.484959 0.013916 0.000024
0.512113 0.012894 0.000024
0.538888 0.011546 0.000024
0.564608 0.010219 0.000024
0.590183 0.009399 0.000024
0.615536 0.008807 0.000024
0.640400 0.007539 0.000024
0.665625 0.005723 0.000024
0.690178 0.004267 0.000024
0.714284 0.002801 0.000024
0.735988 0.001952 0.000024
0.756428 0.001393 0.000024
0.776419 0.000860 0.000024
0.796515 0.000530 0.000024
0.816928 0.000393 0.000024
0.837534 0.000093 0.000024
0.021477 0.045077 0.007689
0.038689 0.036983 0.004056
0.064386 0.038390 0.003835
0.092556 0.040038 0.003815
0.122304 0.041577 0.003510
0.151445 0.042700 0.003194
0.180674 0.043707 0.002753
0.209329 0.044023 0.002503
0.237546 0.044233 0.002319
0.265806 0.044236 0.002235
0.294128 0.043774 0.001830
0.321836 0.043185 0.001562
0.349297 0.042936 0.001496
0.376711 0.042529 0.001348
0.403936 0.041609 0.001006
0.431326 0.040631 0.000583
0.458400 0.039783 0.000330
0.485036 0.038963 0.000230
0.511727 0.037900 0.000110
0.538181 0.036267 0.000025
0.563904 0.034129 0.000025
0.588895 0.031742 0.000024
0.613566 0.029165 0.000024
0.638331 0.026158 0.000024
0.663460 0.022999 0.000024
0.688783 0.020389 0.000024
0.713302 0.017964 0.000024
0.735189 0.016103 0.000024
0.755626 0.015121 0.000024
0.776115 0.014054 0.000024
0.796373 0.013185 0.000024
0.816368 0.012607 0.000024
0.836769 0.011235 0.000024
0.039670 0.084140 0.010626
0.057382 0.077779 0.008706
0.076783 0.072629 0.007388
0.099732 0.072561 0.007136
0.125340 0.073774 0.006583
0.152535 0.074948 0.005738
0.180769 0.075730 0.004921
0.209202 0.076083 0.004114
0.237760 0.075953 0.003649
0.266034 0.075997 0.003758
0.294203 0.075657 0.003620
0.321642 0.074608 0.003108
0.348807 0.073771 0.002943
0.375951 0.072780 0.002794
0.403234 0.071559 0.002518
0.430756 0.070110 0.001929
0.457787 0.068570 0.001403
0.483972 0.066700 0.001146
0.510167 0.064686 0.000956
0.536329 0.062236 0.000715
0.561892 0.058796 0.000319
0.586993 0.055468 0.000024
0.611847 0.052745 0.000024
0.636785 0.049913 0.000024
0.661882 0.047287 0.000024
0.687459 0.044643 0.000024
0.712158 0.042046 0.000024
0.733852 0.039775 0.000024
0.754131 0.038003 0.000024
0.774536 0.036278 0.000024
0.795837 0.033806 0.000024
0.815663 0.031749 0.000024
0.836135 0.028506 0.000024
0.057943 0.124849 0.013714
0.075563 0.119198 0.012606
0.094227 0.113000 0.011100
0.112264 0.107325 0.010518
0.133880 0.106781 0.010345
0.157593 0.107948 0.009632
0.182852 0.108708 0.007987
0.211026 0.109420 0.007206
0.238750 0.109602 0.006721
0.267008 0.109638 0.006163
0.294981 0.109078 0.005868
0.322959 0.108174 0.005502
0.350243 0.107081 0.005151
0.377477 0.106203 0.005100
0.404429 0.104698 0.004797
0.431078 0.102582 0.004069
0.458034 0.100617 0.003363
0.484567 0.098405 0.002978
0.509975 0.095231 0.002634
0.535237 0.091459 0.002067
0.560618 0.087453 0.001435
0.585844 0.083670 0.001021
0.611062 0.080457 0.000781
0.635653 0.077572 0.000677
0.660014 0.074356 0.000384
0.685266 0.071154 0.000033
0.711202 0.068586 0.000024
0.733887 0.066342 0.000024
0.753671 0.064141 0.000024
0.773811 0.062007 0.000024
0.794787 0.058913 0.000024
0.814428 0.054004 0.000024
0.833699 0.049483 0.000024
0.074266 0.162101 0.015989
0.092134 0.157562 0.015276
0.110956 0.151436 0.014019
0.129756 0.146882 0.013874
0.147710 0.140822 0.014045
0.167926 0.139794 0.013367
0.191798 0.141382 0.012295
0.218296 0.142579 0.011092
0.243115 0.143219 0.010342
0.269546 0.143456 0.009368
0.297302 0.143241 0.008462
0.325307 0.142573 0.008098
0.352572 0.141462 0.007775
0.379691 0.140218 0.007518
0.406075 0.138352 0.007094
0.432325 0.135783 0.006425
0.458893 0.132839 0.005512
0.485020 0.129684 0.004719
0.510073 0.125991 0.004091
0.534857 0.122110 0.003544
0.560106 0.118419 0.003017
0.585531 0.114864 0.002445
0.611033 0.111460 0.001914
0.635499 0.108091 0.001676
0.659384 0.104374 0.001408
0.684538 0.100900 0.000910
0.710423 0.097756 0.000363
0.733637 0.094711 0.000030
0.753521 0.091688 0.000024
0.773496 0.088977 0.000024
0.793544 0.084854 0.000024
0.812952 0.078072 0.000024
0.832025 0.072084 0.000024
0.089505 0.197655 0.017290
0.107079 0.193100 0.016714
0.126644 0.188535 0.016040
0.146087 0.184947 0.015815
0.165141 0.179660 0.016059
0.184886 0.174744 0.016567
0.205147 0.174571 0.016060
0.228199 0.174488 0.015586
0.252635 0.175533 0.014501
0.275683 0.175787 0.013763
0.301458 0.176476 0.012373
0.328342 0.176697 0.010806
0.354936 0.175199 0.010040
0.381382 0.173596 0.009605
0.407994 0.171437 0.009211
0.433851 0.168338 0.008526
0.459682 0.164832 0.007550
0.485242 0.161285 0.006580
0.510155 0.157528 0.005679
0.535197 0.153620 0.004881
0.560544 0.149935 0.004360
0.585679 0.146190 0.003779
0.610818 0.142458 0.003151
0.635660 0.139111 0.002793
0.660227 0.135705 0.002385
0.684903 0.131949 0.001778
0.710053 0.128211 0.001211
0.732790 0.124192 0.000686
0.752584 0.120087 0.000133
0.772943 0.116123 0.000024
0.792037 0.110841 0.000024
0.810988 0.103330 0.000024
0.829249 0.097000 0.000024
0.104074 0.232803 0.017817
0.121760 0.229143 0.017506
0.141501 0.224994 0.017072
0.161510 0.221412 0.016791
0.181692 0.217292 0.017246
0.201261 0.212641 0.017911
0.220967 0.209322 0.018078
0.239034 0.206434 0.019015
0.263060 0.207837 0.018180
0.286023 0.208855 0.017232
0.308310 0.208974 0.016318
0.331773 0.208675 0.014808
0.357658 0.207958 0.012520
0.383166 0.206063 0.011860
0.408577 0.203590 0.011804
0.434523 0.200429 0.010620
0.460138 0.196843 0.009368
0.485676 0.193254 0.008437
0.510879 0.189603 0.007497
0.536117 0.185776 0.006438
0.561410 0.181934 0.005576
0.586218 0.178006 0.004920
0.611341 0.174289 0.004407
0.636511 0.170885 0.004031
0.661157 0.167160 0.003433
0.685307 0.162828 0.002581
0.709788 0.158395 0.001863
0.732830 0.153437 0.001135
0.752277 0.148345 0.000162
0.772335 0.143444 0.000024
0.790480 0.137121 0.000024
0.808435 0.129898 0.000024
0.826423 0.123210 0.000024
0.117800 0.267039 0.017526
0.135523 0.264035 0.017397
0.155500 0.260204 0.017197
0.175560 0.256326 0.017342
0.196184 0.253176 0.017958
0.215805 0.248472 0.018959
0.235931 0.245528 0.019378
0.255454 0.242349 0.020126
0.274262 0.239461 0.021947
0.296389 0.241121 0.020977
0.318929 0.243177 0.019120
0.340122 0.242377 0.017883
0.363117 0.240892 0.016358
0.389163 0.238480 0.014571
0.412651 0.235930 0.014267
0.436752 0.233108 0.013353
0.462256 0.230147 0.011751
0.487940 0.226982 0.010794
0.513225 0.223321 0.009823
0.538341 0.219367 0.008726
0.563482 0.215343 0.007627
0.588255 0.211209 0.006580
0.613451 0.207423 0.005930
0.638670 0.203807 0.005546
0.662988 0.199491 0.004836
0.686707 0.194274 0.003718
0.710876 0.189085 0.002488
0.734208 0.183632 0.001346
0.753111 0.177756 0.000102
0.772188 0.172027 0.000024
0.790046 0.165066 0.000024
0.807588 0.157725 0.000024
0.825625 0.151140 0.000024
0.130901 0.300289 0.016737
0.148422 0.297333 0.016723
0.168570 0.293517 0.016815
0.188954 0.290479 0.017345
0.209736 0.287579 0.017907
0.230531 0.283980 0.019052
0.250929 0.280619 0.019792
0.270673 0.277693 0.021022
0.289290 0.274030 0.022778
0.309211 0.273512 0.023401
0.330095 0.274420 0.022615
0.352154 0.275641 0.020867
0.373493 0.273472 0.019847
0.396947 0.270240 0.018783
0.421200 0.267866 0.017698
0.442795 0.265399 0.017555
0.466376 0.263160 0.016168
0.491538 0.261020 0.014083
0.516729 0.257666 0.012614
0.541448 0.253542 0.011449
0.566598 0.249699 0.010399
0.591473 0.245485 0.009213
0.616332 0.241117 0.008147
0.641148 0.236733 0.007312
0.665145 0.231792 0.006181
0.688725 0.226204 0.004791
0.712512 0.220297 0.003071
0.735183 0.213863 0.001286
0.753771 0.207313 0.000040
0.772124 0.200839 0.000024
0.789808 0.193559 0.000024
0.807799 0.186937 0.000024
0.826141 0.180972 0.000024
0.143406 0.332520 0.015550
0.160708 0.329757 0.015625
0.181053 0.326724 0.015905
0.201737 0.323728 0.016596
0.222732 0.321042 0.017271
0.243699 0.317192 0.018769
0.264429 0.314352 0.019652
0.284639 0.311297 0.020157
0.304064 0.307726 0.021684
0.322149 0.302586 0.025166
0.343172 0.303919 0.025340
0.364274 0.305015 0.024760
0.385611 0.305353 0.023026
0.407134 0.302574 0.022321
0.430787 0.300417 0.021029
0.452760 0.298802 0.020468
0.473398 0.296684 0.020475
0.495801 0.294710 0.019647
0.521219 0.292055 0.016786
0.545666 0.288127 0.014881
0.569095 0.283988 0.014244
0.593948 0.279619 0.012716
0.619042 0.274818 0.010676
0.643558 0.269904 0.009275
0.667181 0.264266 0.007371
0.690342 0.258023 0.005310
0.713678 0.251516 0.003212
0.735767 0.244285 0.001086
0.754318 0.237305 0.000025
0.772408 0.230325 0.000024
0.790543 0.223683 0.000024
0.809235 0.218045 0.000024
0.828023 0.212320 0.000024
0.155024 0.363314 0.013893
0.172266 0.361074 0.014055
0.192613 0.358407 0.014439
0.213427 0.355352 0.015228
0.235004 0.353089 0.016203
0.256357 0.349571 0.017523
0.276108 0.345317 0.018164
0.296529 0.342296 0.018652
0.317210 0.339734 0.019431
0.337160 0.336624 0.021619
0.357876 0.334352 0.023579
0.378199 0.334445 0.025467
0.398411 0.334598 0.026602
0.419564 0.335835 0.024875
0.441092 0.333907 0.024258
0.462597 0.332975 0.023410
0.483667 0.332050 0.022780
0.504257 0.330017 0.023094
0.526406 0.326692 0.022819
0.552133 0.321932 0.019221
0.574834 0.317378 0.017593
0.597370 0.313237 0.016369
0.621945 0.308646 0.013288
0.646315 0.303614 0.011113
0.669727 0.297550 0.008682
0.692318 0.290466 0.005834
0.715227 0.283344 0.003208
0.737020 0.275553 0.000878
0.755632 0.268044 0.000024
0.773734 0.261110 0.000024
0.792282 0.255137 0.000024
0.811589 0.250217 0.000024
0.831090 0.244860 0.000024
0.166041 0.393422 0.012070
0.183073 0.391305 0.012333
0.203371 0.388389 0.012767
0.224368 0.385641 0.013697
0.245868 0.382951 0.014533
0.267081 0.379832 0.015299
0.286864 0.374912 0.015972
0.307168 0.371695 0.016433
0.328443 0.369900 0.017360
0.349203 0.367466 0.019292
0.370233 0.365285 0.021361
0.391505 0.365511 0.022803
0.411932 0.366522 0.024934
0.432369 0.367179 0.027542
0.453514 0.368991 0.025995
0.474241 0.367940 0.025097
0.494465 0.367419 0.024702
0.515787 0.366018 0.024505
0.536373 0.361865 0.025525
0.559183 0.355505 0.025022
0.583077 0.349853 0.021570
0.603665 0.346129 0.020570
0.625778 0.342053 0.018131
0.649446 0.337225 0.013883
0.672625 0.330952 0.009857
0.694700 0.323295 0.006530
0.717026 0.315691 0.003374
0.738686 0.307449 0.000652
0.757830 0.300120 0.000024
0.776230 0.293691 0.000024
0.795390 0.288475 0.000024
0.815005 0.283800 0.000024
0.834849 0.278341 0.000024
0.176509 0.422562 0.010312
0.193434 0.420513 0.010661
0.213273 0.417277 0.011135
0.233650 0.413840 0.011651
0.255081 0.411194 0.012438
0.276187 0.407725 0.013259
0.296561 0.403339 0.014144
0.316990 0.400411 0.014800
0.338308 0.398702 0.015802
0.360328 0.397562 0.017368
0.381725 0.395852 0.019092
0.403525 0.395052 0.020629
0.423500 0.394403 0.024584
0.444319 0.395798 0.027419
0.466089 0.398428 0.029095
0.487213 0.400309 0.027618
0.507322 0.399880 0.026602
0.527698 0.398773 0.026392
0.548545 0.396368 0.026673
0.569258 0.389765 0.028201
0.591670 0.383338 0.026507
0.612694 0.379595 0.023060
0.631814 0.375648 0.022335
0.652635 0.371060 0.019539
0.675549 0.364461 0.013375
0.698074 0.356005 0.007485
0.718478 0.348335 0.004702
0.740033 0.340532 0.001968
0.761101 0.333881 0.000024
0.779889 0.327889 0.000024
0.799483 0.323086 0.000024
0.819320 0.318580 0.000024
0.839348 0.313379 0.000024
0.186422 0.451109 0.008938
0.202789 0.448225 0.009279
0.222148 0.444915 0.009705
0.242221 0.441182 0.010014
0.263542 0.438343 0.010671
0.284895 0.435063 0.011453
0.305810 0.431467 0.012523
0.326337 0.428433 0.013582
0.347924 0.426876 0.014860
0.370379 0.425983 0.016540
0.392557 0.424890 0.018165
0.414475 0.424383 0.019434
0.435977 0.423958 0.022296
0.456165 0.422713 0.028145
0.477481 0.424592 0.030460
0.499744 0.427713 0.030654
0.520812 0.429171 0.029770
0.541204 0.428519 0.029422
0.561541 0.427103 0.029267
0.581604 0.424958 0.029067
0.602671 0.418569 0.028446
0.622937 0.414422 0.025319
0.641392 0.410170 0.023517
0.659395 0.405675 0.022887
0.679085 0.398651 0.020236
0.702519 0.388781 0.011828
0.723291 0.380305 0.006196
0.743294 0.373937 0.004056
0.765098 0.368339 0.000173
0.784557 0.363156 0.000024
0.804413 0.358523 0.000024
0.824356 0.354084 0.000024
0.844278 0.349240 0.000024
0.195428 0.478214 0.007760
0.211493 0.475077 0.008005
0.230345 0.471309 0.008202
0.250542 0.467452 0.008526
0.272085 0.464728 0.009085
0.293815 0.462178 0.009913
0.314704 0.458910 0.010979
0.335395 0.455869 0.012136
0.357560 0.454436 0.013882
0.380211 0.453602 0.015703
0.402609 0.452684 0.017547
0.424637 0.452266 0.018955
0.447107 0.452317 0.020736
0.468613 0.451631 0.024980
0.490163 0.451474 0.029953
0.511721 0.454452 0.030565
0.532986 0.457185 0.031839
0.554190 0.459318 0.031568
0.574497 0.458630 0.031271
0.594142 0.457503 0.030444
0.613272 0.454905 0.029334
0.633161 0.449982 0.026514
0.651043 0.445814 0.024753
0.669448 0.440538 0.022793
0.687639 0.432758 0.022148
0.707989 0.422239 0.018271
0.731410 0.412776 0.009954
0.751757 0.407844 0.007154
0.770909 0.403012 0.004167
0.790122 0.398408 0.001127
0.810384 0.394254 0.000021
0.830133 0.389673 0.000024
0.849206 0.384370 0.000024
0.203535 0.503613 0.006061
0.219552 0.500355 0.006146
0.238165 0.496453 0.006280
0.258723 0.492720 0.006767
0.280359 0.490509 0.007276
0.302223 0.488431 0.008038
0.323453 0.485549 0.009154
0.344469 0.482720 0.010412
0.366870 0.481233 0.012243
0.389692 0.480728 0.014262
0.412039 0.479616 0.016203
0.434260 0.478830 0.017927
0.456863 0.479106 0.019626
0.479981 0.479362 0.021625
0.502065 0.479305 0.025820
0.523941 0.480612 0.028806
0.544003 0.482873 0.032205
0.565256 0.486460 0.033402
0.586477 0.489580 0.032398
0.605834 0.489010 0.030997
0.624672 0.487315 0.029162
0.643151 0.484496 0.026959
0.661288 0.480059 0.024484
0.679831 0.474764 0.022148
0.698988 0.466320 0.020809
0.718077 0.456793 0.020299
0.739962 0.446935 0.015784
0.764016 0.443893 0.009726
0.783912 0.442574 0.009353
0.801263 0.439324 0.006364
0.821207 0.435588 0.003474
0.844038 0.430091 0.000029
0.872736 0.436069 0.000024
0.211344 0.528594 0.003941
0.227279 0.525019 0.003826
0.245732 0.521433 0.004043
0.266413 0.518322 0.004625
0.287847 0.516083 0.005250
0.309715 0.513676 0.006109
0.331693 0.511304 0.007176
0.353384 0.509059 0.008411
0.375686 0.507702 0.010262
0.398888 0.506777 0.012392
0.421439 0.505393 0.014428
0.443678 0.504450 0.016169
0.466199 0.504340 0.017785
0.489327 0.505053 0.019641
0.511889 0.505455 0.023148
0.534264 0.507078 0.025498
0.555575 0.508916 0.028874
0.574845 0.510591 0.034874
0.596450 0.514689 0.033821
0.617365 0.517362 0.031974
0.636314 0.516464 0.029668
0.654743 0.513272 0.027102
0.673088 0.509998 0.024190
0.691466 0.504813 0.021662
0.710774 0.498700 0.019966
0.730627 0.492117 0.019201
0.751420 0.482969 0.018209
0.774597 0.478796 0.011785
0.796373 0.480638 0.010976
0.812135 0.479078 0.011521
0.829641 0.475545 0.010639
0.852513 0.468411 0.005060
0.887061 0.480061 0.000526
0.219175 0.553736 0.001881
0.235205 0.550318 0.001802
0.253526 0.547123 0.002015
0.274298 0.544272 0.002676
0.295898 0.541405 0.003496
0.318041 0.539344 0.004339
0.340199 0.537000 0.005503
0.362224 0.534735 0.006699
0.384874 0.532924 0.008465
0.408629 0.531967 0.010736
0.431466 0.530276 0.012851
0.453506 0.529372 0.014445
0.475736 0.529352 0.015856
0.498798 0.530105 0.017650
0.521663 0.531416 0.019711
0.543899 0.532739 0.022618
0.565211 0.534665 0.025432
0.585626 0.535920 0.030575
0.605685 0.538340 0.033763
0.626591 0.541212 0.032761
0.647595 0.542934 0.030442
0.666711 0.541328 0.027643
0.685324 0.537627 0.024616
0.704263 0.533931 0.021988
0.723849 0.529962 0.020156
0.743811 0.527034 0.018399
0.764103 0.520807 0.018086
0.785961 0.515774 0.014128
0.804764 0.516742 0.013264
0.820618 0.515121 0.013000
0.836980 0.510346 0.014411
0.855642 0.504063 0.012618
0.880548 0.507778 0.004516
0.227592 0.578407 0.000454
0.243771 0.575319 0.000493
0.262019 0.572364 0.000764
0.283225 0.569304 0.001464
0.305198 0.566410 0.002270
0.327658 0.564632 0.002985
0.350022 0.562343 0.003943
0.372335 0.559845 0.005109
0.395603 0.557686 0.006875
0.419852 0.556335 0.009113
0.441928 0.554793 0.011122
0.463596 0.553994 0.012712
0.485616 0.554321 0.014228
0.508238 0.555342 0.015821
0.530795 0.556919 0.017373
0.553062 0.558727 0.018575
0.575157 0.560602 0.019819
0.595795 0.561608 0.024197
0.614850 0.561764 0.032446
0.635276 0.563758 0.031794
0.656352 0.565689 0.030886
0.677947 0.567488 0.028077
0.697977 0.566508 0.025051
0.717517 0.564994 0.022119
0.737643 0.563226 0.020079
0.757611 0.561213 0.018249
0.777530 0.558379 0.016807
0.797545 0.555150 0.016070
0.816199 0.556468 0.014596
0.832568 0.553716 0.013649
0.849549 0.547247 0.014166
0.866730 0.542827 0.014696
0.883140 0.544793 0.010325
0.237361 0.602274 0.000025
0.253667 0.599388 0.000025
0.271564 0.596684 0.000227
0.292542 0.593818 0.000676
0.314976 0.590515 0.001372
0.337561 0.588253 0.001926
0.360279 0.585371 0.002603
0.383173 0.583129 0.003390
0.406541 0.581537 0.005073
0.430376 0.580337 0.007081
0.452481 0.579052 0.008684
0.473526 0.578484 0.010337
0.495184 0.579063 0.011963
0.517288 0.580304 0.013749
0.539158 0.582047 0.014809
0.560693 0.583588 0.015539
0.582458 0.585050 0.016109
0.604545 0.586455 0.017096
0.625122 0.586549 0.021691
0.645420 0.586845 0.028213
0.665795 0.588026 0.028069
0.687191 0.590177 0.027893
0.710028 0.593274 0.025805
0.731374 0.594203 0.023083
0.751690 0.593917 0.020778
0.771413 0.593376 0.018624
0.790960 0.592384 0.016603
0.810339 0.590478 0.015327
0.829220 0.593080 0.014061
0.845811 0.589485 0.013445
0.862668 0.583825 0.013617
0.879644 0.582610 0.013518
0.894396 0.590574 0.013089
0.247704 0.626220 0.000024
0.264184 0.623518 0.000024
0.281942 0.620623 0.000024
0.302580 0.617532 0.000124
0.325088 0.613733 0.000534
0.348066 0.610603 0.001007
0.370739 0.607503 0.001487
0.393508 0.605531 0.001969
0.416232 0.604532 0.003078
0.438867 0.603617 0.004680
0.461230 0.602879 0.006045
0.482443 0.602901 0.007660
0.504052 0.603887 0.009194
0.525553 0.605416 0.010564
0.546874 0.606838 0.011540
0.568089 0.608064 0.012003
0.589649 0.608949 0.012495
0.611575 0.609629 0.012757
0.633589 0.610251 0.014964
0.654948 0.610298 0.018525
0.678053 0.612080 0.019415
0.698698 0.613895 0.022300
0.720004 0.616272 0.025913
0.743178 0.619719 0.024227
0.765362 0.621919 0.021974
0.785502 0.622020 0.019883
0.804973 0.621503 0.017757
0.823977 0.621536 0.015906
0.842001 0.621879 0.014856
0.858173 0.620631 0.013690
0.874252 0.617304 0.013247
0.889713 0.618823 0.012574
0.902810 0.634553 0.013246
0.257854 0.650746 0.000024
0.275065 0.647382 0.000024
0.293301 0.643623 0.000024
0.314708 0.639199 0.000024
0.336679 0.635551 0.000024
0.359119 0.632584 0.000242
0.381454 0.630045 0.000501
0.403592 0.628216 0.000766
0.425796 0.627507 0.001499
0.448211 0.627185 0.002643
0.470007 0.626619 0.003753
0.490936 0.626994 0.005267
0.511589 0.627952 0.006818
0.532644 0.629437 0.007742
0.553541 0.630693 0.008159
0.574473 0.631394 0.008356
0.595933 0.631823 0.008596
0.618250 0.632581 0.008966
0.640907 0.633106 0.009383
0.663418 0.633693 0.012493
0.686266 0.634579 0.017174
0.709506 0.637354 0.019643
0.731123 0.639800 0.022281
0.753136 0.642538 0.024956
0.776351 0.646272 0.022923
0.798775 0.649312 0.020960
0.819091 0.649909 0.018985
0.838035 0.650592 0.017198
0.855801 0.651522 0.015743
0.871319 0.651397 0.014364
0.885776 0.650996 0.013288
0.899505 0.654532 0.012483
0.908934 0.668440 0.012622
0.269649 0.673788 0.000024
0.288117 0.668880 0.000024
0.306473 0.664827 0.000024
0.328146 0.660077 0.000024
0.349941 0.656142 0.000024
0.371611 0.653508 0.000024
0.393397 0.651630 0.000024
0.414988 0.650156 0.000025
0.437225 0.649530 0.000424
0.460016 0.649840 0.001581
0.481541 0.649928 0.002398
0.501693 0.650297 0.003235
0.521424 0.651002 0.004517
0.541333 0.651819 0.005641
0.561673 0.652658 0.005941
0.581768 0.652807 0.005619
0.602367 0.653037 0.005279
0.624233 0.653644 0.005067
0.647259 0.655079 0.005197
0.671233 0.656669 0.005674
0.694717 0.657660 0.009846
0.718060 0.659302 0.016248
0.741022 0.662396 0.021906
0.762849 0.665303 0.025541
0.786256 0.669016 0.023731
0.809547 0.673165 0.021916
0.831650 0.676348 0.020381
0.851633 0.678871 0.018884
0.868820 0.681163 0.017386
0.884134 0.681528 0.015809
0.898745 0.682580 0.014402
0.910298 0.691293 0.013721
0.922157 0.698449 0.014385
0.285492 0.693390 0.000024
0.302726 0.688956 0.000024
0.320415 0.685195 0.000024
0.341737 0.680868 0.000024
0.363738 0.676914 0.000024
0.385754 0.674128 0.000024
0.407506 0.672433 0.000024
0.428750 0.671841 0.000024
0.450807 0.671925 0.000036
0.473438 0.672206 0.000672
0.494565 0.672696 0.001300
0.514352 0.673542 0.001620
0.533619 0.674377 0.002378
0.553006 0.675081 0.003317
0.572552 0.675309 0.003686
0.592585 0.675139 0.003228
0.612749 0.674775 0.002542
0.633866 0.675255 0.002216
0.655773 0.676510 0.002158
0.678589 0.678394 0.002236
0.702770 0.680551 0.003122
0.726947 0.682264 0.007713
0.751784 0.685560 0.011048
0.772344 0.687583 0.024178
0.795128 0.691695 0.024955
0.818562 0.695786 0.023539
0.841246 0.700654 0.022294
0.862739 0.705010 0.021166
0.881758 0.708854 0.019975
0.897790 0.709667 0.018637
0.912720 0.710211 0.017465
0.925253 0.719328 0.017960
0.938351 0.723353 0.020224
0.305212 0.711435 0.000024
0.318985 0.708171 0.000024
0.335304 0.704654 0.000024
0.356669 0.700463 0.000024
0.378466 0.697021 0.000024
0.400108 0.694711 0.000024
0.421519 0.693671 0.000024
0.443107 0.693671 0.000024
0.464653 0.694404 0.000024
0.484502 0.693558 0.000114
0.504578 0.693724 0.000266
0.523466 0.694564 0.000384
0.542214 0.695533 0.000747
0.561337 0.695653 0.001275
0.580537 0.695503 0.001445
0.599879 0.695000 0.001151
0.619459 0.694852 0.000708
0.639469 0.695445 0.000441
0.661601 0.697715 0.000381
0.683877 0.699661 0.000400
0.708149 0.701941 0.000460
0.733776 0.704756 0.000766
0.759723 0.708248 0.002167
0.782521 0.711114 0.011743
0.802384 0.713940 0.026222
0.825505 0.719166 0.025514
0.848939 0.724115 0.024756
0.871655 0.729781 0.024264
0.893045 0.735079 0.023579
0.910723 0.736932 0.022727
0.927061 0.737247 0.022793
0.941299 0.744265 0.024575
0.955522 0.747177 0.028458
0.324520 0.729027 0.000024
0.338003 0.725859 0.000024
0.352440 0.722898 0.000024
0.372372 0.719803 0.000024
0.393677 0.717015 0.000024
0.415001 0.715320 0.000024
0.435827 0.714822 0.000024
0.456926 0.715163 0.000024
0.477747 0.715756 0.000024
0.494750 0.713509 0.000024
0.512466 0.711468 0.000024
0.531766 0.711012 0.000024
0.550830 0.710910 0.000024
0.569797 0.710061 0.000025
0.588316 0.708954 0.000025
0.606548 0.708394 0.000025
0.624807 0.708697 0.000024
0.643203 0.709629 0.000024
0.663106 0.712189 0.000024
0.685943 0.716600 0.000024
0.707986 0.719605 0.000024
0.733180 0.723333 0.000045
0.760129 0.727513 0.000607
0.786214 0.732512 0.004461
0.809405 0.736930 0.015540
0.831632 0.741446 0.026448
0.855264 0.748391 0.028026
0.877923 0.752929 0.028755
0.900547 0.756696 0.029086
0.920884 0.760118 0.030076
0.940093 0.762332 0.031741
0.957416 0.766825 0.035174
0.972396 0.770179 0.040018
0.344365 0.746883 0.000024
0.356542 0.744173 0.000024
0.370561 0.741573 0.000024
0.388794 0.739732 0.000024
0.409903 0.736123 0.000024
0.431246 0.733982 0.000024
0.452654 0.732393 0.000024
0.473235 0.731778 0.000024
0.493868 0.731207 0.000024
0.514845 0.730605 0.000024
0.535291 0.729552 0.000024
0.555566 0.728368 0.000024
0.574324 0.727194 0.000024
0.591861 0.726009 0.000024
0.608646 0.724863 0.000024
0.625805 0.724681 0.000024
0.642754 0.725017 0.000024
0.660305 0.726618 0.000024
0.678642 0.729003 0.000024
0.696871 0.732502 0.000024
0.715301 0.736890 0.000024
0.734799 0.741940 0.000024
0.760094 0.747878 0.000492
0.787546 0.753372 0.003352
0.812226 0.758701 0.011566
