components/images/luts/Vintage Chrome.cube
# Created by: Lutify.me
# Copyright: (c) Copyright Lutify.me 2016, G.T. Colord LTD
# Website: https://lutify.me
# Contact: help@lutify.me
LUT_3D_SIZE 9
0.000054 0.000093 0.000024
0.121999 0.012322 0.001513
0.237287 0.017160 0.001465
0.349349 0.017739 0.000672
0.458571 0.014719 0.000024
0.564608 0.010219 0.000024
0.665625 0.005723 0.000024
0.756428 0.001393 0.000024
0.837534 0.000093 0.000024
0.074266 0.162101 0.015989
0.147710 0.140822 0.014045
0.243115 0.143219 0.010342
0.352572 0.141462 0.007775
0.458893 0.132839 0.005512
0.560106 0.118419 0.003017
0.659384 0.104374 0.001408
0.753521 0.091688 0.000024
0.832025 0.072084 0.000024
0.130901 0.300289 0.016737
0.209736 0.287579 0.017907
0.289290 0.274030 0.022778
0.373493 0.273472 0.019847
0.466376 0.263160 0.016168
0.566598 0.249699 0.010399
0.665145 0.231792 0.006181
0.753771 0.207313 0.000040
0.826141 0.180972 0.000024
0.176509 0.422562 0.010312
0.255081 0.411194 0.012438
0.338308 0.398702 0.015802
0.423500 0.394403 0.024584
0.507322 0.399880 0.026602
0.591670 0.383338 0.026507
0.675549 0.364461 0.013375
0.761101 0.333881 0.000024
0.839348 0.313379 0.000024
0.211344 0.528594 0.003941
0.287847 0.516083 0.005250
0.375686 0.507702 0.010262
0.466199 0.504340 0.017785
0.555575 0.508916 0.028874
0.636314 0.516464 0.029668
0.710774 0.498700 0.019966
0.796373 0.480638 0.010976
0.887061 0.480061 0.000526
0.247704 0.626220 0.000024
0.325088 0.613733 0.000534
0.416232 0.604532 0.003078
0.504052 0.603887 0.009194
0.589649 0.608949 0.012495
0.678053 0.612080 0.019415
0.765362 0.621919 0.021974
0.842001 0.621879 0.014856
0.902810 0.634553 0.013246
0.305212 0.711435 0.000024
0.378466 0.697021 0.000024
0.464653 0.694404 0.000024
0.542214 0.695533 0.000747
0.619459 0.694852 0.000708
0.708149 0.701941 0.000460
0.802384 0.713940 0.026222
0.893045 0.735079 0.023579
0.955522 0.747177 0.028458
0.377558 0.779905 0.000024
0.453583 0.764595 0.000024
0.541111 0.754935 0.000024
0.607293 0.753136 0.000024
0.674318 0.759629 0.000023
0.721568 0.777867 0.000486
0.807214 0.801889 0.015515
0.911342 0.819935 0.050975
0.989877 0.838566 0.085916
0.489035 0.816415 0.000112
0.566684 0.808920 0.000611
0.647669 0.802687 0.010453
0.680931 0.812802 0.043056
0.699727 0.828298 0.065222
0.730454 0.850559 0.081338
0.786287 0.870760 0.096230
0.880651 0.892190 0.154739
0.966288 0.910847 0.203629
0.002345 0.019412 0.094054
0.108564 0.016642 0.084702
0.217493 0.011142 0.073920
0.325590 0.007416 0.063806
0.432590 0.004428 0.053042
0.536359 0.000658 0.041008
0.637712 0.000093 0.029756
0.733081 0.000093 0.021238
0.817791 0.000093 0.010794
0.070599 0.114793 0.109661
0.094819 0.073127 0.072143
0.213966 0.073799 0.062959
0.322443 0.073484 0.057760
0.434698 0.076925 0.056693
0.546620 0.075462 0.052445
0.651966 0.065869 0.042486
0.749775 0.045893 0.023204
0.826324 0.022606 0.005444
0.135371 0.261780 0.117942
0.165807 0.227178 0.082000
0.253489 0.211649 0.076054
0.355289 0.214521 0.075785
0.460482 0.218183 0.073895
0.561880 0.213839 0.068572
0.661841 0.197993 0.055065
0.756213 0.179380 0.041268
0.829812 0.131976 0.004687
0.184629 0.390171 0.110249
0.220851 0.362031 0.082968
0.312572 0.355389 0.086080
0.404780 0.355184 0.092684
0.492611 0.357866 0.092116
0.581293 0.353249 0.087781
0.676304 0.341685 0.075345
0.765761 0.324677 0.067646
0.852307 0.285386 0.020654
0.220498 0.500211 0.090647
0.269161 0.484006 0.074345
0.359499 0.479977 0.080731
0.449217 0.480972 0.090352
0.535354 0.484157 0.099378
0.620437 0.489165 0.100326
0.706630 0.486834 0.092818
0.784834 0.472978 0.091082
0.868651 0.459892 0.072867
0.261537 0.602734 0.070825
0.326484 0.591106 0.066841
0.408718 0.587167 0.070695
0.490902 0.588516 0.077736
0.575931 0.594878 0.084145
0.666857 0.604636 0.100554
0.756962 0.617620 0.106094
0.832838 0.619351 0.098907
0.892023 0.620593 0.098487
0.330750 0.688207 0.057463
0.402447 0.681007 0.077735
0.473610 0.677313 0.083805
0.542631 0.680691 0.088114
0.611671 0.689764 0.090561
0.693021 0.702995 0.095452
0.793338 0.718968 0.114404
0.886795 0.737040 0.127265
0.948509 0.754417 0.118713
0.421036 0.757513 0.063969
0.485334 0.754010 0.109463
0.543559 0.753366 0.124690
0.596349 0.758659 0.140246
0.648407 0.769451 0.147376
0.707989 0.785789 0.143964
0.792161 0.805700 0.157955
0.891987 0.825655 0.192390
0.989178 0.845536 0.180176
0.540915 0.802954 0.114306
0.597850 0.798198 0.129092
0.644141 0.807270 0.156241
0.662434 0.819430 0.192973
0.680440 0.838368 0.222342
0.720161 0.858403 0.239044
0.777831 0.879082 0.240053
0.870658 0.901371 0.286282
0.960457 0.921808 0.328310
0.000054 0.018576 0.166734
0.082468 0.011336 0.154442
0.187917 0.007663 0.142621
0.293411 0.004178 0.129985
0.396090 0.000894 0.116327
0.496939 0.000093 0.100497
0.599700 0.000093 0.086767
0.704004 0.000093 0.077710
0.842709 0.000093 0.126867
0.062939 0.109479 0.200805
0.114827 0.102127 0.183500
0.213005 0.079683 0.152467
0.317074 0.075219 0.143308
0.425575 0.074812 0.140527
0.535528 0.068773 0.132725
0.645136 0.058637 0.121179
0.748514 0.047712 0.109966
0.833361 0.016566 0.088818
0.138758 0.223241 0.218174
0.165841 0.211297 0.181794
0.217148 0.179485 0.164860
0.343485 0.189435 0.162515
0.453066 0.194535 0.159657
0.561704 0.195452 0.160359
0.662115 0.185066 0.161729
0.758088 0.152134 0.117593
0.841039 0.086147 0.047338
0.195777 0.354189 0.220265
0.225685 0.337904 0.188873
0.292277 0.337922 0.179629
0.388481 0.333691 0.179856
0.491996 0.344728 0.181781
0.590064 0.346608 0.182825
0.677708 0.333874 0.192539
0.770553 0.306363 0.158722
0.866040 0.299599 0.136753
0.240056 0.470189 0.207490
0.282266 0.461517 0.186482
0.351608 0.465798 0.190015
0.442239 0.471858 0.192517
0.535472 0.481850 0.200928
0.626109 0.492887 0.200331
0.703184 0.482268 0.209213
0.786259 0.458271 0.196634
0.873639 0.447917 0.190979
0.291197 0.577129 0.191690
0.349237 0.571909 0.184927
0.406945 0.578518 0.218403
0.484708 0.585162 0.214761
0.570073 0.596408 0.209185
0.664451 0.609751 0.215834
0.750131 0.621894 0.219258
0.824187 0.619329 0.205667
0.877431 0.592883 0.241280
0.363700 0.670562 0.184414
0.427134 0.666202 0.205985
0.459643 0.677768 0.267993
0.525437 0.683962 0.269757
0.596235 0.694319 0.264577
0.678284 0.708968 0.248676
0.777845 0.724925 0.262887
0.880850 0.742637 0.231037
0.930300 0.757241 0.232627
0.479064 0.738273 0.214194
0.505927 0.746386 0.255795
0.546969 0.750358 0.275683
0.594362 0.758975 0.291971
0.644588 0.772537 0.296004
0.703758 0.790746 0.287049
0.783451 0.812289 0.280982
0.889022 0.834532 0.306260
0.986382 0.852239 0.283623
0.571728 0.796486 0.279251
0.610942 0.804689 0.309637
0.624363 0.815408 0.350377
0.634839 0.832306 0.392491
0.664919 0.850914 0.417744
0.712280 0.870046 0.426007
0.772727 0.890747 0.414507
0.861577 0.913174 0.428804
0.955857 0.935083 0.463506
0.000054 0.010089 0.229689
0.049002 0.005410 0.215120
0.151019 0.002053 0.201016
0.253015 0.000246 0.187511
0.352564 0.000093 0.171355
0.455250 0.000093 0.157525
0.574916 0.000093 0.157381
0.751908 0.008567 0.228613
0.868178 0.000114 0.261123
0.039943 0.102703 0.273884
0.097020 0.094141 0.256327
0.192989 0.079461 0.232953
0.300276 0.076101 0.225818
0.413820 0.075576 0.224941
0.530183 0.074171 0.225478
0.648139 0.070303 0.225206
0.756951 0.062621 0.225977
0.857927 0.042084 0.225983
0.133192 0.208351 0.306224
0.160348 0.203113 0.272106
0.243278 0.213781 0.284780
0.348139 0.199794 0.261681
0.455658 0.200377 0.256531
0.561227 0.196246 0.259483
0.660662 0.184060 0.269719
0.768485 0.158427 0.236725
0.862181 0.141692 0.209596
0.204408 0.324556 0.322210
0.230047 0.320557 0.288253
0.294401 0.335658 0.288143
0.366716 0.323780 0.280094
0.485852 0.331988 0.275414
0.580337 0.325272 0.286983
0.673208 0.311601 0.296818
0.776789 0.294527 0.272950
0.875595 0.295530 0.267618
0.258080 0.447501 0.323229
0.299049 0.444345 0.301828
0.359395 0.457991 0.305050
0.430076 0.464754 0.295486
0.527339 0.472799 0.295978
0.622528 0.478856 0.297743
0.705271 0.465508 0.313820
0.791817 0.452990 0.318259
0.863131 0.436166 0.354114
0.317005 0.554804 0.312775
0.371493 0.556871 0.315207
0.415586 0.569438 0.349923
0.470001 0.577809 0.357609
0.560629 0.590617 0.335040
0.660197 0.607535 0.324718
0.746818 0.617300 0.318284
0.823831 0.610290 0.331974
0.865819 0.575191 0.403061
0.403969 0.651813 0.323619
0.446940 0.656499 0.354319
0.468565 0.672282 0.416569
0.518243 0.677831 0.412787
0.591220 0.691345 0.397975
0.675077 0.708847 0.370927
0.774990 0.727506 0.368067
0.878679 0.754014 0.338865
0.913877 0.745862 0.364280
0.516049 0.731829 0.381229
0.517291 0.744432 0.427776
0.552739 0.751925 0.452864
0.594752 0.764050 0.467854
0.643628 0.780228 0.467349
0.702646 0.799767 0.450413
0.781244 0.823286 0.413146
0.889455 0.846271 0.427129
0.979760 0.860154 0.402649
0.578099 0.805535 0.461567
0.593690 0.814429 0.499804
0.596331 0.828708 0.557579
0.616666 0.846429 0.599629
0.657090 0.864806 0.619351
0.707179 0.883949 0.621285
0.768817 0.904505 0.598114
0.853830 0.927501 0.578720
0.951722 0.949371 0.606032
0.000054 0.003128 0.284185
0.017260 0.000145 0.269276
0.109086 0.000093 0.253947
0.207639 0.000093 0.237702
0.308379 0.000093 0.222785
0.437571 0.000087 0.234124
0.633938 0.018147 0.321705
0.799186 0.008352 0.389713
0.875003 0.000094 0.369677
0.014442 0.086932 0.334991
0.073443 0.081732 0.319473
0.163356 0.073295 0.303717
0.275191 0.071392 0.299560
0.393103 0.072302 0.303446
0.519844 0.075631 0.315786
0.652817 0.079592 0.335966
0.772661 0.072414 0.352330
0.871225 0.051953 0.345628
0.111367 0.196349 0.384992
0.148215 0.194977 0.358599
0.227555 0.208425 0.374585
0.329705 0.199994 0.360798
0.440321 0.197783 0.361033
0.554813 0.196751 0.368059
0.661807 0.191137 0.390163
0.786975 0.173413 0.376917
0.875009 0.159868 0.360606
0.203274 0.310578 0.416558
0.234781 0.313738 0.389079
0.295245 0.332640 0.391691
0.380095 0.342561 0.398949
0.483363 0.331019 0.383444
0.583515 0.327580 0.396390
0.678355 0.314591 0.417217
0.785716 0.299076 0.408179
0.872641 0.289985 0.413730
0.271111 0.425730 0.426965
0.313133 0.434877 0.414196
0.369099 0.453551 0.413753
0.435661 0.469885 0.405237
0.508701 0.463701 0.394569
0.616429 0.463074 0.395829
0.705495 0.455403 0.425819
0.801105 0.449485 0.447515
0.859271 0.434953 0.517271
0.339304 0.542599 0.435792
0.387314 0.548755 0.446318
0.424553 0.563487 0.480178
0.475978 0.577029 0.474472
0.554432 0.587293 0.435027
0.656866 0.602209 0.413857
0.750043 0.612315 0.425401
0.830516 0.606507 0.457270
0.870150 0.573838 0.556603
0.442877 0.642086 0.474497
0.457929 0.653044 0.510683
0.475939 0.669568 0.556365
0.523785 0.679670 0.545828
0.589026 0.692017 0.521786
0.678053 0.712385 0.488994
0.780664 0.735591 0.467187
0.878081 0.764295 0.447380
0.906153 0.725559 0.528624
0.517937 0.736777 0.560996
0.518899 0.747271 0.609441
0.551363 0.758084 0.634561
0.591158 0.772554 0.646447
0.639522 0.789598 0.641189
0.702715 0.809723 0.609353
0.784533 0.833531 0.549355
0.893354 0.857724 0.534133
0.971522 0.869007 0.515487
0.565845 0.816524 0.645818
0.562472 0.827238 0.708620
0.572884 0.844045 0.772190
0.606304 0.861713 0.805308
0.650159 0.879999 0.819956
0.702877 0.899273 0.814054
0.766801 0.919359 0.781006
0.847862 0.941559 0.728111
0.949172 0.962831 0.740318
0.000054 0.000093 0.332823
0.000128 0.000093 0.318125
0.063535 0.000093 0.300647
0.161467 0.000093 0.285522
0.274115 0.000093 0.279859
0.461299 0.001575 0.358884
0.638130 0.000089 0.434178
0.750959 0.000093 0.432301
0.839151 0.000093 0.424337
0.000964 0.065552 0.387070
0.048041 0.066258 0.378074
0.127029 0.061601 0.371442
0.237179 0.060725 0.372567
0.357199 0.063414 0.383675
0.483891 0.065733 0.404424
0.618842 0.066267 0.437553
0.747565 0.064048 0.472460
0.854836 0.039891 0.447865
0.076972 0.175812 0.447635
0.129400 0.181703 0.442994
0.185325 0.194688 0.474473
0.278590 0.186880 0.471005
0.391253 0.185187 0.483064
0.509009 0.186156 0.502157
0.633403 0.187534 0.526726
0.778002 0.174999 0.518208
0.875031 0.149929 0.493956
0.185160 0.296047 0.495629
0.231272 0.306874 0.498916
0.277829 0.321103 0.519597
0.330043 0.326706 0.532586
0.435300 0.320560 0.532346
0.548344 0.319981 0.542536
0.676122 0.317143 0.550381
0.793379 0.308276 0.556363
0.869749 0.295190 0.595691
0.277445 0.416485 0.533116
0.322064 0.431580 0.532895
0.365664 0.445309 0.542436
0.416296 0.457782 0.540336
0.499112 0.466426 0.532549
0.603406 0.458062 0.530604
0.711145 0.458423 0.547427
0.806894 0.452211 0.588737
0.863171 0.437216 0.680354
0.365402 0.536487 0.569420
0.397085 0.546626 0.579621
0.431901 0.561403 0.595872
0.484068 0.578468 0.573219
0.561956 0.597101 0.541181
0.652056 0.607956 0.515113
0.753985 0.612681 0.543743
0.835006 0.604865 0.590465
0.876033 0.576914 0.717996
0.447164 0.646794 0.638617
0.460371 0.654742 0.668966
0.480157 0.670608 0.672577
0.529265 0.683671 0.658011
0.594776 0.700865 0.631180
0.685839 0.723521 0.591602
0.791344 0.750330 0.561746
0.878131 0.760440 0.564900
0.901785 0.718265 0.703874
0.503133 0.745299 0.743918
0.512227 0.755249 0.769624
0.543620 0.767709 0.784902
0.582900 0.782452 0.792316
0.634782 0.799121 0.781203
0.703180 0.818731 0.743542
0.790364 0.842599 0.676334
0.900142 0.869385 0.625932
0.958509 0.875499 0.642841
0.529628 0.830235 0.874573
0.532822 0.843324 0.939416
0.560803 0.859384 0.973373
0.600359 0.876758 0.988743
0.646894 0.894795 0.994447
0.700745 0.913741 0.989341
0.765842 0.932902 0.956607
0.847187 0.953787 0.877329
0.950276 0.975390 0.857554
0.000054 0.000093 0.377752
0.000054 0.000093 0.361511
0.024068 0.000093 0.344978
0.120149 0.000093 0.335745
0.279111 0.000093 0.382970
0.460173 0.000093 0.464556
0.574171 0.000093 0.470547
0.678647 0.000093 0.484283
0.763014 0.000093 0.504121
0.000054 0.042055 0.432405
0.025977 0.050554 0.439124
0.086014 0.049341 0.440790
0.189189 0.051425 0.453211
0.309383 0.051566 0.472961
0.438708 0.051246 0.507212
0.567374 0.050294 0.549089
0.683508 0.049592 0.585342
0.769642 0.027322 0.581278
0.044038 0.150916 0.500566
0.111469 0.165178 0.535133
0.141983 0.178238 0.572786
0.219423 0.169569 0.570432
0.332499 0.169992 0.587116
0.452468 0.173787 0.609692
0.576949 0.178620 0.638432
0.709970 0.161912 0.670824
0.799096 0.145749 0.677691
0.164827 0.280775 0.580902
0.216388 0.294511 0.618668
0.252941 0.308404 0.645181
0.276560 0.307625 0.645647
0.377552 0.302450 0.648362
0.495449 0.304066 0.665947
0.617546 0.307564 0.688366
0.748015 0.300403 0.733900
0.850550 0.300382 0.797978
0.287629 0.414407 0.668741
0.315673 0.422695 0.679367
0.340891 0.434139 0.689229
0.387277 0.444150 0.682907
0.438528 0.448263 0.679637
0.548038 0.446875 0.688613
0.664727 0.448869 0.705587
0.794636 0.448432 0.745521
0.865294 0.442026 0.863634
0.370537 0.542046 0.714846
0.398163 0.547248 0.721144
0.427117 0.559252 0.713385
0.476161 0.572311 0.698566
0.538393 0.587526 0.684349
0.619639 0.599247 0.669889
0.728519 0.600147 0.682603
0.834610 0.598399 0.723227
0.877401 0.579637 0.894672
0.440248 0.650295 0.799852
0.455923 0.659973 0.802381
0.481964 0.674834 0.769467
0.534196 0.689305 0.750954
0.604040 0.709373 0.721109
0.694427 0.735147 0.685584
0.801542 0.764766 0.653462
0.876703 0.751804 0.692671
0.900563 0.718974 0.882835
0.495368 0.754706 0.894340
0.500709 0.766005 0.881373
0.532782 0.778247 0.890607
0.575018 0.792501 0.893615
0.630636 0.808424 0.879942
0.703997 0.827104 0.840768
0.798713 0.850650 0.767489
0.910573 0.881718 0.703442
0.943828 0.864436 0.808591
0.497946 0.846716 0.999977
0.519806 0.860088 0.999977
0.553768 0.875740 0.999977
0.594851 0.892697 0.999977
0.642728 0.909986 0.999977
0.697570 0.927674 0.999977
0.764175 0.945646 0.999977
0.848139 0.965469 0.999943
0.954868 0.985847 0.955657
0.000054 0.000093 0.414642
0.000054 0.000093 0.400708
0.003052 0.000093 0.386880
0.108875 0.000093 0.412007
0.262890 0.000093 0.464502
0.398316 0.000093 0.506442
0.501469 0.000093 0.545659
0.600147 0.000093 0.585853
0.680135 0.000093 0.633561
0.000054 0.018640 0.471622
0.002043 0.036978 0.498362
0.050923 0.038162 0.510605
0.142647 0.038318 0.532231
0.262750 0.037715 0.564493
0.386250 0.038451 0.605728
0.506204 0.040722 0.652020
0.615694 0.047208 0.696250
0.692759 0.026405 0.713552
0.023495 0.129528 0.555018
0.100637 0.150191 0.625089
0.080546 0.143636 0.626491
0.172507 0.139314 0.639165
0.289770 0.140786 0.671282
0.406956 0.142142 0.710070
0.523943 0.146182 0.750747
0.639041 0.152868 0.791898
0.737876 0.155309 0.877287
0.171011 0.277430 0.701859
0.203380 0.283376 0.738540
0.251134 0.294570 0.764786
0.238396 0.291186 0.766191
0.314551 0.278812 0.769704
0.430336 0.280784 0.800675
0.548854 0.285036 0.832864
0.668319 0.290755 0.866494
0.785682 0.305271 0.999969
0.286632 0.409602 0.819564
0.306415 0.415797 0.825221
0.341578 0.425330 0.836516
0.378418 0.436243 0.845578
0.368851 0.431939 0.841159
0.464086 0.427293 0.854292
0.583101 0.430164 0.881715
0.703431 0.435281 0.910230
0.818912 0.446352 0.999977
0.361341 0.537875 0.887452
0.381564 0.542234 0.874577
0.414570 0.551526 0.875563
0.452535 0.562766 0.877401
0.498123 0.575048 0.874442
0.523070 0.576927 0.863940
0.633671 0.576706 0.887956
0.750559 0.579114 0.913576
0.861276 0.583803 0.999977
0.428189 0.653907 0.934011
0.446287 0.666066 0.905354
0.485873 0.676276 0.899805
0.533768 0.688611 0.891617
0.589101 0.702143 0.879361
0.653688 0.717108 0.857146
0.719289 0.729907 0.828950
0.825226 0.728303 0.856128
0.899292 0.721806 0.999970
0.469977 0.767683 0.999975
0.488900 0.777080 0.954136
0.522868 0.788952 0.956991
0.567747 0.802516 0.958186
0.627709 0.817117 0.942732
0.706622 0.834428 0.903745
0.808433 0.858507 0.839977
0.921808 0.894578 0.779618
0.935940 0.861268 0.994610
0.487229 0.863894 0.999977
0.513454 0.877139 0.999977
0.548370 0.892097 0.999977
0.590897 0.907863 0.999977
0.639370 0.923726 0.999977
0.695712 0.939964 0.999977
0.763697 0.957020 0.999977
0.850944 0.974791 0.999976
0.971716 0.993546 0.991495
0.000054 0.000093 0.447482
0.000054 0.000093 0.432678
0.004411 0.000093 0.435850
0.075061 0.000093 0.454466
0.233367 0.000093 0.543720
0.338903 0.000093 0.586177
0.442671 0.000093 0.631724
0.534842 0.000093 0.684553
0.619936 0.000093 0.702399
0.000054 0.004485 0.506081
0.000054 0.013397 0.523129
0.016177 0.011887 0.552799
0.106933 0.013323 0.602126
0.223570 0.011712 0.657932
0.329995 0.010948 0.694976
0.435616 0.014706 0.736244
0.544523 0.021725 0.759440
0.646809 0.033105 0.842828
0.026634 0.121673 0.640464
0.091587 0.141995 0.711722
0.007948 0.114814 0.705890
0.111715 0.114149 0.738242
0.225526 0.112159 0.766007
0.338735 0.114307 0.794696
0.454285 0.124179 0.844491
0.575732 0.140557 0.931494
0.698923 0.164763 0.977920
0.180701 0.273028 0.828704
0.211212 0.273163 0.868250
0.247982 0.283211 0.916137
0.210610 0.283848 0.910394
0.249022 0.255721 0.871281
0.365492 0.262602 0.933118
0.481118 0.274272 0.994557
0.611995 0.291308 0.999977
0.724764 0.300288 0.999977
0.269994 0.395090 0.957543
0.299946 0.408942 0.988364
0.341401 0.428076 0.999971
0.383131 0.438074 0.999976
0.342464 0.428657 0.999973
0.385592 0.416581 0.999977
0.509234 0.426320 0.999977
0.633781 0.434398 0.999977
0.747006 0.440125 0.999977
0.352009 0.537786 0.999976
0.380042 0.542092 0.999977
0.409578 0.549262 0.999977
0.414000 0.556384 0.999977
0.442008 0.571828 0.999977
0.409874 0.560729 0.999977
0.535853 0.568017 0.999977
0.659813 0.574080 0.999977
0.774876 0.578813 0.999977
0.417675 0.655322 0.999977
0.424324 0.662648 0.999977
0.441068 0.675084 0.999977
0.477750 0.687181 0.999977
0.521152 0.699309 0.999977
0.568971 0.711144 0.999977
0.578561 0.709835 0.999977
0.700404 0.713990 0.999977
0.817101 0.718392 0.999977
0.445355 0.778413 0.999977
0.470830 0.789607 0.999977
0.508912 0.802115 0.999977
0.553488 0.814462 0.999977
0.605066 0.826672 0.999977
0.659987 0.838419 0.999977
0.719986 0.850035 0.999977
0.770636 0.856348 0.999976
0.884206 0.858455 0.999977
0.482442 0.878757 0.999977
0.509008 0.892334 0.999977
0.544835 0.905516 0.999977
0.587384 0.920620 0.999977
0.636471 0.935391 0.999977
0.693744 0.950863 0.999977
0.763579 0.966160 0.999977
0.856305 0.982024 0.999977
1.000000 1.000000 0.999973
