components/images/luts/Vintage Chrome.cube
# Created by: Lutify.me
# Copyright: (c) Copyright Lutify.me 2016, G.T. Colord LTD
# Website: https://lutify.me
# Contact: help@lutify.me
LUT_3D_SIZE 5
0.000054 0.000093 0.000024
0.237287 0.017160 0.001465
0.458571 0.014719 0.000024
0.665625 0.005723 0.000024
0.837534 0.000093 0.000024
0.130901 0.300289 0.016737
0.289290 0.274030 0.022778
0.466376 0.263160 0.016168
0.665145 0.231792 0.006181
0.826141 0.180972 0.000024
0.211344 0.528594 0.003941
0.375686 0.507702 0.010262
0.555575 0.508916 0.028874
0.710774 0.498700 0.019966
0.887061 0.480061 0.000526
0.305212 0.711435 0.000024
0.464653 0.694404 0.000024
0.619459 0.694852 0.000708
0.802384 0.713940 0.026222
0.955522 0.747177 0.028458
0.489035 0.816415 0.000112
0.647669 0.802687 0.010453
0.699727 0.828298 0.065222
0.786287 0.870760 0.096230
0.966288 0.910847 0.203629
0.000054 0.018576 0.166734
0.187917 0.007663 0.142621
0.396090 0.000894 0.116327
0.599700 0.000093 0.086767
0.842709 0.000093 0.126867
0.138758 0.223241 0.218174
0.217148 0.179485 0.164860
0.453066 0.194535 0.159657
0.662115 0.185066 0.161729
0.841039 0.086147 0.047338
0.240056 0.470189 0.207490
0.351608 0.465798 0.190015
0.535472 0.481850 0.200928
0.703184 0.482268 0.209213
0.873639 0.447917 0.190979
0.363700 0.670562 0.184414
0.459643 0.677768 0.267993
0.596235 0.694319 0.264577
0.777845 0.724925 0.262887
0.930300 0.757241 0.232627
0.571728 0.796486 0.279251
0.624363 0.815408 0.350377
0.664919 0.850914 0.417744
0.772727 0.890747 0.414507
0.955857 0.935083 0.463506
0.000054 0.003128 0.284185
0.109086 0.000093 0.253947
0.308379 0.000093 0.222785
0.633938 0.018147 0.321705
0.875003 0.000094 0.369677
0.111367 0.196349 0.384992
0.227555 0.208425 0.374585
0.440321 0.197783 0.361033
0.661807 0.191137 0.390163
0.875009 0.159868 0.360606
0.271111 0.425730 0.426965
0.369099 0.453551 0.413753
0.508701 0.463701 0.394569
0.705495 0.455403 0.425819
0.859271 0.434953 0.517271
0.442877 0.642086 0.474497
0.475939 0.669568 0.556365
0.589026 0.692017 0.521786
0.780664 0.735591 0.467187
0.906153 0.725559 0.528624
0.565845 0.816524 0.645818
0.572884 0.844045 0.772190
0.650159 0.879999 0.819956
0.766801 0.919359 0.781006
0.949172 0.962831 0.740318
0.000054 0.000093 0.377752
0.024068 0.000093 0.344978
0.279111 0.000093 0.382970
0.574171 0.000093 0.470547
0.763014 0.000093 0.504121
0.044038 0.150916 0.500566
0.141983 0.178238 0.572786
0.332499 0.169992 0.587116
0.576949 0.178620 0.638432
0.799096 0.145749 0.677691
0.287629 0.414407 0.668741
0.340891 0.434139 0.689229
0.438528 0.448263 0.679637
0.664727 0.448869 0.705587
0.865294 0.442026 0.863634
0.440248 0.650295 0.799852
0.481964 0.674834 0.769467
0.604040 0.709373 0.721109
0.801542 0.764766 0.653462
0.900563 0.718974 0.882835
0.497946 0.846716 0.999977
0.553768 0.875740 0.999977
0.642728 0.909986 0.999977
0.764175 0.945646 0.999977
0.954868 0.985847 0.955657
0.000054 0.000093 0.447482
0.004411 0.000093 0.435850
0.233367 0.000093 0.543720
0.442671 0.000093 0.631724
0.619936 0.000093 0.702399
0.026634 0.121673 0.640464
0.007948 0.114814 0.705890
0.225526 0.112159 0.766007
0.454285 0.124179 0.844491
0.698923 0.164763 0.977920
0.269994 0.395090 0.957543
0.341401 0.428076 0.999971
0.342464 0.428657 0.999973
0.509234 0.426320 0.999977
0.747006 0.440125 0.999977
0.417675 0.655322 0.999977
0.441068 0.675084 0.999977
0.521152 0.699309 0.999977
0.578561 0.709835 0.999977
0.817101 0.718392 0.999977
0.482442 0.878757 0.999977
0.544835 0.905516 0.999977
0.636471 0.935391 0.999977
0.763579 0.966160 0.999977
1.000000 1.000000 0.999973
